;START_OF_HEADER
;HEADER_VERSION:0.1
;FLAVOR:Griffin
;GENERATOR.NAME:Cura_SteamEngine
;GENERATOR.VERSION:master
;GENERATOR.BUILD_DATE:2021-06-20
;TARGET_MACHINE.NAME:Ultimaker 3
;EXTRUDER_TRAIN.0.INITIAL_TEMPERATURE:205
;EXTRUDER_TRAIN.0.MATERIAL.VOLUME_USED:3192
;EXTRUDER_TRAIN.0.MATERIAL.GUID:506c9f0d-e3aa-4bd4-b2d2-23e2425b1aa9
;EXTRUDER_TRAIN.0.NOZZLE.DIAMETER:0.4
;EXTRUDER_TRAIN.0.NOZZLE.NAME:AA 0.4
;BUILD_PLATE.TYPE:glass
;BUILD_PLATE.INITIAL_TEMPERATURE:60
;PRINT.TIME:4914
;PRINT.GROUPS:1
;PRINT.SIZE.MIN.X:9
;PRINT.SIZE.MIN.Y:6
;PRINT.SIZE.MIN.Z:0.27
;PRINT.SIZE.MAX.X:132.475
;PRINT.SIZE.MAX.Y:134.43
;PRINT.SIZE.MAX.Z:74.97
;END_OF_HEADER
;Generated with Cura_SteamEngine master
T0
M82 ;absolute extrusion mode

G92 E0
M109 S205
G0 F15000 X9 Y6 Z2
G280
G1 F1500 E-6.5
;LAYER_COUNT:748
;LAYER:0
M107
M204 S625
M205 X6 Y6
G1 F600 Z2.27
G0 F4285.7 X110.006 Y83.335 Z2.27
M204 S500
M205 X5 Y5
;TYPE:SKIRT
G1 F600 Z0.27
G1 F1500 E0
G1 F1200 X110.485 Y82.765 E0.01323
G1 X111.022 Y82.25 E0.02646
G1 X111.611 Y81.795 E0.03969
G1 X112.245 Y81.406 E0.05291
G1 X112.918 Y81.087 E0.06615
G1 X113.621 Y80.842 E0.07939
G1 X114.346 Y80.674 E0.09262
G1 X115.085 Y80.585 E0.10585
G1 X115.545 Y80.57 E0.11403
G1 X125.545 Y80.57 E0.29179
G1 X126.288 Y80.61 E0.30501
G1 X127.023 Y80.729 E0.31825
G1 X127.741 Y80.927 E0.33149
G1 X128.433 Y81.2 E0.34471
G1 X129.092 Y81.546 E0.35794
G1 X129.71 Y81.961 E0.37118
G1 X130.28 Y82.44 E0.38441
G1 X130.795 Y82.977 E0.39764
G1 X131.25 Y83.566 E0.41087
G1 X131.639 Y84.2 E0.42409
G1 X131.958 Y84.873 E0.43733
G1 X132.203 Y85.576 E0.45056
G1 X132.371 Y86.301 E0.46379
G1 X132.46 Y87.04 E0.47702
G1 X132.475 Y87.5 E0.4852
G1 X132.475 Y127.5 E1.19624
G1 X132.435 Y128.243 E1.20947
G1 X132.316 Y128.978 E1.22271
G1 X132.118 Y129.696 E1.23595
G1 X131.845 Y130.388 E1.24917
G1 X131.499 Y131.047 E1.2624
G1 X131.084 Y131.665 E1.27563
G1 X130.605 Y132.235 E1.28887
G1 X130.068 Y132.75 E1.30209
G1 X129.479 Y133.205 E1.31532
G1 X128.845 Y133.594 E1.32855
G1 X128.172 Y133.913 E1.34178
G1 X127.469 Y134.158 E1.35502
G1 X126.744 Y134.326 E1.36825
G1 X126.005 Y134.415 E1.38148
G1 X125.545 Y134.43 E1.38966
G1 X115.545 Y134.43 E1.56742
G1 X114.802 Y134.39 E1.58065
G1 X114.067 Y134.271 E1.59388
G1 X113.349 Y134.073 E1.60712
G1 X112.657 Y133.8 E1.62035
G1 X111.998 Y133.454 E1.63358
G1 X111.38 Y133.039 E1.64681
G1 X110.81 Y132.56 E1.66004
G1 X110.295 Y132.023 E1.67327
G1 X109.84 Y131.434 E1.6865
G1 X109.451 Y130.8 E1.69972
G1 X109.132 Y130.127 E1.71296
G1 X108.887 Y129.424 E1.72619
G1 X108.719 Y128.699 E1.73942
G1 X108.63 Y127.96 E1.75266
G1 X108.615 Y127.5 E1.76084
G1 X108.615 Y116.93 E1.94873
G1 X107.545 Y116.93 E1.96775
G1 X106.802 Y116.89 E1.98098
G1 X106.067 Y116.771 E1.99421
G1 X105.349 Y116.573 E2.00745
G1 X104.657 Y116.3 E2.02067
G1 X103.998 Y115.954 E2.03391
G1 X103.38 Y115.539 E2.04714
G1 X102.81 Y115.06 E2.06037
G1 X102.295 Y114.523 E2.0736
G1 X101.84 Y113.934 E2.08683
G1 X101.451 Y113.3 E2.10005
G1 X101.132 Y112.627 E2.11329
G1 X100.887 Y111.924 E2.12652
G1 X100.719 Y111.199 E2.13975
G1 X100.63 Y110.46 E2.15298
G1 X100.615 Y110 E2.16117
G1 X100.615 Y105 E2.25005
G1 X100.655 Y104.257 E2.26327
G1 X100.774 Y103.522 E2.27651
G1 X100.972 Y102.804 E2.28975
G1 X101.245 Y102.112 E2.30297
G1 X101.591 Y101.453 E2.3162
G1 X102.006 Y100.835 E2.32943
G1 X102.485 Y100.265 E2.34267
G1 X103.022 Y99.75 E2.3559
G1 X103.611 Y99.295 E2.36913
G1 X104.245 Y98.906 E2.38235
G1 X104.918 Y98.587 E2.39559
G1 X105.621 Y98.342 E2.40882
G1 X106.346 Y98.174 E2.42205
G1 X107.085 Y98.085 E2.43528
G1 X107.545 Y98.07 E2.44346
G1 X108.615 Y98.07 E2.46248
G1 X108.615 Y87.5 E2.65037
G1 X108.655 Y86.757 E2.6636
G1 X108.774 Y86.022 E2.67684
G1 X108.972 Y85.304 E2.69008
G1 X109.245 Y84.612 E2.7033
G1 X109.591 Y83.953 E2.71653
G1 X110.006 Y83.335 E2.72976
M204 S625
M205 X6 Y6
G0 F4285.7 X110.423 Y83.482
M204 S500
M205 X5 Y5
G1 F1200 X110.899 Y82.94 E2.74259
G1 X111.432 Y82.454 E2.75541
G1 X112.016 Y82.03 E2.76824
G1 X112.643 Y81.673 E2.78106
G1 X113.305 Y81.387 E2.79388
G1 X113.995 Y81.177 E2.8067
G1 X114.704 Y81.045 E2.81952
G1 X115.545 Y80.99 E2.8345
G1 X125.545 Y80.99 E3.01226
G1 X126.265 Y81.03 E3.02508
G1 X126.977 Y81.149 E3.03791
G1 X127.671 Y81.347 E3.05074
G1 X128.338 Y81.62 E3.06355
G1 X128.972 Y81.965 E3.07638
G1 X129.563 Y82.378 E3.0892
G1 X130.105 Y82.854 E3.10202
G1 X130.591 Y83.387 E3.11485
G1 X131.015 Y83.971 E3.12767
G1 X131.372 Y84.598 E3.1405
G1 X131.658 Y85.26 E3.15332
G1 X131.868 Y85.95 E3.16614
G1 X132 Y86.659 E3.17896
G1 X132.055 Y87.5 E3.19394
G1 X132.055 Y127.5 E3.90498
G1 X132.015 Y128.22 E3.9178
G1 X131.896 Y128.932 E3.93063
G1 X131.698 Y129.626 E3.94346
G1 X131.425 Y130.293 E3.95627
G1 X131.08 Y130.927 E3.9691
G1 X130.667 Y131.518 E3.98192
G1 X130.191 Y132.06 E3.99474
G1 X129.658 Y132.546 E4.00756
G1 X129.074 Y132.97 E4.02039
G1 X128.447 Y133.327 E4.03322
G1 X127.785 Y133.613 E4.04604
G1 X127.095 Y133.823 E4.05886
G1 X126.386 Y133.955 E4.07168
G1 X125.545 Y134.01 E4.08666
G1 X115.545 Y134.01 E4.26442
G1 X114.825 Y133.97 E4.27724
G1 X114.113 Y133.851 E4.29007
G1 X113.419 Y133.653 E4.3029
G1 X112.752 Y133.38 E4.31571
G1 X112.118 Y133.035 E4.32854
G1 X111.527 Y132.622 E4.34135
G1 X110.985 Y132.146 E4.35418
G1 X110.499 Y131.613 E4.367
G1 X110.075 Y131.029 E4.37983
G1 X109.718 Y130.402 E4.39265
G1 X109.432 Y129.74 E4.40547
G1 X109.222 Y129.05 E4.41829
G1 X109.09 Y128.341 E4.43111
G1 X109.035 Y127.5 E4.44609
G1 X109.035 Y116.51 E4.64145
G1 X107.545 Y116.51 E4.66794
G1 X106.825 Y116.47 E4.68076
G1 X106.113 Y116.351 E4.69359
G1 X105.419 Y116.153 E4.70642
G1 X104.752 Y115.88 E4.71923
G1 X104.118 Y115.535 E4.73206
G1 X103.527 Y115.122 E4.74488
G1 X102.985 Y114.646 E4.7577
G1 X102.499 Y114.113 E4.77052
G1 X102.075 Y113.529 E4.78335
G1 X101.718 Y112.902 E4.79618
G1 X101.432 Y112.24 E4.80899
G1 X101.222 Y111.55 E4.82182
G1 X101.09 Y110.841 E4.83463
G1 X101.035 Y110 E4.84962
G1 X101.035 Y105 E4.9385
G1 X101.075 Y104.28 E4.95131
G1 X101.194 Y103.568 E4.96415
G1 X101.392 Y102.874 E4.97698
G1 X101.665 Y102.207 E4.98979
G1 X102.01 Y101.573 E5.00262
G1 X102.423 Y100.982 E5.01543
G1 X102.899 Y100.44 E5.02826
G1 X103.432 Y99.954 E5.04108
G1 X104.016 Y99.53 E5.05391
G1 X104.643 Y99.173 E5.06673
G1 X105.305 Y98.887 E5.07955
G1 X105.995 Y98.677 E5.09237
G1 X106.704 Y98.545 E5.10519
G1 X107.545 Y98.49 E5.12017
G1 X109.035 Y98.49 E5.14666
G1 X109.035 Y87.5 E5.34202
G1 X109.075 Y86.78 E5.35484
G1 X109.194 Y86.068 E5.36767
G1 X109.392 Y85.374 E5.3805
G1 X109.665 Y84.707 E5.39331
G1 X110.01 Y84.073 E5.40614
G1 X110.423 Y83.482 E5.41896
M204 S625
M205 X6 Y6
G0 F4285.7 X110.84 Y83.634
M204 S500
M205 X5 Y5
G1 F1200 X111.313 Y83.121 E5.43136
G1 X111.841 Y82.666 E5.44375
G1 X112.418 Y82.274 E5.45615
G1 X113.037 Y81.951 E5.46856
G1 X113.688 Y81.7 E5.48096
G1 X114.364 Y81.526 E5.49337
G1 X115.055 Y81.43 E5.50577
G1 X115.545 Y81.41 E5.51449
G1 X125.545 Y81.41 E5.69225
G1 X126.242 Y81.45 E5.70466
G1 X126.929 Y81.569 E5.71705
G1 X127.598 Y81.767 E5.72946
G1 X128.241 Y82.039 E5.74187
G1 X128.847 Y82.383 E5.75425
G1 X129.411 Y82.795 E5.76667
G1 X129.924 Y83.268 E5.77907
G1 X130.379 Y83.796 E5.79146
G1 X130.771 Y84.373 E5.80386
G1 X131.094 Y84.992 E5.81627
G1 X131.345 Y85.643 E5.82868
G1 X131.519 Y86.319 E5.84108
G1 X131.615 Y87.01 E5.85349
G1 X131.635 Y87.5 E5.8622
G1 X131.635 Y127.5 E6.57324
G1 X131.595 Y128.197 E6.58565
G1 X131.476 Y128.884 E6.59805
G1 X131.278 Y129.553 E6.61045
G1 X131.006 Y130.196 E6.62286
G1 X130.662 Y130.802 E6.63525
G1 X130.25 Y131.366 E6.64766
G1 X129.777 Y131.879 E6.66007
G1 X129.249 Y132.334 E6.67246
G1 X128.672 Y132.726 E6.68485
G1 X128.053 Y133.049 E6.69727
G1 X127.402 Y133.3 E6.70967
G1 X126.726 Y133.474 E6.72208
G1 X126.035 Y133.57 E6.73448
G1 X125.545 Y133.59 E6.7432
G1 X115.545 Y133.59 E6.92096
G1 X114.848 Y133.55 E6.93337
G1 X114.161 Y133.431 E6.94576
G1 X113.492 Y133.233 E6.95816
G1 X112.849 Y132.961 E6.97057
G1 X112.243 Y132.617 E6.98296
G1 X111.679 Y132.205 E6.99537
G1 X111.166 Y131.732 E7.00778
G1 X110.711 Y131.204 E7.02017
G1 X110.319 Y130.627 E7.03257
G1 X109.996 Y130.008 E7.04498
G1 X109.745 Y129.357 E7.05738
G1 X109.571 Y128.681 E7.06979
G1 X109.475 Y127.99 E7.08219
G1 X109.455 Y127.5 E7.09091
G1 X109.455 Y116.09 E7.29373
G1 X107.545 Y116.09 E7.32768
G1 X106.848 Y116.05 E7.3401
G1 X106.161 Y115.931 E7.35249
G1 X105.492 Y115.733 E7.36489
G1 X104.849 Y115.461 E7.3773
G1 X104.243 Y115.117 E7.38969
G1 X103.679 Y114.705 E7.4021
G1 X103.166 Y114.232 E7.41451
G1 X102.711 Y113.704 E7.4269
G1 X102.319 Y113.127 E7.4393
G1 X101.996 Y112.508 E7.45171
G1 X101.745 Y111.857 E7.46411
G1 X101.571 Y111.181 E7.47652
G1 X101.475 Y110.49 E7.48892
G1 X101.455 Y110 E7.49764
G1 X101.455 Y105 E7.58652
G1 X101.495 Y104.303 E7.59893
G1 X101.614 Y103.616 E7.61132
G1 X101.812 Y102.947 E7.62372
G1 X102.084 Y102.304 E7.63613
G1 X102.428 Y101.698 E7.64852
G1 X102.84 Y101.134 E7.66094
G1 X103.313 Y100.621 E7.67334
G1 X103.841 Y100.166 E7.68573
G1 X104.418 Y99.774 E7.69813
G1 X105.037 Y99.451 E7.71054
G1 X105.688 Y99.2 E7.72294
G1 X106.364 Y99.026 E7.73535
G1 X107.055 Y98.93 E7.74775
G1 X107.545 Y98.91 E7.75647
G1 X109.455 Y98.91 E7.79042
G1 X109.455 Y87.5 E7.99325
G1 X109.495 Y86.803 E8.00566
G1 X109.614 Y86.116 E8.01805
G1 X109.812 Y85.447 E8.03045
G1 X110.084 Y84.804 E8.04286
G1 X110.428 Y84.198 E8.05525
G1 X110.84 Y83.634 E8.06767
M204 S625
M205 X6 Y6
G0 F4285.7 X110.846 Y84.327
M204 S500
M205 X5 Y5
G1 F1200 X111.255 Y83.792 E8.07964
G1 X111.725 Y83.31 E8.0916
G1 X112.249 Y82.887 E8.10358
G1 X112.819 Y82.528 E8.11555
G1 X113.427 Y82.24 E8.12751
G1 X114.065 Y82.026 E8.13947
G1 X114.725 Y81.89 E8.15145
G1 X115.545 Y81.83 E8.16607
G1 X125.545 Y81.83 E8.34382
G1 X126.217 Y81.87 E8.35579
G1 X126.88 Y81.989 E8.36777
G1 X127.523 Y82.186 E8.37972
G1 X128.139 Y82.458 E8.39169
G1 X128.718 Y82.801 E8.40365
G1 X129.253 Y83.21 E8.41562
G1 X129.735 Y83.68 E8.42759
G1 X130.158 Y84.204 E8.43956
G1 X130.517 Y84.774 E8.45154
G1 X130.805 Y85.382 E8.46349
G1 X131.019 Y86.02 E8.47546
G1 X131.155 Y86.68 E8.48744
G1 X131.215 Y87.5 E8.50205
G1 X131.215 Y127.5 E9.21309
G1 X131.175 Y128.172 E9.22506
G1 X131.056 Y128.835 E9.23703
G1 X130.859 Y129.478 E9.24898
G1 X130.587 Y130.094 E9.26095
G1 X130.244 Y130.673 E9.27292
G1 X129.835 Y131.208 E9.28489
G1 X129.365 Y131.69 E9.29686
G1 X128.841 Y132.113 E9.30883
G1 X128.271 Y132.472 E9.3208
G1 X127.663 Y132.76 E9.33276
G1 X127.025 Y132.974 E9.34472
G1 X126.365 Y133.11 E9.3567
G1 X125.545 Y133.17 E9.37132
G1 X115.545 Y133.17 E9.54908
G1 X114.873 Y133.13 E9.56104
G1 X114.21 Y133.011 E9.57302
G1 X113.567 Y132.814 E9.58497
G1 X112.951 Y132.542 E9.59694
G1 X112.372 Y132.199 E9.6089
G1 X111.837 Y131.79 E9.62087
G1 X111.355 Y131.32 E9.63284
G1 X110.932 Y130.796 E9.64481
G1 X110.573 Y130.226 E9.65679
G1 X110.285 Y129.618 E9.66874
G1 X110.071 Y128.98 E9.68071
G1 X109.935 Y128.32 E9.69269
G1 X109.875 Y127.5 E9.7073
G1 X109.875 Y115.67 E9.91759
G1 X107.545 Y115.67 E9.95901
G1 X106.873 Y115.63 E9.97098
G1 X106.21 Y115.511 E9.98295
G1 X105.567 Y115.314 E9.9949
G1 X104.951 Y115.042 E10.00687
G1 X104.372 Y114.699 E10.01884
G1 X103.837 Y114.29 E10.03081
G1 X103.355 Y113.82 E10.04277
G1 X102.932 Y113.296 E10.05474
G1 X102.573 Y112.726 E10.06672
G1 X102.285 Y112.118 E10.07868
G1 X102.071 Y111.48 E10.09064
G1 X101.935 Y110.82 E10.10262
G1 X101.875 Y110 E10.11723
G1 X101.875 Y105 E10.20611
G1 X101.915 Y104.328 E10.21808
G1 X102.034 Y103.665 E10.23005
G1 X102.231 Y103.022 E10.24201
G1 X102.503 Y102.406 E10.25398
G1 X102.846 Y101.827 E10.26594
G1 X103.255 Y101.292 E10.27791
G1 X103.725 Y100.81 E10.28988
G1 X104.249 Y100.387 E10.30185
G1 X104.819 Y100.028 E10.31382
G1 X105.427 Y99.74 E10.32578
G1 X106.065 Y99.526 E10.33775
G1 X106.725 Y99.39 E10.34972
G1 X107.545 Y99.33 E10.36434
G1 X109.875 Y99.33 E10.40576
G1 X109.875 Y87.5 E10.61605
G1 X109.915 Y86.828 E10.62801
G1 X110.034 Y86.165 E10.63999
G1 X110.231 Y85.522 E10.65194
G1 X110.503 Y84.906 E10.66391
G1 X110.846 Y84.327 E10.67588
M204 S625
M205 X6 Y6
G0 F4285.7 X111.264 Y84.461
M204 S500
M205 X5 Y5
G1 F1200 X111.671 Y83.957 E10.68739
G1 X112.137 Y83.507 E10.69891
G1 X112.654 Y83.118 E10.71041
G1 X113.216 Y82.795 E10.72193
G1 X113.813 Y82.544 E10.73344
G1 X114.437 Y82.368 E10.74497
G1 X115.077 Y82.271 E10.75647
G1 X115.545 Y82.25 E10.7648
G1 X125.545 Y82.25 E10.94256
G1 X126.192 Y82.29 E10.95408
G1 X126.828 Y82.409 E10.96559
G1 X127.445 Y82.606 E10.9771
G1 X128.034 Y82.877 E10.98862
G1 X128.584 Y83.219 E11.00014
G1 X129.088 Y83.626 E11.01165
G1 X129.538 Y84.092 E11.02317
G1 X129.927 Y84.609 E11.03467
G1 X130.25 Y85.171 E11.04619
G1 X130.501 Y85.768 E11.0577
G1 X130.677 Y86.392 E11.06923
G1 X130.774 Y87.032 E11.08073
G1 X130.795 Y87.5 E11.08906
G1 X130.795 Y127.5 E11.8001
G1 X130.755 Y128.147 E11.81162
G1 X130.636 Y128.783 E11.82313
G1 X130.439 Y129.4 E11.83464
G1 X130.168 Y129.989 E11.84616
G1 X129.826 Y130.539 E11.85768
G1 X129.419 Y131.043 E11.86919
G1 X128.953 Y131.493 E11.88071
G1 X128.436 Y131.882 E11.89221
G1 X127.874 Y132.205 E11.90373
G1 X127.277 Y132.456 E11.91524
G1 X126.653 Y132.632 E11.92677
G1 X126.013 Y132.729 E11.93828
G1 X125.545 Y132.75 E11.9466
G1 X115.545 Y132.75 E12.12436
G1 X114.898 Y132.71 E12.13589
G1 X114.262 Y132.591 E12.14739
G1 X113.645 Y132.394 E12.1589
G1 X113.056 Y132.123 E12.17043
G1 X112.506 Y131.781 E12.18194
G1 X112.002 Y131.374 E12.19345
G1 X111.552 Y130.908 E12.20497
G1 X111.163 Y130.391 E12.21647
G1 X110.84 Y129.829 E12.22799
G1 X110.589 Y129.232 E12.23951
G1 X110.413 Y128.608 E12.25103
G1 X110.316 Y127.968 E12.26254
G1 X110.295 Y127.5 E12.27086
G1 X110.295 Y115.25 E12.48862
G1 X107.545 Y115.25 E12.5375
G1 X106.898 Y115.21 E12.54903
G1 X106.262 Y115.091 E12.56053
G1 X105.645 Y114.894 E12.57204
G1 X105.056 Y114.623 E12.58357
G1 X104.506 Y114.281 E12.59508
G1 X104.002 Y113.874 E12.6066
G1 X103.552 Y113.408 E12.61811
G1 X103.163 Y112.891 E12.62961
G1 X102.84 Y112.329 E12.64113
G1 X102.589 Y111.732 E12.65265
G1 X102.413 Y111.108 E12.66417
G1 X102.316 Y110.468 E12.67568
G1 X102.295 Y110 E12.68401
G1 X102.295 Y105 E12.77289
G1 X102.335 Y104.353 E12.78441
G1 X102.454 Y103.717 E12.79591
G1 X102.651 Y103.1 E12.80742
G1 X102.922 Y102.511 E12.81895
G1 X103.264 Y101.961 E12.83046
G1 X103.671 Y101.457 E12.84198
G1 X104.137 Y101.007 E12.85349
G1 X104.654 Y100.618 E12.86499
G1 X105.216 Y100.295 E12.87652
G1 X105.813 Y100.044 E12.88803
G1 X106.437 Y99.868 E12.89955
G1 X107.077 Y99.771 E12.91106
G1 X107.545 Y99.75 E12.91939
G1 X110.295 Y99.75 E12.96827
G1 X110.295 Y87.5 E13.18603
G1 X110.335 Y86.853 E13.19755
G1 X110.454 Y86.217 E13.20905
G1 X110.651 Y85.6 E13.22056
G1 X110.922 Y85.011 E13.23209
G1 X111.264 Y84.461 E13.2436
M204 S625
M205 X6 Y6
G0 F4285.7 X111.681 Y84.602
M204 S500
M205 X5 Y5
G1 F1200 X112.085 Y84.13 E13.25465
G1 X112.547 Y83.713 E13.26571
G1 X113.057 Y83.36 E13.27674
G1 X113.609 Y83.075 E13.28778
G1 X114.194 Y82.863 E13.29884
G1 X114.8 Y82.728 E13.30988
G1 X115.545 Y82.67 E13.32316
G1 X125.545 Y82.67 E13.50092
G1 X126.165 Y82.71 E13.51196
G1 X126.775 Y82.829 E13.52301
G1 X127.364 Y83.026 E13.53405
G1 X127.923 Y83.296 E13.54509
G1 X128.443 Y83.636 E13.55613
G1 X128.915 Y84.04 E13.56717
G1 X129.332 Y84.502 E13.57824
G1 X129.685 Y85.012 E13.58926
G1 X129.97 Y85.564 E13.6003
G1 X130.182 Y86.149 E13.61137
G1 X130.317 Y86.755 E13.6224
G1 X130.375 Y87.5 E13.63568
G1 X130.375 Y127.5 E14.34672
G1 X130.335 Y128.12 E14.35777
G1 X130.216 Y128.73 E14.36882
G1 X130.019 Y129.319 E14.37986
G1 X129.749 Y129.878 E14.39089
G1 X129.409 Y130.398 E14.40194
G1 X129.005 Y130.87 E14.41298
G1 X128.543 Y131.287 E14.42404
G1 X128.033 Y131.64 E14.43507
G1 X127.481 Y131.925 E14.44611
G1 X126.896 Y132.137 E14.45717
G1 X126.29 Y132.272 E14.46821
G1 X125.545 Y132.33 E14.48149
G1 X115.545 Y132.33 E14.65925
G1 X114.925 Y132.29 E14.67029
G1 X114.315 Y132.171 E14.68134
G1 X113.726 Y131.974 E14.69238
G1 X113.167 Y131.704 E14.70342
G1 X112.647 Y131.364 E14.71446
G1 X112.175 Y130.96 E14.72551
G1 X111.758 Y130.498 E14.73657
G1 X111.405 Y129.988 E14.74759
G1 X111.12 Y129.436 E14.75864
G1 X110.908 Y128.851 E14.7697
G1 X110.773 Y128.245 E14.78073
G1 X110.715 Y127.5 E14.79402
