;START_OF_HEADER
;HEADER_VERSION:0.1
;FLAVOR:Griffin
;GENERATOR.NAME:Cura_SteamEngine
;GENERATOR.VERSION:master
;GENERATOR.BUILD_DATE:2021-06-20
;TARGET_MACHINE.NAME:Ultimaker 3
;EXTRUDER_TRAIN.0.INITIAL_TEMPERATURE:205
;EXTRUDER_TRAIN.0.MATERIAL.VOLUME_USED:2961
;EXTRUDER_TRAIN.0.MATERIAL.GUID:506c9f0d-e3aa-4bd4-b2d2-23e2425b1aa9
;EXTRUDER_TRAIN.0.NOZZLE.DIAMETER:0.4
;EXTRUDER_TRAIN.0.NOZZLE.NAME:AA 0.4
;BUILD_PLATE.TYPE:glass
;BUILD_PLATE.INITIAL_TEMPERATURE:60
;PRINT.TIME:4904
;PRINT.GROUPS:1
;PRINT.SIZE.MIN.X:9
;PRINT.SIZE.MIN.Y:6
;PRINT.SIZE.MIN.Z:0.27
;PRINT.SIZE.MAX.X:132.475
;PRINT.SIZE.MAX.Y:134.43
;PRINT.SIZE.MAX.Z:74.97
;END_OF_HEADER
;Generated with Cura_SteamEngine master
T0
M82 ;absolute extrusion mode

G92 E0
M109 S205
G0 F15000 X9 Y6 Z2
G280
G1 F1500 E-6.5
;LAYER_COUNT:748
;LAYER:0
M107
M204 S625
M205 X6 Y6
G1 F600 Z2.27
G0 F4285.7 X102.006 Y83.335 Z2.27
M204 S500
M205 X5 Y5
;TYPE:SKIRT
G1 F600 Z0.27
G1 F1500 E0
G1 F1200 X102.485 Y82.765 E0.01323
G1 X103.022 Y82.25 E0.02646
G1 X103.611 Y81.795 E0.03969
G1 X104.245 Y81.406 E0.05291
G1 X104.918 Y81.087 E0.06615
G1 X105.621 Y80.842 E0.07939
G1 X106.346 Y80.674 E0.09262
G1 X107.085 Y80.585 E0.10585
G1 X107.545 Y80.57 E0.11403
G1 X117.545 Y80.57 E0.29179
G1 X118.288 Y80.61 E0.30501
G1 X119.023 Y80.729 E0.31825
G1 X119.741 Y80.927 E0.33149
G1 X120.433 Y81.2 E0.34471
G1 X121.092 Y81.546 E0.35794
G1 X121.71 Y81.961 E0.37118
G1 X122.28 Y82.44 E0.38441
G1 X122.795 Y82.977 E0.39764
G1 X123.25 Y83.566 E0.41087
G1 X123.639 Y84.2 E0.42409
G1 X123.958 Y84.873 E0.43733
G1 X124.203 Y85.576 E0.45056
G1 X124.371 Y86.301 E0.46379
G1 X124.46 Y87.04 E0.47702
G1 X124.475 Y87.5 E0.4852
G1 X124.475 Y98.07 E0.6731
G1 X125.545 Y98.07 E0.69212
G1 X126.288 Y98.11 E0.70534
G1 X127.023 Y98.229 E0.71858
G1 X127.741 Y98.427 E0.73182
G1 X128.433 Y98.7 E0.74504
G1 X129.092 Y99.046 E0.75827
G1 X129.71 Y99.461 E0.77151
G1 X130.28 Y99.94 E0.78474
G1 X130.795 Y100.477 E0.79797
G1 X131.25 Y101.066 E0.8112
G1 X131.639 Y101.7 E0.82442
G1 X131.958 Y102.373 E0.83766
G1 X132.203 Y103.076 E0.85089
G1 X132.371 Y103.801 E0.86412
G1 X132.46 Y104.54 E0.87735
G1 X132.475 Y105 E0.88553
G1 X132.475 Y110 E0.97441
G1 X132.435 Y110.743 E0.98764
G1 X132.316 Y111.478 E1.00088
G1 X132.118 Y112.196 E1.01412
G1 X131.845 Y112.888 E1.02734
G1 X131.499 Y113.547 E1.04057
G1 X131.084 Y114.165 E1.0538
G1 X130.605 Y114.735 E1.06704
G1 X130.068 Y115.25 E1.08026
G1 X129.479 Y115.705 E1.09349
G1 X128.845 Y116.094 E1.10672
G1 X128.172 Y116.413 E1.11995
G1 X127.469 Y116.658 E1.13319
G1 X126.744 Y116.826 E1.14642
G1 X126.005 Y116.915 E1.15965
G1 X125.545 Y116.93 E1.16783
G1 X124.475 Y116.93 E1.18685
G1 X124.475 Y127.5 E1.37474
G1 X124.435 Y128.243 E1.38797
G1 X124.316 Y128.978 E1.4012
G1 X124.118 Y129.696 E1.41444
G1 X123.845 Y130.388 E1.42767
G1 X123.499 Y131.047 E1.4409
G1 X123.084 Y131.665 E1.45413
G1 X122.605 Y132.235 E1.46737
G1 X122.068 Y132.75 E1.48059
G1 X121.479 Y133.205 E1.49382
G1 X120.845 Y133.594 E1.50704
G1 X120.172 Y133.913 E1.52028
G1 X119.469 Y134.158 E1.53352
G1 X118.744 Y134.326 E1.54675
G1 X118.005 Y134.415 E1.55998
G1 X117.545 Y134.43 E1.56816
G1 X107.545 Y134.43 E1.74592
G1 X106.802 Y134.39 E1.75915
G1 X106.067 Y134.271 E1.77238
G1 X105.349 Y134.073 E1.78562
G1 X104.657 Y133.8 E1.79884
G1 X103.998 Y133.454 E1.81208
G1 X103.38 Y133.039 E1.82531
G1 X102.81 Y132.56 E1.83854
G1 X102.295 Y132.023 E1.85177
G1 X101.84 Y131.434 E1.865
G1 X101.451 Y130.8 E1.87822
G1 X101.132 Y130.127 E1.89146
G1 X100.887 Y129.424 E1.90469
G1 X100.719 Y128.699 E1.91792
G1 X100.63 Y127.96 E1.93115
G1 X100.615 Y127.5 E1.93934
G1 X100.615 Y87.5 E2.65037
G1 X100.655 Y86.757 E2.6636
G1 X100.774 Y86.022 E2.67684
G1 X100.972 Y85.304 E2.69008
G1 X101.245 Y84.612 E2.7033
G1 X101.591 Y83.953 E2.71653
G1 X102.006 Y83.335 E2.72976
M204 S625
M205 X6 Y6
G0 F4285.7 X102.423 Y83.482
M204 S500
M205 X5 Y5
G1 F1200 X102.899 Y82.94 E2.74259
G1 X103.432 Y82.454 E2.75541
G1 X104.016 Y82.03 E2.76824
G1 X104.643 Y81.673 E2.78106
G1 X105.305 Y81.387 E2.79388
G1 X105.995 Y81.177 E2.8067
G1 X106.704 Y81.045 E2.81952
G1 X107.545 Y80.99 E2.8345
G1 X117.545 Y80.99 E3.01226
G1 X118.265 Y81.03 E3.02508
G1 X118.977 Y81.149 E3.03791
G1 X119.671 Y81.347 E3.05074
G1 X120.338 Y81.62 E3.06355
G1 X120.972 Y81.965 E3.07638
G1 X121.563 Y82.378 E3.0892
G1 X122.105 Y82.854 E3.10202
G1 X122.591 Y83.387 E3.11485
G1 X123.015 Y83.971 E3.12767
G1 X123.372 Y84.598 E3.1405
G1 X123.658 Y85.26 E3.15332
G1 X123.868 Y85.95 E3.16614
G1 X124 Y86.659 E3.17896
G1 X124.055 Y87.5 E3.19394
G1 X124.055 Y98.49 E3.3893
G1 X125.545 Y98.49 E3.41578
G1 X126.265 Y98.53 E3.4286
G1 X126.977 Y98.649 E3.44144
G1 X127.671 Y98.847 E3.45426
G1 X128.338 Y99.12 E3.46708
G1 X128.972 Y99.465 E3.47991
G1 X129.563 Y99.878 E3.49272
G1 X130.105 Y100.354 E3.50555
G1 X130.591 Y100.887 E3.51837
G1 X131.015 Y101.471 E3.5312
G1 X131.372 Y102.098 E3.54402
G1 X131.658 Y102.76 E3.55684
G1 X131.868 Y103.45 E3.56966
G1 X132 Y104.159 E3.58248
G1 X132.055 Y105 E3.59746
G1 X132.055 Y110 E3.68634
G1 X132.015 Y110.72 E3.69916
G1 X131.896 Y111.432 E3.71199
G1 X131.698 Y112.126 E3.72482
G1 X131.425 Y112.793 E3.73763
G1 X131.08 Y113.427 E3.75046
G1 X130.667 Y114.018 E3.76328
G1 X130.191 Y114.56 E3.7761
G1 X129.658 Y115.046 E3.78892
G1 X129.074 Y115.47 E3.80175
G1 X128.447 Y115.827 E3.81458
G1 X127.785 Y116.113 E3.8274
G1 X127.095 Y116.323 E3.84022
G1 X126.386 Y116.455 E3.85304
G1 X125.545 Y116.51 E3.86802
G1 X124.055 Y116.51 E3.89451
G1 X124.055 Y127.5 E4.08986
G1 X124.015 Y128.22 E4.10268
G1 X123.896 Y128.932 E4.11551
G1 X123.698 Y129.626 E4.12834
G1 X123.425 Y130.293 E4.14115
G1 X123.08 Y130.927 E4.15399
G1 X122.667 Y131.518 E4.1668
G1 X122.191 Y132.06 E4.17962
G1 X121.658 Y132.546 E4.19245
G1 X121.074 Y132.97 E4.20528
G1 X120.447 Y133.327 E4.2181
G1 X119.785 Y133.613 E4.23092
G1 X119.095 Y133.823 E4.24374
G1 X118.386 Y133.955 E4.25656
G1 X117.545 Y134.01 E4.27154
G1 X107.545 Y134.01 E4.4493
G1 X106.825 Y133.97 E4.46212
G1 X106.113 Y133.851 E4.47495
G1 X105.419 Y133.653 E4.48778
G1 X104.752 Y133.38 E4.50059
G1 X104.118 Y133.035 E4.51342
G1 X103.527 Y132.622 E4.52624
G1 X102.985 Y132.146 E4.53906
G1 X102.499 Y131.613 E4.55188
G1 X102.075 Y131.029 E4.56471
G1 X101.718 Y130.402 E4.57754
G1 X101.432 Y129.74 E4.59036
G1 X101.222 Y129.05 E4.60318
G1 X101.09 Y128.341 E4.616
G1 X101.035 Y127.5 E4.63098
G1 X101.035 Y87.5 E5.34202
G1 X101.075 Y86.78 E5.35484
G1 X101.194 Y86.068 E5.36767
G1 X101.392 Y85.374 E5.3805
G1 X101.665 Y84.707 E5.39331
G1 X102.01 Y84.073 E5.40614
G1 X102.423 Y83.482 E5.41896
M204 S625
M205 X6 Y6
G0 F4285.7 X102.84 Y83.634
M204 S500
M205 X5 Y5
G1 F1200 X103.313 Y83.121 E5.43136
G1 X103.841 Y82.666 E5.44375
G1 X104.418 Y82.274 E5.45615
G1 X105.037 Y81.951 E5.46856
G1 X105.688 Y81.7 E5.48096
G1 X106.364 Y81.526 E5.49337
G1 X107.055 Y81.43 E5.50577
G1 X107.545 Y81.41 E5.51449
G1 X117.545 Y81.41 E5.69225
G1 X118.242 Y81.45 E5.70466
G1 X118.929 Y81.569 E5.71705
G1 X119.598 Y81.767 E5.72946
G1 X120.241 Y82.039 E5.74187
G1 X120.847 Y82.383 E5.75425
G1 X121.411 Y82.795 E5.76667
G1 X121.924 Y83.268 E5.77907
G1 X122.379 Y83.796 E5.79146
G1 X122.771 Y84.373 E5.80386
G1 X123.094 Y84.992 E5.81627
G1 X123.345 Y85.643 E5.82868
G1 X123.519 Y86.319 E5.84108
G1 X123.615 Y87.01 E5.85349
G1 X123.635 Y87.5 E5.8622
G1 X123.635 Y98.91 E6.06503
G1 X125.545 Y98.91 E6.09898
G1 X126.242 Y98.95 E6.11139
G1 X126.929 Y99.069 E6.12378
G1 X127.598 Y99.267 E6.13619
G1 X128.241 Y99.539 E6.1486
G1 X128.847 Y99.883 E6.16098
G1 X129.411 Y100.295 E6.1734
G1 X129.924 Y100.768 E6.1858
G1 X130.379 Y101.296 E6.19819
G1 X130.771 Y101.873 E6.21059
G1 X131.094 Y102.492 E6.223
G1 X131.345 Y103.143 E6.23541
G1 X131.519 Y103.819 E6.24781
G1 X131.615 Y104.51 E6.26022
G1 X131.635 Y105 E6.26893
G1 X131.635 Y110 E6.35781
G1 X131.595 Y110.697 E6.37022
G1 X131.476 Y111.384 E6.38262
G1 X131.278 Y112.053 E6.39502
G1 X131.006 Y112.696 E6.40743
G1 X130.662 Y113.302 E6.41982
G1 X130.25 Y113.866 E6.43223
G1 X129.777 Y114.379 E6.44464
G1 X129.249 Y114.834 E6.45703
G1 X128.672 Y115.226 E6.46943
G1 X128.053 Y115.549 E6.48184
G1 X127.402 Y115.8 E6.49424
G1 X126.726 Y115.974 E6.50665
G1 X126.035 Y116.07 E6.51905
G1 X125.545 Y116.09 E6.52777
G1 X123.635 Y116.09 E6.56172
G1 X123.635 Y127.5 E6.76454
G1 X123.595 Y128.197 E6.77695
G1 X123.476 Y128.884 E6.78935
G1 X123.278 Y129.553 E6.80175
G1 X123.006 Y130.196 E6.81416
G1 X122.662 Y130.802 E6.82655
G1 X122.25 Y131.366 E6.83896
G1 X121.777 Y131.879 E6.85136
G1 X121.249 Y132.334 E6.86375
G1 X120.672 Y132.726 E6.87615
G1 X120.053 Y133.049 E6.88857
G1 X119.402 Y133.3 E6.90097
G1 X118.726 Y133.474 E6.91338
G1 X118.035 Y133.57 E6.92578
G1 X117.545 Y133.59 E6.9345
G1 X107.545 Y133.59 E7.11226
G1 X106.848 Y133.55 E7.12467
G1 X106.161 Y133.431 E7.13706
G1 X105.492 Y133.233 E7.14946
G1 X104.849 Y132.961 E7.16187
G1 X104.243 Y132.617 E7.17426
G1 X103.679 Y132.205 E7.18667
G1 X103.166 Y131.732 E7.19908
G1 X102.711 Y131.204 E7.21147
G1 X102.319 Y130.627 E7.22387
G1 X101.996 Y130.008 E7.23628
G1 X101.745 Y129.357 E7.24868
G1 X101.571 Y128.681 E7.26109
G1 X101.475 Y127.99 E7.27349
G1 X101.455 Y127.5 E7.28221
G1 X101.455 Y87.5 E7.99325
G1 X101.495 Y86.803 E8.00566
G1 X101.614 Y86.116 E8.01805
G1 X101.812 Y85.447 E8.03045
G1 X102.084 Y84.804 E8.04286
G1 X102.428 Y84.198 E8.05525
G1 X102.84 Y83.634 E8.06767
M204 S625
M205 X6 Y6
G0 F4285.7 X102.846 Y84.327
M204 S500
M205 X5 Y5
G1 F1200 X103.255 Y83.792 E8.07964
G1 X103.725 Y83.31 E8.0916
G1 X104.249 Y82.887 E8.10358
G1 X104.819 Y82.528 E8.11555
G1 X105.427 Y82.24 E8.12751
G1 X106.065 Y82.026 E8.13947
G1 X106.725 Y81.89 E8.15145
G1 X107.545 Y81.83 E8.16607
G1 X117.545 Y81.83 E8.34382
G1 X118.217 Y81.87 E8.35579
G1 X118.88 Y81.989 E8.36777
G1 X119.523 Y82.186 E8.37972
G1 X120.139 Y82.458 E8.39169
G1 X120.718 Y82.801 E8.40365
G1 X121.253 Y83.21 E8.41562
G1 X121.735 Y83.68 E8.42759
G1 X122.158 Y84.204 E8.43956
G1 X122.517 Y84.774 E8.45154
G1 X122.805 Y85.382 E8.46349
G1 X123.019 Y86.02 E8.47546
G1 X123.155 Y86.68 E8.48744
G1 X123.215 Y87.5 E8.50205
G1 X123.215 Y99.33 E8.71234
G1 X125.545 Y99.33 E8.75376
G1 X126.217 Y99.37 E8.76573
G1 X126.88 Y99.489 E8.7777
G1 X127.523 Y99.686 E8.78965
G1 X128.139 Y99.958 E8.80162
G1 X128.718 Y100.301 E8.81359
G1 X129.253 Y100.71 E8.82556
G1 X129.735 Y101.18 E8.83752
G1 X130.158 Y101.704 E8.84949
G1 X130.517 Y102.274 E8.86147
G1 X130.805 Y102.882 E8.87343
G1 X131.019 Y103.52 E8.88539
G1 X131.155 Y104.18 E8.89737
G1 X131.215 Y105 E8.91198
G1 X131.215 Y110 E9.00086
G1 X131.175 Y110.672 E9.01283
G1 X131.056 Y111.335 E9.0248
G1 X130.859 Y111.978 E9.03676
G1 X130.587 Y112.594 E9.04873
G1 X130.244 Y113.173 E9.06069
G1 X129.835 Y113.708 E9.07266
G1 X129.365 Y114.19 E9.08463
G1 X128.841 Y114.613 E9.0966
G1 X128.271 Y114.972 E9.10857
G1 X127.663 Y115.26 E9.12053
G1 X127.025 Y115.474 E9.1325
G1 X126.365 Y115.61 E9.14447
G1 X125.545 Y115.67 E9.15909
G1 X123.215 Y115.67 E9.20051
G1 X123.215 Y127.5 E9.4108
G1 X123.175 Y128.172 E9.42276
G1 X123.056 Y128.835 E9.43474
G1 X122.859 Y129.478 E9.44669
G1 X122.587 Y130.094 E9.45866
G1 X122.244 Y130.673 E9.47063
G1 X121.835 Y131.208 E9.4826
G1 X121.365 Y131.69 E9.49456
G1 X120.841 Y132.113 E9.50653
G1 X120.271 Y132.472 E9.51851
G1 X119.663 Y132.76 E9.53047
G1 X119.025 Y132.974 E9.54243
G1 X118.365 Y133.11 E9.55441
G1 X117.545 Y133.17 E9.56902
G1 X107.545 Y133.17 E9.74678
G1 X106.873 Y133.13 E9.75875
G1 X106.21 Y133.011 E9.77072
G1 X105.567 Y132.814 E9.78268
G1 X104.951 Y132.542 E9.79465
G1 X104.372 Y132.199 E9.80661
G1 X103.837 Y131.79 E9.81858
G1 X103.355 Y131.32 E9.83055
G1 X102.932 Y130.796 E9.84252
G1 X102.573 Y130.226 E9.85449
G1 X102.285 Y129.618 E9.86645
G1 X102.071 Y128.98 E9.87841
G1 X101.935 Y128.32 E9.89039
G1 X101.875 Y127.5 E9.90501
G1 X101.875 Y87.5 E10.61605
G1 X101.915 Y86.828 E10.62801
G1 X102.034 Y86.165 E10.63999
G1 X102.231 Y85.522 E10.65194
G1 X102.503 Y84.906 E10.66391
G1 X102.846 Y84.327 E10.67588
M204 S625
M205 X6 Y6
G0 F4285.7 X103.264 Y84.461
M204 S500
M205 X5 Y5
G1 F1200 X103.671 Y83.957 E10.68739
G1 X104.137 Y83.507 E10.69891
G1 X104.654 Y83.118 E10.71041
G1 X105.216 Y82.795 E10.72193
G1 X105.813 Y82.544 E10.73344
G1 X106.437 Y82.368 E10.74497
G1 X107.077 Y82.271 E10.75647
G1 X107.545 Y82.25 E10.7648
G1 X117.545 Y82.25 E10.94256
G1 X118.192 Y82.29 E10.95408
G1 X118.828 Y82.409 E10.96559
G1 X119.445 Y82.606 E10.9771
G1 X120.034 Y82.877 E10.98862
G1 X120.584 Y83.219 E11.00014
G1 X121.088 Y83.626 E11.01165
G1 X121.538 Y84.092 E11.02317
G1 X121.927 Y84.609 E11.03467
G1 X122.25 Y85.171 E11.04619
G1 X122.501 Y85.768 E11.0577
G1 X122.677 Y86.392 E11.06923
G1 X122.774 Y87.032 E11.08073
G1 X122.795 Y87.5 E11.08906
G1 X122.795 Y99.75 E11.30682
G1 X125.545 Y99.75 E11.3557
G1 X126.192 Y99.79 E11.36722
G1 X126.828 Y99.909 E11.37873
G1 X127.445 Y100.106 E11.39024
G1 X128.034 Y100.377 E11.40176
G1 X128.584 Y100.719 E11.41328
G1 X129.088 Y101.126 E11.42479
G1 X129.538 Y101.592 E11.43631
G1 X129.927 Y102.109 E11.44781
G1 X130.25 Y102.671 E11.45933
G1 X130.501 Y103.268 E11.47084
G1 X130.677 Y103.892 E11.48237
G1 X130.774 Y104.532 E11.49388
G1 X130.795 Y105 E11.5022
G1 X130.795 Y110 E11.59108
G1 X130.755 Y110.647 E11.60261
G1 X130.636 Y111.283 E11.61411
G1 X130.439 Y111.9 E11.62562
G1 X130.168 Y112.489 E11.63715
G1 X129.826 Y113.039 E11.64866
G1 X129.419 Y113.543 E11.66017
G1 X128.953 Y113.993 E11.67169
G1 X128.436 Y114.382 E11.68319
G1 X127.874 Y114.705 E11.69471
G1 X127.277 Y114.956 E11.70623
G1 X126.653 Y115.132 E11.71775
G1 X126.013 Y115.229 E11.72926
G1 X125.545 Y115.25 E11.73758
G1 X122.795 Y115.25 E11.78647
G1 X122.795 Y127.5 E12.00422
G1 X122.755 Y128.147 E12.01575
G1 X122.636 Y128.783 E12.02725
G1 X122.439 Y129.4 E12.03876
G1 X122.168 Y129.989 E12.05029
G1 X121.826 Y130.539 E12.0618
G1 X121.419 Y131.043 E12.07332
G1 X120.953 Y131.493 E12.08483
G1 X120.436 Y131.882 E12.09633
G1 X119.874 Y132.205 E12.10786
G1 X119.277 Y132.456 E12.11937
G1 X118.653 Y132.632 E12.13089
G1 X118.013 Y132.729 E12.1424
G1 X117.545 Y132.75 E12.15073
G1 X107.545 Y132.75 E12.32849
G1 X106.898 Y132.71 E12.34001
G1 X106.262 Y132.591 E12.35151
G1 X105.645 Y132.394 E12.36302
G1 X105.056 Y132.123 E12.37455
G1 X104.506 Y131.781 E12.38606
G1 X104.002 Y131.374 E12.39758
G1 X103.552 Y130.908 E12.40909
G1 X103.163 Y130.391 E12.42059
G1 X102.84 Y129.829 E12.43212
G1 X102.589 Y129.232 E12.44363
G1 X102.413 Y128.608 E12.45515
G1 X102.316 Y127.968 E12.46666
G1 X102.295 Y127.5 E12.47499
G1 X102.295 Y87.5 E13.18603
G1 X102.335 Y86.853 E13.19755
G1 X102.454 Y86.217 E13.20905
G1 X102.651 Y85.6 E13.22056
G1 X102.922 Y85.011 E13.23209
G1 X103.264 Y84.461 E13.2436
M204 S625
M205 X6 Y6
G0 F4285.7 X103.681 Y84.602
M204 S500
M205 X5 Y5
G1 F1200 X104.085 Y84.13 E13.25465
G1 X104.547 Y83.713 E13.26571
G1 X105.057 Y83.36 E13.27674
G1 X105.609 Y83.075 E13.28778
G1 X106.194 Y82.863 E13.29884
G1 X106.8 Y82.728 E13.30988
G1 X107.545 Y82.67 E13.32316
G1 X117.545 Y82.67 E13.50092
G1 X118.165 Y82.71 E13.51196
G1 X118.775 Y82.829 E13.52301
G1 X119.364 Y83.026 E13.53405
G1 X119.923 Y83.296 E13.54509
G1 X120.443 Y83.636 E13.55613
G1 X120.915 Y84.04 E13.56717
G1 X121.332 Y84.502 E13.57824
G1 X121.685 Y85.012 E13.58926
G1 X121.97 Y85.564 E13.6003
G1 X122.182 Y86.149 E13.61137
G1 X122.317 Y86.755 E13.6224
G1 X122.375 Y87.5 E13.63568
G1 X122.375 Y100.17 E13.86091
G1 X125.545 Y100.17 E13.91726
G1 X126.165 Y100.21 E13.9283
G1 X126.775 Y100.329 E13.93935
G1 X127.364 Y100.526 E13.95039
G1 X127.923 Y100.796 E13.96142
G1 X128.443 Y101.136 E13.97247
G1 X128.915 Y101.54 E13.98351
G1 X129.332 Y102.002 E13.99457
G1 X129.685 Y102.512 E14.0056
G1 X129.97 Y103.064 E14.01664
G1 X130.182 Y103.649 E14.0277
G1 X130.317 Y104.255 E14.03874
G1 X130.375 Y105 E14.05202
G1 X130.375 Y110 E14.1409
G1 X130.335 Y110.62 E14.15195
G1 X130.216 Y111.23 E14.163
G1 X130.019 Y111.819 E14.17404
G1 X129.749 Y112.378 E14.18507
G1 X129.409 Y112.898 E14.19611
G1 X129.005 Y113.37 E14.20716
G1 X128.543 Y113.787 E14.21822
G1 X128.033 Y114.14 E14.22925
G1 X127.481 Y114.425 E14.24029
G1 X126.896 Y114.637 E14.25135
G1 X126.29 Y114.772 E14.26239
G1 X125.545 Y114.83 E14.27567
G1 X122.375 Y114.83 E14.33202
