;START_OF_HEADER
;HEADER_VERSION:0.1
;FLAVOR:Griffin
;GENERATOR.NAME:Cura_SteamEngine
;GENERATOR.VERSION:master
;GENERATOR.BUILD_DATE:2021-07-08
;TARGET_MACHINE.NAME:Ultimaker 3
;EXTRUDER_TRAIN.0.INITIAL_TEMPERATURE:205
;EXTRUDER_TRAIN.0.MATERIAL.VOLUME_USED:33564
;EXTRUDER_TRAIN.0.MATERIAL.GUID:506c9f0d-e3aa-4bd4-b2d2-23e2425b1aa9
;EXTRUDER_TRAIN.0.NOZZLE.DIAMETER:0.4
;EXTRUDER_TRAIN.0.NOZZLE.NAME:AA 0.4
;BUILD_PLATE.TYPE:glass
;BUILD_PLATE.INITIAL_TEMPERATURE:60
;PRINT.TIME:34254
;PRINT.GROUPS:1
;PRINT.SIZE.MIN.X:9
;PRINT.SIZE.MIN.Y:6
;PRINT.SIZE.MIN.Z:0.27
;PRINT.SIZE.MAX.X:201.738
;PRINT.SIZE.MAX.Y:164.43
;PRINT.SIZE.MAX.Z:62.97
;END_OF_HEADER
;Generated with Cura_SteamEngine master
T0
M82 ;absolute extrusion mode

G92 E0
M109 S205
G0 F15000 X9 Y6 Z2
G280
G1 F1500 E-6.5
;LAYER_COUNT:628
;LAYER:0
M107
M204 S625
M205 X6 Y6
G1 F600 Z2.27
G0 F4285.7 X41.511 Y51.667 Z2.27
M204 S500
M205 X5 Y5
;TYPE:SKIRT
G1 F600 Z0.27
G1 F1500 E0
G1 F1200 X42.158 Y51.3 E0.01322
G1 X42.84 Y51.003 E0.02645
G1 X43.551 Y50.782 E0.03968
G1 X44.281 Y50.638 E0.05291
G1 X45.253 Y50.57 E0.07023
G1 X105.007 Y50.57 E1.13241
G1 X105.75 Y50.61 E1.14564
G1 X106.485 Y50.729 E1.15888
G1 X107.203 Y50.927 E1.17211
G1 X107.895 Y51.2 E1.18534
G1 X108.554 Y51.546 E1.19857
G1 X109.172 Y51.961 E1.2118
G1 X109.907 Y52.6 E1.22911
G1 X110.03 Y52.723 E1.23221
G1 X110.528 Y53.277 E1.24545
G1 X110.963 Y53.881 E1.25868
G1 X111.33 Y54.528 E1.2719
G1 X111.627 Y55.21 E1.28513
G1 X111.848 Y55.921 E1.29836
G1 X111.992 Y56.651 E1.31159
G1 X112.06 Y57.623 E1.32891
G1 X112.06 Y157.377 E3.10213
G1 X112.02 Y158.12 E3.11536
G1 X111.901 Y158.855 E3.12859
G1 X111.703 Y159.573 E3.14183
G1 X111.43 Y160.265 E3.15506
G1 X111.084 Y160.924 E3.16829
G1 X110.669 Y161.542 E3.18152
G1 X110.03 Y162.277 E3.19883
G1 X109.907 Y162.4 E3.20193
G1 X109.353 Y162.898 E3.21517
G1 X108.749 Y163.333 E3.2284
G1 X108.102 Y163.7 E3.24162
G1 X107.42 Y163.997 E3.25484
G1 X106.709 Y164.218 E3.26808
G1 X105.979 Y164.362 E3.28131
G1 X105.007 Y164.43 E3.29863
G1 X45.253 Y164.43 E4.36081
G1 X44.51 Y164.39 E4.37404
G1 X43.775 Y164.271 E4.38727
G1 X43.057 Y164.073 E4.40051
G1 X42.365 Y163.8 E4.41374
G1 X41.706 Y163.454 E4.42697
G1 X41.088 Y163.039 E4.4402
G1 X40.353 Y162.4 E4.45751
G1 X40.23 Y162.277 E4.46061
G1 X39.732 Y161.723 E4.47385
G1 X39.297 Y161.119 E4.48708
G1 X38.93 Y160.472 E4.5003
G1 X38.633 Y159.79 E4.51352
G1 X38.412 Y159.079 E4.52676
G1 X38.268 Y158.349 E4.53999
G1 X38.2 Y157.377 E4.55731
G1 X38.2 Y57.623 E6.33053
G1 X38.24 Y56.88 E6.34376
G1 X38.359 Y56.145 E6.35699
G1 X38.557 Y55.427 E6.37023
G1 X38.83 Y54.735 E6.38346
G1 X39.176 Y54.076 E6.39669
G1 X39.591 Y53.458 E6.40992
G1 X40.23 Y52.723 E6.42723
G1 X40.353 Y52.6 E6.43032
G1 X40.907 Y52.102 E6.44357
G1 X41.511 Y51.667 E6.4568
M204 S625
M205 X6 Y6
G0 F4285.7 X41.775 Y51.997
M204 S500
M205 X5 Y5
G1 F1200 X42.405 Y51.646 E6.46962
G1 X43.07 Y51.367 E6.48244
G1 X43.762 Y51.163 E6.49526
G1 X44.472 Y51.037 E6.50808
G1 X45.253 Y50.99 E6.52199
G1 X105.007 Y50.99 E7.58417
G1 X105.727 Y51.03 E7.59699
G1 X106.439 Y51.149 E7.60982
G1 X107.133 Y51.347 E7.62265
G1 X107.8 Y51.62 E7.63546
G1 X108.434 Y51.965 E7.64829
G1 X109.025 Y52.378 E7.66111
G1 X109.61 Y52.897 E7.67501
G1 X109.733 Y53.02 E7.6781
G1 X110.214 Y53.557 E7.69092
G1 X110.633 Y54.145 E7.70375
G1 X110.984 Y54.775 E7.71657
G1 X111.263 Y55.44 E7.72939
G1 X111.467 Y56.132 E7.74222
G1 X111.593 Y56.842 E7.75504
G1 X111.64 Y57.623 E7.76894
G1 X111.64 Y157.377 E9.54217
G1 X111.6 Y158.097 E9.55499
G1 X111.481 Y158.809 E9.56782
G1 X111.283 Y159.503 E9.58065
G1 X111.01 Y160.17 E9.59346
G1 X110.665 Y160.804 E9.60629
G1 X110.252 Y161.395 E9.61911
G1 X109.733 Y161.98 E9.63301
G1 X109.61 Y162.103 E9.6361
G1 X109.073 Y162.584 E9.64891
G1 X108.485 Y163.003 E9.66175
G1 X107.855 Y163.354 E9.67457
G1 X107.19 Y163.633 E9.68739
G1 X106.498 Y163.837 E9.70021
G1 X105.788 Y163.963 E9.71303
G1 X105.007 Y164.01 E9.72694
G1 X45.253 Y164.01 E10.78912
G1 X44.533 Y163.97 E10.80194
G1 X43.821 Y163.851 E10.81478
G1 X43.127 Y163.653 E10.8276
G1 X42.46 Y163.38 E10.84042
G1 X41.826 Y163.035 E10.85325
G1 X41.235 Y162.622 E10.86606
G1 X40.65 Y162.103 E10.87996
G1 X40.527 Y161.98 E10.88306
G1 X40.046 Y161.443 E10.89587
G1 X39.627 Y160.855 E10.90871
G1 X39.276 Y160.225 E10.92153
G1 X38.997 Y159.56 E10.93434
G1 X38.793 Y158.868 E10.94717
G1 X38.667 Y158.158 E10.95999
G1 X38.62 Y157.377 E10.97389
G1 X38.62 Y57.623 E12.74712
G1 X38.66 Y56.903 E12.75994
G1 X38.779 Y56.191 E12.77277
G1 X38.977 Y55.497 E12.7856
G1 X39.25 Y54.83 E12.79841
G1 X39.595 Y54.196 E12.81124
G1 X40.008 Y53.605 E12.82406
G1 X40.527 Y53.02 E12.83796
G1 X40.65 Y52.897 E12.84105
G1 X41.187 Y52.416 E12.85387
G1 X41.775 Y51.997 E12.8667
M204 S625
M205 X6 Y6
G0 F4285.7 X42.038 Y52.328
M204 S500
M205 X5 Y5
G1 F1200 X42.651 Y51.994 E12.87911
G1 X43.298 Y51.732 E12.89152
G1 X43.97 Y51.547 E12.90391
G1 X44.659 Y51.439 E12.91631
G1 X45.253 Y51.41 E12.92688
G1 X105.007 Y51.41 E13.98906
G1 X105.704 Y51.45 E14.00147
G1 X106.391 Y51.569 E14.01387
G1 X107.06 Y51.767 E14.02627
G1 X107.703 Y52.039 E14.03868
G1 X108.309 Y52.383 E14.05107
G1 X108.873 Y52.795 E14.06348
G1 X109.313 Y53.194 E14.07404
G1 X109.436 Y53.317 E14.07713
G1 X109.901 Y53.838 E14.08955
G1 X110.302 Y54.408 E14.10193
G1 X110.636 Y55.021 E14.11434
G1 X110.898 Y55.668 E14.12675
G1 X111.083 Y56.34 E14.13914
G1 X111.191 Y57.029 E14.15154
G1 X111.22 Y57.623 E14.16211
G1 X111.22 Y157.377 E15.93533
G1 X111.18 Y158.074 E15.94775
G1 X111.061 Y158.761 E15.96014
G1 X110.863 Y159.43 E15.97254
G1 X110.591 Y160.073 E15.98495
G1 X110.247 Y160.679 E15.99734
G1 X109.835 Y161.243 E16.00975
G1 X109.436 Y161.683 E16.02031
G1 X109.313 Y161.806 E16.0234
G1 X108.792 Y162.271 E16.03582
G1 X108.222 Y162.672 E16.04821
G1 X107.609 Y163.006 E16.06062
G1 X106.962 Y163.268 E16.07302
G1 X106.29 Y163.453 E16.08541
G1 X105.601 Y163.561 E16.09781
G1 X105.007 Y163.59 E16.10838
G1 X45.253 Y163.59 E17.17057
G1 X44.556 Y163.55 E17.18298
G1 X43.869 Y163.431 E17.19537
G1 X43.2 Y163.233 E17.20777
G1 X42.557 Y162.961 E17.22019
G1 X41.951 Y162.617 E17.23257
G1 X41.387 Y162.205 E17.24499
G1 X40.947 Y161.806 E17.25555
G1 X40.824 Y161.683 E17.25864
G1 X40.359 Y161.162 E17.27105
G1 X39.958 Y160.592 E17.28344
G1 X39.624 Y159.979 E17.29585
G1 X39.362 Y159.332 E17.30826
G1 X39.177 Y158.66 E17.32065
G1 X39.069 Y157.971 E17.33304
G1 X39.04 Y157.377 E17.34362
G1 X39.04 Y57.623 E19.11684
G1 X39.08 Y56.926 E19.12925
G1 X39.199 Y56.239 E19.14164
G1 X39.397 Y55.57 E19.15405
G1 X39.669 Y54.927 E19.16646
G1 X40.013 Y54.321 E19.17884
G1 X40.425 Y53.757 E19.19126
G1 X40.824 Y53.317 E19.20182
G1 X40.947 Y53.194 E19.20491
G1 X41.468 Y52.729 E19.21732
G1 X42.038 Y52.328 E19.22971
M204 S625
M205 X6 Y6
G0 F4285.7 X42.3 Y52.66
M204 S500
M205 X5 Y5
G1 F1200 X42.895 Y52.344 E19.24169
G1 X43.522 Y52.101 E19.25364
G1 X44.174 Y51.934 E19.26561
G1 X44.842 Y51.845 E19.27759
G1 X45.253 Y51.83 E19.2849
G1 X105.007 Y51.83 E20.34708
G1 X105.679 Y51.87 E20.35905
G1 X106.342 Y51.989 E20.37102
G1 X106.985 Y52.186 E20.38298
G1 X107.601 Y52.458 E20.39495
G1 X108.18 Y52.801 E20.40691
G1 X108.715 Y53.21 E20.41888
G1 X109.139 Y53.614 E20.42929
G1 X109.586 Y54.117 E20.44125
G1 X109.97 Y54.67 E20.45322
G1 X110.286 Y55.265 E20.4652
G1 X110.529 Y55.892 E20.47715
G1 X110.696 Y56.544 E20.48911
G1 X110.785 Y57.212 E20.50109
G1 X110.8 Y57.623 E20.5084
G1 X110.8 Y157.377 E22.28163
G1 X110.76 Y158.049 E22.29359
G1 X110.641 Y158.712 E22.30557
G1 X110.444 Y159.355 E22.31752
G1 X110.172 Y159.971 E22.32949
G1 X109.829 Y160.55 E22.34146
G1 X109.42 Y161.085 E22.35343
G1 X109.016 Y161.509 E22.36384
G1 X108.513 Y161.956 E22.3758
G1 X107.96 Y162.34 E22.38777
G1 X107.365 Y162.656 E22.39974
G1 X106.738 Y162.899 E22.4117
G1 X106.086 Y163.066 E22.42366
G1 X105.418 Y163.155 E22.43564
G1 X105.007 Y163.17 E22.44295
G1 X45.253 Y163.17 E23.50514
G1 X44.581 Y163.13 E23.5171
G1 X43.918 Y163.011 E23.52908
G1 X43.275 Y162.814 E23.54103
G1 X42.659 Y162.542 E23.553
G1 X42.08 Y162.199 E23.56496
G1 X41.545 Y161.79 E23.57693
G1 X41.121 Y161.386 E23.58734
G1 X40.674 Y160.883 E23.59931
G1 X40.29 Y160.33 E23.61127
G1 X39.974 Y159.735 E23.62325
G1 X39.731 Y159.108 E23.6352
G1 X39.564 Y158.456 E23.64717
G1 X39.475 Y157.788 E23.65915
G1 X39.46 Y157.377 E23.66646
G1 X39.46 Y57.623 E25.43968
G1 X39.5 Y56.951 E25.45165
G1 X39.619 Y56.288 E25.46362
G1 X39.816 Y55.645 E25.47558
G1 X40.088 Y55.029 E25.48755
G1 X40.431 Y54.45 E25.49951
G1 X40.84 Y53.915 E25.51148
G1 X41.244 Y53.491 E25.52189
G1 X41.747 Y53.044 E25.53385
G1 X42.3 Y52.66 E25.54582
M204 S625
M205 X6 Y6
G0 F4285.7 X42.561 Y52.993
M204 S500
M205 X5 Y5
G1 F1200 X43.136 Y52.696 E25.55732
G1 X43.744 Y52.472 E25.56884
G1 X44.375 Y52.324 E25.58036
G1 X45.253 Y52.25 E25.59603
G1 X105.007 Y52.25 E26.65821
G1 X105.654 Y52.29 E26.66973
G1 X106.29 Y52.409 E26.68124
G1 X106.907 Y52.606 E26.69275
G1 X107.496 Y52.877 E26.70427
G1 X108.046 Y53.219 E26.71579
G1 X108.719 Y53.788 E26.73145
G1 X108.842 Y53.911 E26.73455
G1 X109.271 Y54.396 E26.74606
G1 X109.637 Y54.931 E26.75758
G1 X109.934 Y55.506 E26.76908
G1 X110.158 Y56.114 E26.7806
G1 X110.306 Y56.745 E26.79212
G1 X110.38 Y57.623 E26.80778
G1 X110.38 Y157.377 E28.58101
G1 X110.34 Y158.024 E28.59253
G1 X110.221 Y158.66 E28.60403
G1 X110.024 Y159.277 E28.61555
G1 X109.753 Y159.866 E28.62707
G1 X109.411 Y160.416 E28.63858
G1 X108.842 Y161.089 E28.65425
G1 X108.719 Y161.212 E28.65734
G1 X108.234 Y161.641 E28.66885
G1 X107.699 Y162.007 E28.68038
G1 X107.124 Y162.304 E28.69188
G1 X106.516 Y162.528 E28.7034
G1 X105.885 Y162.676 E28.71492
G1 X105.007 Y162.75 E28.73058
G1 X45.253 Y162.75 E29.79277
G1 X44.606 Y162.71 E29.80429
G1 X43.97 Y162.591 E29.81579
G1 X43.353 Y162.394 E29.8273
G1 X42.764 Y162.123 E29.83883
G1 X42.214 Y161.781 E29.85034
G1 X41.541 Y161.212 E29.86601
G1 X41.418 Y161.089 E29.8691
G1 X40.989 Y160.604 E29.88061
G1 X40.623 Y160.069 E29.89213
G1 X40.326 Y159.494 E29.90364
G1 X40.102 Y158.886 E29.91516
G1 X39.954 Y158.255 E29.92668
G1 X39.88 Y157.377 E29.94234
G1 X39.88 Y57.623 E31.71556
G1 X39.92 Y56.976 E31.72709
G1 X40.039 Y56.34 E31.73859
G1 X40.236 Y55.723 E31.7501
G1 X40.507 Y55.134 E31.76163
G1 X40.849 Y54.584 E31.77314
G1 X41.418 Y53.911 E31.78881
G1 X41.541 Y53.788 E31.7919
G1 X42.026 Y53.359 E31.80341
G1 X42.561 Y52.993 E31.81493
M204 S625
M205 X6 Y6
G0 F4285.7 X42.82 Y53.328
M204 S500
M205 X5 Y5
G1 F1200 X43.376 Y53.05 E31.82598
G1 X43.962 Y52.846 E31.83701
G1 X44.57 Y52.718 E31.84805
G1 X45.253 Y52.67 E31.86023
G1 X105.007 Y52.67 E32.92241
G1 X105.627 Y52.71 E32.93346
G1 X106.237 Y52.829 E32.9445
G1 X106.826 Y53.026 E32.95554
G1 X107.385 Y53.296 E32.96658
G1 X107.905 Y53.636 E32.97762
G1 X108.422 Y54.085 E32.98979
G1 X108.545 Y54.208 E32.99289
G1 X108.955 Y54.674 E33.00392
G1 X109.302 Y55.19 E33.01497
G1 X109.58 Y55.746 E33.02602
G1 X109.784 Y56.332 E33.03705
G1 X109.912 Y56.94 E33.0481
G1 X109.96 Y57.623 E33.06027
G1 X109.96 Y157.377 E34.83349
G1 X109.92 Y157.997 E34.84454
G1 X109.801 Y158.607 E34.85559
G1 X109.604 Y159.196 E34.86663
G1 X109.334 Y159.755 E34.87766
G1 X108.994 Y160.275 E34.88871
G1 X108.545 Y160.792 E34.90088
G1 X108.422 Y160.915 E34.90397
G1 X107.956 Y161.325 E34.915
G1 X107.44 Y161.672 E34.92606
G1 X106.884 Y161.95 E34.93711
G1 X106.298 Y162.154 E34.94814
G1 X105.69 Y162.282 E34.95918
G1 X105.007 Y162.33 E34.97135
G1 X45.253 Y162.33 E36.03354
G1 X44.633 Y162.29 E36.04458
G1 X44.023 Y162.171 E36.05563
G1 X43.434 Y161.974 E36.06667
G1 X42.875 Y161.704 E36.0777
G1 X42.355 Y161.364 E36.08875
G1 X41.838 Y160.915 E36.10092
G1 X41.715 Y160.792 E36.10401
G1 X41.305 Y160.326 E36.11505
G1 X40.958 Y159.81 E36.1261
G1 X40.68 Y159.254 E36.13715
G1 X40.476 Y158.668 E36.14818
G1 X40.348 Y158.06 E36.15922
G1 X40.3 Y157.377 E36.1714
G1 X40.3 Y57.623 E37.94462
G1 X40.34 Y57.003 E37.95566
G1 X40.459 Y56.393 E37.96671
G1 X40.656 Y55.804 E37.97775
G1 X40.926 Y55.245 E37.98879
G1 X41.266 Y54.725 E37.99983
G1 X41.715 Y54.208 E38.012
G1 X41.838 Y54.085 E38.0151
G1 X42.304 Y53.675 E38.02613
G1 X42.82 Y53.328 E38.03718
M204 S625
M205 X6 Y6
G0 F4285.7 X43.077 Y53.664
M204 S500
M205 X5 Y5
G1 F1200 X43.612 Y53.407 E38.04773
G1 X44.177 Y53.223 E38.0583
G1 X44.761 Y53.118 E38.06884
G1 X45.253 Y53.09 E38.0776
G1 X105.007 Y53.09 E39.13979
G1 X105.599 Y53.13 E39.15034
G1 X106.181 Y53.249 E39.1609
G1 X106.741 Y53.445 E39.17144
G1 X107.27 Y53.715 E39.182
G1 X107.758 Y54.053 E39.19255
G1 X108.248 Y54.505 E39.2044
G1 X108.639 Y54.952 E39.21496
G1 X108.966 Y55.447 E39.2255
G1 X109.223 Y55.982 E39.23606
G1 X109.407 Y56.547 E39.24662
G1 X109.512 Y57.131 E39.25717
G1 X109.54 Y57.623 E39.26593
G1 X109.54 Y157.377 E41.03915
G1 X109.5 Y157.969 E41.0497
G1 X109.381 Y158.551 E41.06026
G1 X109.185 Y159.111 E41.0708
G1 X108.915 Y159.64 E41.08136
G1 X108.577 Y160.128 E41.09191
G1 X108.125 Y160.618 E41.10376
G1 X107.678 Y161.009 E41.11432
G1 X107.183 Y161.336 E41.12487
G1 X106.648 Y161.593 E41.13542
G1 X106.083 Y161.777 E41.14598
G1 X105.499 Y161.882 E41.15653
G1 X105.007 Y161.91 E41.16529
G1 X45.253 Y161.91 E42.22747
G1 X44.661 Y161.87 E42.23802
G1 X44.079 Y161.751 E42.24858
G1 X43.519 Y161.555 E42.25913
G1 X42.99 Y161.285 E42.26968
G1 X42.502 Y160.947 E42.28024
G1 X42.012 Y160.495 E42.29209
G1 X41.621 Y160.048 E42.30264
G1 X41.294 Y159.553 E42.31319
G1 X41.037 Y159.018 E42.32374
G1 X40.853 Y158.453 E42.3343
G1 X40.748 Y157.869 E42.34485
G1 X40.72 Y157.377 E42.35361
G1 X40.72 Y57.623 E44.12683
G1 X40.76 Y57.031 E44.13738
G1 X40.879 Y56.449 E44.14794
G1 X41.075 Y55.889 E44.15849
G1 X41.345 Y55.36 E44.16905
G1 X41.683 Y54.872 E44.1796
G1 X42.135 Y54.382 E44.19145
G1 X42.582 Y53.991 E44.202
G1 X43.077 Y53.664 E44.21255
M204 S625
M205 X6 Y6
G0 F4285.7 X43.333 Y54.003
M204 S500
M205 X5 Y5
G1 F1200 X43.846 Y53.766 E44.2226
G1 X44.387 Y53.605 E44.23263
G1 X44.945 Y53.522 E44.24266
G1 X45.253 Y53.51 E44.24814
G1 X105.007 Y53.51 E45.31032
G1 X105.57 Y53.55 E45.32035
G1 X106.122 Y53.669 E45.33039
G1 X106.652 Y53.865 E45.34044
G1 X107.148 Y54.133 E45.35046
G1 X107.602 Y54.469 E45.3605
G1 X107.951 Y54.802 E45.36907
G1 X108.321 Y55.228 E45.3791
G1 X108.627 Y55.703 E45.38915
G1 X108.864 Y56.216 E45.39919
G1 X109.025 Y56.757 E45.40923
G1 X109.108 Y57.315 E45.41925
G1 X109.12 Y57.623 E45.42473
G1 X109.12 Y157.377 E47.19796
G1 X109.08 Y157.94 E47.20799
G1 X108.961 Y158.492 E47.21803
G1 X108.765 Y159.022 E47.22807
G1 X108.497 Y159.518 E47.2381
G1 X108.161 Y159.972 E47.24814
G1 X107.828 Y160.321 E47.25671
G1 X107.402 Y160.691 E47.26674
G1 X106.927 Y160.997 E47.27678
G1 X106.414 Y161.234 E47.28683
G1 X105.873 Y161.395 E47.29686
G1 X105.315 Y161.478 E47.30689
G1 X105.007 Y161.49 E47.31237
G1 X45.253 Y161.49 E48.37456
G1 X44.69 Y161.45 E48.38459
G1 X44.138 Y161.331 E48.39463
G1 X43.608 Y161.135 E48.40467
G1 X43.112 Y160.867 E48.41469
G1 X42.658 Y160.531 E48.42473
G1 X42.309 Y160.198 E48.43331
G1 X41.939 Y159.772 E48.44334
G1 X41.633 Y159.297 E48.45338
G1 X41.396 Y158.784 E48.46343
G1 X41.235 Y158.243 E48.47346
G1 X41.152 Y157.685 E48.48349
G1 X41.14 Y157.377 E48.48897
G1 X41.14 Y57.623 E50.26219
G1 X41.18 Y57.06 E50.27223
G1 X41.299 Y56.508 E50.28226
G1 X41.495 Y55.978 E50.29231
G1 X41.763 Y55.482 E50.30233
G1 X42.099 Y55.028 E50.31237
G1 X42.432 Y54.679 E50.32095
G1 X42.858 Y54.309 E50.33098
G1 X43.333 Y54.003 E50.34102
M204 S625
M205 X6 Y6
G0 F4285.7 X43.133 Y54.627
M204 S500
M205 X5 Y5
G1 F1200 X43.586 Y54.343 E50.35052
G1 X44.075 Y54.13 E50.36001
G1 X44.591 Y53.992 E50.3695
G1 X45.253 Y53.93 E50.38132
G1 X105.007 Y53.93 E51.4435
G1 X105.54 Y53.97 E51.45301
G1 X106.06 Y54.089 E51.46249
G1 X106.557 Y54.284 E51.47198
G1 X107.02 Y54.551 E51.48148
G1 X107.531 Y54.976 E51.49329
G1 X107.654 Y55.099 E51.49639
G1 X108.003 Y55.503 E51.50588
G1 X108.287 Y55.956 E51.51538
G1 X108.5 Y56.445 E51.52486
G1 X108.638 Y56.961 E51.53436
G1 X108.7 Y57.623 E51.54618
G1 X108.7 Y157.377 E53.3194
G1 X108.66 Y157.91 E53.3289
G1 X108.541 Y158.43 E53.33838
G1 X108.346 Y158.927 E53.34787
G1 X108.079 Y159.39 E53.35738
G1 X107.654 Y159.901 E53.36919
G1 X107.531 Y160.024 E53.37228
G1 X107.127 Y160.373 E53.38177
G1 X106.674 Y160.657 E53.39128
G1 X106.185 Y160.87 E53.40076
