;START_OF_HEADER
;HEADER_VERSION:0.1
;FLAVOR:Griffin
;GENERATOR.NAME:Cura_SteamEngine
;GENERATOR.VERSION:master
;GENERATOR.BUILD_DATE:2021-09-22
;TARGET_MACHINE.NAME:Ultimaker 3
;EXTRUDER_TRAIN.0.INITIAL_TEMPERATURE:205
;EXTRUDER_TRAIN.0.MATERIAL.VOLUME_USED:2556
;EXTRUDER_TRAIN.0.MATERIAL.GUID:506c9f0d-e3aa-4bd4-b2d2-23e2425b1aa9
;EXTRUDER_TRAIN.0.NOZZLE.DIAMETER:0.4
;EXTRUDER_TRAIN.0.NOZZLE.NAME:AA 0.4
;BUILD_PLATE.TYPE:glass
;BUILD_PLATE.INITIAL_TEMPERATURE:60
;PRINT.TIME:2584
;PRINT.GROUPS:1
;PRINT.SIZE.MIN.X:9
;PRINT.SIZE.MIN.Y:6
;PRINT.SIZE.MIN.Z:0.27
;PRINT.SIZE.MAX.X:138.497
;PRINT.SIZE.MAX.Y:129.43
;PRINT.SIZE.MAX.Z:4.97
;END_OF_HEADER
;Generated with Cura_SteamEngine master
T0
M82 ;absolute extrusion mode

G92 E0
M109 S205
G0 F15000 X9 Y6 Z2
G280
G1 F1500 E-6.5
;LAYER_COUNT:48
;LAYER:0
M107
M204 S625
M205 X6 Y6
G1 F600 Z2.27
G0 F4285.7 X96.507 Y87.765 Z2.27
M204 S500
M205 X5 Y5
;TYPE:SKIRT
G1 F600 Z0.27
G1 F1500 E0
G1 F1200 X97.044 Y87.25 E0.01323
G1 X97.633 Y86.795 E0.02646
G1 X98.267 Y86.406 E0.03968
G1 X98.94 Y86.087 E0.05292
G1 X99.643 Y85.842 E0.06615
G1 X100.368 Y85.674 E0.07938
G1 X101.107 Y85.585 E0.09261
G1 X101.567 Y85.57 E0.10079
G1 X131.567 Y85.57 E0.63407
G1 X132.31 Y85.61 E0.6473
G1 X133.045 Y85.729 E0.66053
G1 X133.763 Y85.927 E0.67377
G1 X134.455 Y86.2 E0.687
G1 X135.114 Y86.546 E0.70023
G1 X135.732 Y86.961 E0.71346
G1 X136.302 Y87.44 E0.7267
G1 X136.817 Y87.977 E0.73992
G1 X137.272 Y88.566 E0.75315
G1 X137.661 Y89.2 E0.76637
G1 X137.98 Y89.873 E0.77961
G1 X138.225 Y90.576 E0.79285
G1 X138.393 Y91.301 E0.80608
G1 X138.482 Y92.04 E0.81931
G1 X138.497 Y92.5 E0.82749
G1 X138.497 Y122.5 E1.36077
G1 X138.457 Y123.243 E1.37399
G1 X138.338 Y123.978 E1.38723
G1 X138.14 Y124.696 E1.40047
G1 X137.867 Y125.388 E1.41369
G1 X137.521 Y126.047 E1.42692
G1 X137.106 Y126.665 E1.44016
G1 X136.627 Y127.235 E1.45339
G1 X136.09 Y127.75 E1.46662
G1 X135.501 Y128.205 E1.47985
G1 X134.867 Y128.594 E1.49307
G1 X134.194 Y128.913 E1.50631
G1 X133.491 Y129.158 E1.51954
G1 X132.766 Y129.326 E1.53277
G1 X132.027 Y129.415 E1.546
G1 X131.567 Y129.43 E1.55418
G1 X101.567 Y129.43 E2.08746
G1 X100.824 Y129.39 E2.10069
G1 X100.089 Y129.271 E2.11393
G1 X99.371 Y129.073 E2.12717
G1 X98.679 Y128.8 E2.14039
G1 X98.02 Y128.454 E2.15362
G1 X97.402 Y128.039 E2.16685
G1 X96.832 Y127.56 E2.18009
G1 X96.317 Y127.023 E2.19331
G1 X95.862 Y126.434 E2.20654
G1 X95.473 Y125.8 E2.21977
G1 X95.154 Y125.127 E2.23301
G1 X94.909 Y124.424 E2.24624
G1 X94.741 Y123.699 E2.25947
G1 X94.652 Y122.96 E2.2727
G1 X94.637 Y122.5 E2.28088
G1 X94.637 Y92.5 E2.81416
G1 X94.677 Y91.757 E2.82739
G1 X94.796 Y91.022 E2.84062
G1 X94.994 Y90.304 E2.85386
G1 X95.267 Y89.612 E2.86709
G1 X95.613 Y88.953 E2.88032
G1 X96.028 Y88.335 E2.89355
G1 X96.507 Y87.765 E2.90678
M204 S625
M205 X6 Y6
G0 F4285.7 X96.921 Y87.94
M204 S500
M205 X5 Y5
G1 F1200 X97.454 Y87.454 E2.91961
G1 X98.038 Y87.03 E2.93243
G1 X98.665 Y86.673 E2.94526
G1 X99.327 Y86.387 E2.95808
G1 X100.017 Y86.177 E2.9709
G1 X100.726 Y86.045 E2.98372
G1 X101.567 Y85.99 E2.9987
G1 X131.567 Y85.99 E3.53198
G1 X132.287 Y86.03 E3.5448
G1 X132.999 Y86.149 E3.55763
G1 X133.693 Y86.347 E3.57046
G1 X134.36 Y86.62 E3.58327
G1 X134.994 Y86.965 E3.5961
G1 X135.585 Y87.378 E3.60892
G1 X136.127 Y87.854 E3.62174
G1 X136.613 Y88.387 E3.63456
G1 X137.037 Y88.971 E3.64739
G1 X137.394 Y89.598 E3.66022
G1 X137.68 Y90.26 E3.67304
G1 X137.89 Y90.95 E3.68586
G1 X138.022 Y91.659 E3.69868
G1 X138.077 Y92.5 E3.71366
G1 X138.077 Y122.5 E4.24694
G1 X138.037 Y123.22 E4.25976
G1 X137.918 Y123.932 E4.27259
G1 X137.72 Y124.626 E4.28542
G1 X137.447 Y125.293 E4.29823
G1 X137.102 Y125.927 E4.31106
G1 X136.689 Y126.518 E4.32388
G1 X136.213 Y127.06 E4.3367
G1 X135.68 Y127.546 E4.34952
G1 X135.096 Y127.97 E4.36235
G1 X134.469 Y128.327 E4.37517
G1 X133.807 Y128.613 E4.38799
G1 X133.117 Y128.823 E4.40081
G1 X132.408 Y128.955 E4.41363
G1 X131.567 Y129.01 E4.42861
G1 X101.567 Y129.01 E4.96189
G1 X100.847 Y128.97 E4.97471
G1 X100.135 Y128.851 E4.98754
G1 X99.441 Y128.653 E5.00037
G1 X98.774 Y128.38 E5.01318
G1 X98.14 Y128.035 E5.02602
G1 X97.549 Y127.622 E5.03883
G1 X97.007 Y127.146 E5.05165
G1 X96.521 Y126.613 E5.06448
G1 X96.097 Y126.029 E5.07731
G1 X95.74 Y125.402 E5.09013
G1 X95.454 Y124.74 E5.10295
G1 X95.244 Y124.05 E5.11577
G1 X95.112 Y123.341 E5.12859
G1 X95.057 Y122.5 E5.14357
G1 X95.057 Y92.5 E5.67685
G1 X95.097 Y91.78 E5.68967
G1 X95.216 Y91.068 E5.7025
G1 X95.414 Y90.374 E5.71533
G1 X95.687 Y89.707 E5.72814
G1 X96.032 Y89.073 E5.74097
G1 X96.445 Y88.482 E5.75379
G1 X96.921 Y87.94 E5.76661
M204 S625
M205 X6 Y6
G0 F4285.7 X97.335 Y88.121
M204 S500
M205 X5 Y5
G1 F1200 X97.863 Y87.666 E5.779
G1 X98.44 Y87.274 E5.7914
G1 X99.059 Y86.951 E5.80381
G1 X99.71 Y86.7 E5.81621
G1 X100.386 Y86.526 E5.82862
G1 X101.077 Y86.43 E5.84102
G1 X101.567 Y86.41 E5.84974
G1 X131.567 Y86.41 E6.38302
G1 X132.264 Y86.45 E6.39543
G1 X132.951 Y86.569 E6.40783
G1 X133.62 Y86.767 E6.42023
G1 X134.263 Y87.039 E6.43264
G1 X134.869 Y87.383 E6.44502
G1 X135.433 Y87.795 E6.45744
G1 X135.946 Y88.268 E6.46984
G1 X136.401 Y88.796 E6.48223
G1 X136.793 Y89.373 E6.49463
G1 X137.116 Y89.992 E6.50705
G1 X137.367 Y90.643 E6.51945
G1 X137.541 Y91.319 E6.53186
G1 X137.637 Y92.01 E6.54426
G1 X137.657 Y92.5 E6.55297
G1 X137.657 Y122.5 E7.08625
G1 X137.617 Y123.197 E7.09866
G1 X137.498 Y123.884 E7.11106
G1 X137.3 Y124.553 E7.12346
G1 X137.028 Y125.196 E7.13587
G1 X136.684 Y125.802 E7.14826
G1 X136.272 Y126.366 E7.16067
G1 X135.799 Y126.879 E7.17308
G1 X135.271 Y127.334 E7.18547
G1 X134.694 Y127.726 E7.19787
G1 X134.075 Y128.049 E7.21028
G1 X133.424 Y128.3 E7.22268
G1 X132.748 Y128.474 E7.23509
G1 X132.057 Y128.57 E7.24749
G1 X131.567 Y128.59 E7.25621
G1 X101.567 Y128.59 E7.78949
G1 X100.87 Y128.55 E7.8019
G1 X100.183 Y128.431 E7.81429
G1 X99.514 Y128.233 E7.82669
G1 X98.871 Y127.961 E7.8391
G1 X98.265 Y127.617 E7.85149
G1 X97.701 Y127.205 E7.86391
G1 X97.188 Y126.732 E7.87631
G1 X96.733 Y126.204 E7.8887
G1 X96.341 Y125.627 E7.9011
G1 X96.018 Y125.008 E7.91351
G1 X95.767 Y124.357 E7.92591
G1 X95.593 Y123.681 E7.93832
G1 X95.497 Y122.99 E7.95072
G1 X95.477 Y122.5 E7.95944
G1 X95.477 Y92.5 E8.49272
G1 X95.517 Y91.803 E8.50513
G1 X95.636 Y91.116 E8.51752
G1 X95.834 Y90.447 E8.52993
G1 X96.106 Y89.804 E8.54234
G1 X96.45 Y89.198 E8.55472
G1 X96.862 Y88.634 E8.56714
G1 X97.335 Y88.121 E8.57954
M204 S625
M205 X6 Y6
G0 F4285.7 X97.277 Y88.792
M204 S500
M205 X5 Y5
G1 F1200 X97.747 Y88.31 E8.59151
G1 X98.271 Y87.887 E8.60348
G1 X98.841 Y87.528 E8.61545
G1 X99.449 Y87.24 E8.62741
G1 X100.087 Y87.026 E8.63938
G1 X100.747 Y86.89 E8.65135
G1 X101.567 Y86.83 E8.66597
G1 X131.567 Y86.83 E9.19925
G1 X132.239 Y86.87 E9.21122
G1 X132.902 Y86.989 E9.22319
G1 X133.545 Y87.186 E9.23514
G1 X134.161 Y87.458 E9.24711
G1 X134.74 Y87.801 E9.25908
G1 X135.275 Y88.21 E9.27105
G1 X135.757 Y88.68 E9.28301
G1 X136.18 Y89.204 E9.29499
G1 X136.539 Y89.774 E9.30696
G1 X136.827 Y90.382 E9.31892
G1 X137.041 Y91.02 E9.33088
G1 X137.177 Y91.68 E9.34286
G1 X137.237 Y92.5 E9.35747
G1 X137.237 Y122.5 E9.89075
G1 X137.197 Y123.172 E9.90272
G1 X137.078 Y123.835 E9.91469
G1 X136.881 Y124.478 E9.92665
G1 X136.609 Y125.094 E9.93862
G1 X136.266 Y125.673 E9.95058
G1 X135.857 Y126.208 E9.96255
G1 X135.387 Y126.69 E9.97452
G1 X134.863 Y127.113 E9.98649
G1 X134.293 Y127.472 E9.99846
G1 X133.685 Y127.76 E10.01042
G1 X133.047 Y127.974 E10.02239
G1 X132.387 Y128.11 E10.03436
G1 X131.567 Y128.17 E10.04898
G1 X101.567 Y128.17 E10.58226
G1 X100.895 Y128.13 E10.59423
G1 X100.232 Y128.011 E10.6062
G1 X99.589 Y127.814 E10.61815
G1 X98.973 Y127.542 E10.63012
G1 X98.394 Y127.199 E10.64209
G1 X97.859 Y126.79 E10.65406
G1 X97.377 Y126.32 E10.66602
G1 X96.954 Y125.796 E10.678
G1 X96.595 Y125.226 E10.68997
G1 X96.307 Y124.618 E10.70193
G1 X96.093 Y123.98 E10.71389
G1 X95.957 Y123.32 E10.72587
G1 X95.897 Y122.5 E10.74048
G1 X95.897 Y92.5 E11.27376
G1 X95.937 Y91.828 E11.28573
G1 X96.056 Y91.165 E11.2977
G1 X96.253 Y90.522 E11.30966
G1 X96.525 Y89.906 E11.32163
G1 X96.868 Y89.327 E11.33359
G1 X97.277 Y88.792 E11.34556
M204 S625
M205 X6 Y6
G0 F4285.7 X97.693 Y88.957
M204 S500
M205 X5 Y5
G1 F1200 X98.159 Y88.507 E11.35708
G1 X98.676 Y88.118 E11.36858
G1 X99.238 Y87.795 E11.3801
G1 X99.835 Y87.544 E11.39161
G1 X100.459 Y87.368 E11.40314
G1 X101.099 Y87.271 E11.41464
G1 X101.567 Y87.25 E11.42297
G1 X131.567 Y87.25 E11.95625
G1 X132.214 Y87.29 E11.96777
G1 X132.85 Y87.409 E11.97928
G1 X133.467 Y87.606 E11.99079
G1 X134.056 Y87.877 E12.00231
G1 X134.606 Y88.219 E12.01383
G1 X135.11 Y88.626 E12.02534
G1 X135.56 Y89.092 E12.03686
G1 X135.949 Y89.609 E12.04836
G1 X136.272 Y90.171 E12.05988
G1 X136.523 Y90.768 E12.07139
G1 X136.699 Y91.392 E12.08292
G1 X136.796 Y92.032 E12.09443
G1 X136.817 Y92.5 E12.10275
G1 X136.817 Y122.5 E12.63603
G1 X136.777 Y123.147 E12.64756
G1 X136.658 Y123.783 E12.65906
G1 X136.461 Y124.4 E12.67057
G1 X136.19 Y124.989 E12.6821
G1 X135.848 Y125.539 E12.69361
G1 X135.441 Y126.043 E12.70512
G1 X134.975 Y126.493 E12.71664
G1 X134.458 Y126.882 E12.72814
G1 X133.896 Y127.205 E12.73966
G1 X133.299 Y127.456 E12.75118
G1 X132.675 Y127.632 E12.7627
G1 X132.035 Y127.729 E12.77421
G1 X131.567 Y127.75 E12.78253
G1 X101.567 Y127.75 E13.31581
G1 X100.92 Y127.71 E13.32734
G1 X100.284 Y127.591 E13.33884
G1 X99.667 Y127.394 E13.35035
G1 X99.078 Y127.123 E13.36188
G1 X98.528 Y126.781 E13.37339
G1 X98.024 Y126.374 E13.3849
G1 X97.574 Y125.908 E13.39642
G1 X97.185 Y125.391 E13.40792
G1 X96.862 Y124.829 E13.41944
G1 X96.611 Y124.232 E13.43096
G1 X96.435 Y123.608 E13.44248
G1 X96.338 Y122.968 E13.45399
G1 X96.317 Y122.5 E13.46231
G1 X96.317 Y92.5 E13.99559
G1 X96.357 Y91.853 E14.00712
G1 X96.476 Y91.217 E14.01862
G1 X96.673 Y90.6 E14.03013
G1 X96.944 Y90.011 E14.04166
G1 X97.286 Y89.461 E14.05317
G1 X97.693 Y88.957 E14.06469
M204 S625
M205 X6 Y6
G0 F4285.7 X98.107 Y89.13
M204 S500
M205 X5 Y5
G1 F1200 X98.569 Y88.713 E14.07575
G1 X99.079 Y88.36 E14.08677
G1 X99.631 Y88.075 E14.09782
G1 X100.216 Y87.863 E14.10888
G1 X100.822 Y87.728 E14.11991
G1 X101.567 Y87.67 E14.1332
G1 X131.567 Y87.67 E14.66648
G1 X132.187 Y87.71 E14.67752
G1 X132.797 Y87.829 E14.68857
G1 X133.386 Y88.026 E14.69961
G1 X133.945 Y88.296 E14.71064
G1 X134.465 Y88.636 E14.72169
G1 X134.937 Y89.04 E14.73273
G1 X135.354 Y89.502 E14.7438
G1 X135.707 Y90.012 E14.75482
G1 X135.992 Y90.564 E14.76586
G1 X136.204 Y91.149 E14.77692
G1 X136.339 Y91.755 E14.78796
G1 X136.397 Y92.5 E14.80124
G1 X136.397 Y122.5 E15.33452
G1 X136.357 Y123.12 E15.34557
G1 X136.238 Y123.73 E15.35661
G1 X136.041 Y124.319 E15.36765
G1 X135.771 Y124.878 E15.37869
G1 X135.431 Y125.398 E15.38973
G1 X135.027 Y125.87 E15.40078
G1 X134.565 Y126.287 E15.41184
G1 X134.055 Y126.64 E15.42287
G1 X133.503 Y126.925 E15.43391
G1 X132.918 Y127.137 E15.44497
G1 X132.312 Y127.272 E15.45601
G1 X131.567 Y127.33 E15.46929
G1 X101.567 Y127.33 E16.00257
G1 X100.947 Y127.29 E16.01361
G1 X100.337 Y127.171 E16.02466
G1 X99.748 Y126.974 E16.0357
G1 X99.189 Y126.704 E16.04674
G1 X98.669 Y126.364 E16.05778
G1 X98.197 Y125.96 E16.06882
G1 X97.78 Y125.498 E16.07989
G1 X97.427 Y124.988 E16.09091
G1 X97.142 Y124.436 E16.10196
G1 X96.93 Y123.851 E16.11302
G1 X96.795 Y123.245 E16.12405
G1 X96.737 Y122.5 E16.13734
G1 X96.737 Y92.5 E16.67062
G1 X96.777 Y91.88 E16.68166
G1 X96.896 Y91.27 E16.69271
G1 X97.093 Y90.681 E16.70375
G1 X97.363 Y90.122 E16.71478
G1 X97.703 Y89.602 E16.72583
G1 X98.107 Y89.13 E16.73687
M204 S625
M205 X6 Y6
G0 F4285.7 X98.521 Y89.311
M204 S500
M205 X5 Y5
G1 F1200 X98.977 Y88.931 E16.74742
G1 X99.48 Y88.615 E16.75798
G1 X100.02 Y88.37 E16.76852
G1 X100.589 Y88.2 E16.77908
G1 X101.175 Y88.107 E16.78963
G1 X101.567 Y88.09 E16.7966
G1 X131.567 Y88.09 E17.32988
G1 X132.159 Y88.13 E17.34043
G1 X132.741 Y88.249 E17.35099
G1 X133.301 Y88.445 E17.36153
G1 X133.83 Y88.715 E17.37209
G1 X134.318 Y89.053 E17.38264
G1 X134.756 Y89.454 E17.3932
G1 X135.136 Y89.91 E17.40375
G1 X135.452 Y90.413 E17.41431
G1 X135.697 Y90.953 E17.42485
G1 X135.867 Y91.522 E17.43541
G1 X135.96 Y92.108 E17.44595
G1 X135.977 Y92.5 E17.45293
G1 X135.977 Y122.5 E17.98621
G1 X135.937 Y123.092 E17.99676
G1 X135.818 Y123.674 E18.00732
G1 X135.622 Y124.234 E18.01786
G1 X135.352 Y124.763 E18.02842
G1 X135.014 Y125.251 E18.03897
G1 X134.613 Y125.689 E18.04953
G1 X134.157 Y126.069 E18.06008
G1 X133.654 Y126.385 E18.07064
G1 X133.114 Y126.63 E18.08118
G1 X132.545 Y126.8 E18.09174
G1 X131.959 Y126.893 E18.10228
G1 X131.567 Y126.91 E18.10926
G1 X101.567 Y126.91 E18.64254
G1 X100.975 Y126.87 E18.65308
G1 X100.393 Y126.751 E18.66364
G1 X99.833 Y126.555 E18.67419
G1 X99.304 Y126.285 E18.68475
G1 X98.816 Y125.947 E18.6953
G1 X98.378 Y125.546 E18.70586
G1 X97.998 Y125.09 E18.71641
G1 X97.682 Y124.587 E18.72697
G1 X97.437 Y124.047 E18.73751
G1 X97.267 Y123.478 E18.74806
G1 X97.174 Y122.892 E18.75861
G1 X97.157 Y122.5 E18.76559
G1 X97.157 Y92.5 E19.29887
G1 X97.197 Y91.908 E19.30941
G1 X97.316 Y91.326 E19.31997
G1 X97.512 Y90.766 E19.33052
G1 X97.782 Y90.237 E19.34108
G1 X98.12 Y89.749 E19.35163
G1 X98.521 Y89.311 E19.36218
M204 S625
M205 X6 Y6
G0 F4285.7 X98.536 Y89.905
M204 S500
M205 X5 Y5
G1 F1200 X98.933 Y89.503 E19.37223
G1 X99.382 Y89.161 E19.38226
G1 X99.876 Y88.886 E19.39231
G1 X100.403 Y88.684 E19.40234
G1 X100.953 Y88.558 E19.41237
G1 X101.567 Y88.51 E19.42332
G1 X131.567 Y88.51 E19.9566
G1 X132.13 Y88.55 E19.96663
G1 X132.682 Y88.669 E19.97667
G1 X133.212 Y88.865 E19.98672
G1 X133.708 Y89.133 E19.99674
G1 X134.162 Y89.469 E20.00678
G1 X134.564 Y89.866 E20.01682
G1 X134.906 Y90.315 E20.02685
G1 X135.181 Y90.809 E20.0369
G1 X135.383 Y91.336 E20.04694
G1 X135.509 Y91.886 E20.05697
G1 X135.557 Y92.5 E20.06792
G1 X135.557 Y122.5 E20.60119
G1 X135.517 Y123.063 E20.61123
G1 X135.398 Y123.615 E20.62127
G1 X135.202 Y124.145 E20.63131
G1 X134.934 Y124.641 E20.64133
G1 X134.598 Y125.095 E20.65137
G1 X134.201 Y125.497 E20.66142
G1 X133.752 Y125.839 E20.67145
G1 X133.258 Y126.114 E20.6815
G1 X132.731 Y126.316 E20.69153
G1 X132.181 Y126.442 E20.70156
G1 X131.567 Y126.49 E20.71251
G1 X101.567 Y126.49 E21.24579
G1 X101.004 Y126.45 E21.25582
G1 X100.452 Y126.331 E21.26586
G1 X99.922 Y126.135 E21.2759
G1 X99.426 Y125.867 E21.28593
G1 X98.972 Y125.531 E21.29597
G1 X98.57 Y125.134 E21.30601
G1 X98.228 Y124.685 E21.31604
G1 X97.953 Y124.191 E21.32609
G1 X97.751 Y123.664 E21.33612
G1 X97.625 Y123.114 E21.34615
G1 X97.577 Y122.5 E21.3571
G1 X97.577 Y92.5 E21.89038
G1 X97.617 Y91.937 E21.90041
G1 X97.736 Y91.385 E21.91045
G1 X97.932 Y90.855 E21.9205
G1 X98.2 Y90.359 E21.93052
G1 X98.536 Y89.905 E21.94056
M204 S625
M205 X6 Y6
G0 F4285.7 X98.952 Y90.07
M204 S500
M205 X5 Y5
G1 F1200 X99.343 Y89.707 E21.95004
G1 X99.785 Y89.407 E21.95954
G1 X100.266 Y89.175 E21.96903
G1 X100.777 Y89.019 E21.97853
G1 X101.567 Y88.93 E21.99266
G1 X131.567 Y88.93 E22.52594
G1 X132.1 Y88.97 E22.53544
G1 X132.62 Y89.089 E22.54492
G1 X133.117 Y89.284 E22.55441
G1 X133.58 Y89.551 E22.56391
G1 X133.997 Y89.885 E22.57341
G1 X134.36 Y90.276 E22.5829
G1 X134.66 Y90.718 E22.59239
G1 X134.892 Y91.199 E22.60188
G1 X135.048 Y91.71 E22.61138
G1 X135.137 Y92.5 E22.62551
G1 X135.137 Y122.5 E23.15879
G1 X135.097 Y123.033 E23.16829
G1 X134.978 Y123.553 E23.17778
G1 X134.783 Y124.05 E23.18727
G1 X134.516 Y124.513 E23.19677
G1 X134.182 Y124.93 E23.20627
G1 X133.791 Y125.293 E23.21575
G1 X133.349 Y125.593 E23.22524
G1 X132.868 Y125.825 E23.23474
G1 X132.357 Y125.981 E23.24424
G1 X131.567 Y126.07 E23.25837
G1 X101.567 Y126.07 E23.79165
G1 X101.034 Y126.03 E23.80115
G1 X100.514 Y125.911 E23.81063
G1 X100.017 Y125.716 E23.82012
G1 X99.554 Y125.449 E23.82962
G1 X99.137 Y125.115 E23.83912
G1 X98.774 Y124.724 E23.8486
G1 X98.474 Y124.282 E23.8581
G1 X98.242 Y123.801 E23.86759
G1 X98.086 Y123.29 E23.87709
G1 X97.997 Y122.5 E23.89122
G1 X97.997 Y92.5 E24.4245
G1 X98.037 Y91.967 E24.434
G1 X98.156 Y91.447 E24.44348
G1 X98.351 Y90.95 E24.45297
G1 X98.618 Y90.487 E24.46247
G1 X98.952 Y90.07 E24.47197
M204 S625
M205 X6 Y6
G0 F4285.7 X99.366 Y90.247
M204 S500
M205 X5 Y5
G1 F1200 X99.751 Y89.926 E24.48088
G1 X100.183 Y89.67 E24.48981
