;START_OF_HEADER
;HEADER_VERSION:0.1
;FLAVOR:Griffin
;GENERATOR.NAME:Cura_SteamEngine
;GENERATOR.VERSION:master
;GENERATOR.BUILD_DATE:2021-07-08
;TARGET_MACHINE.NAME:Ultimaker 3
;EXTRUDER_TRAIN.0.INITIAL_TEMPERATURE:205
;EXTRUDER_TRAIN.0.MATERIAL.VOLUME_USED:29171
;EXTRUDER_TRAIN.0.MATERIAL.GUID:506c9f0d-e3aa-4bd4-b2d2-23e2425b1aa9
;EXTRUDER_TRAIN.0.NOZZLE.DIAMETER:0.4
;EXTRUDER_TRAIN.0.NOZZLE.NAME:AA 0.4
;BUILD_PLATE.TYPE:glass
;BUILD_PLATE.INITIAL_TEMPERATURE:60
;PRINT.TIME:30418
;PRINT.GROUPS:1
;PRINT.SIZE.MIN.X:9
;PRINT.SIZE.MIN.Y:6
;PRINT.SIZE.MIN.Z:0.27
;PRINT.SIZE.MAX.X:188.497
;PRINT.SIZE.MAX.Y:164.43
;PRINT.SIZE.MAX.Z:27.57
;END_OF_HEADER
;Generated with Cura_SteamEngine master
T0
M82 ;absolute extrusion mode

G92 E0
M109 S205
G0 F15000 X9 Y6 Z2
G280
G1 F1500 E-6.5
;LAYER_COUNT:274
;LAYER:0
M107
M204 S625
M205 X6 Y6
G1 F600 Z2.27
G0 F4285.7 X47.344 Y52.102 Z2.27
M204 S500
M205 X5 Y5
;TYPE:SKIRT
G1 F600 Z0.27
G1 F1500 E0
G1 F1200 X47.948 Y51.667 E0.01323
G1 X48.595 Y51.3 E0.02645
G1 X49.277 Y51.003 E0.03968
G1 X49.988 Y50.782 E0.05291
G1 X50.718 Y50.638 E0.06614
G1 X51.69 Y50.57 E0.08346
G1 X181.444 Y50.57 E2.38996
G1 X182.187 Y50.61 E2.40319
G1 X182.922 Y50.729 E2.41643
G1 X183.64 Y50.927 E2.42966
G1 X184.332 Y51.2 E2.44289
G1 X184.991 Y51.546 E2.45612
G1 X185.609 Y51.961 E2.46935
G1 X186.344 Y52.6 E2.48666
G1 X186.467 Y52.723 E2.48976
G1 X186.965 Y53.277 E2.503
G1 X187.4 Y53.881 E2.51623
G1 X187.767 Y54.528 E2.52945
G1 X188.064 Y55.21 E2.54268
G1 X188.285 Y55.921 E2.55591
G1 X188.429 Y56.651 E2.56914
G1 X188.497 Y57.623 E2.58646
G1 X188.497 Y157.377 E4.35968
G1 X188.457 Y158.12 E4.37291
G1 X188.338 Y158.855 E4.38614
G1 X188.14 Y159.573 E4.39938
G1 X187.867 Y160.265 E4.41261
G1 X187.521 Y160.924 E4.42584
G1 X187.106 Y161.542 E4.43907
G1 X186.467 Y162.277 E4.45638
G1 X186.344 Y162.4 E4.45948
G1 X185.79 Y162.898 E4.47272
G1 X185.186 Y163.333 E4.48595
G1 X184.539 Y163.7 E4.49917
G1 X183.857 Y163.997 E4.51239
G1 X183.146 Y164.218 E4.52563
G1 X182.416 Y164.362 E4.53886
G1 X181.444 Y164.43 E4.55618
G1 X51.69 Y164.43 E6.86268
G1 X50.947 Y164.39 E6.87591
G1 X50.212 Y164.271 E6.88914
G1 X49.494 Y164.073 E6.90238
G1 X48.802 Y163.8 E6.91561
G1 X48.143 Y163.454 E6.92884
G1 X47.525 Y163.039 E6.94207
G1 X46.79 Y162.4 E6.95938
G1 X46.667 Y162.277 E6.96247
G1 X46.169 Y161.723 E6.97572
G1 X45.734 Y161.119 E6.98895
G1 X45.367 Y160.472 E7.00217
G1 X45.07 Y159.79 E7.01539
G1 X44.849 Y159.079 E7.02863
G1 X44.705 Y158.349 E7.04185
G1 X44.637 Y157.377 E7.05917
G1 X44.637 Y57.623 E8.8324
G1 X44.677 Y56.88 E8.84563
G1 X44.796 Y56.145 E8.85886
G1 X44.994 Y55.427 E8.8721
G1 X45.267 Y54.735 E8.88532
G1 X45.613 Y54.076 E8.89856
G1 X46.028 Y53.458 E8.91179
G1 X46.667 Y52.723 E8.9291
G1 X46.79 Y52.6 E8.93219
G1 X47.344 Y52.102 E8.94543
M204 S625
M205 X6 Y6
G0 F4285.7 X47.624 Y52.416
M204 S500
M205 X5 Y5
G1 F1200 X48.212 Y51.997 E8.95827
G1 X48.842 Y51.646 E8.97109
G1 X49.507 Y51.367 E8.98391
G1 X50.199 Y51.163 E8.99673
G1 X50.909 Y51.037 E9.00955
G1 X51.69 Y50.99 E9.02346
G1 X181.444 Y50.99 E11.32996
G1 X182.164 Y51.03 E11.34278
G1 X182.876 Y51.149 E11.35561
G1 X183.57 Y51.347 E11.36844
G1 X184.237 Y51.62 E11.38125
G1 X184.871 Y51.965 E11.39408
G1 X185.462 Y52.378 E11.4069
G1 X186.047 Y52.897 E11.4208
G1 X186.17 Y53.02 E11.42389
G1 X186.651 Y53.557 E11.43671
G1 X187.07 Y54.145 E11.44954
G1 X187.421 Y54.775 E11.46236
G1 X187.7 Y55.44 E11.47518
G1 X187.904 Y56.132 E11.48801
G1 X188.03 Y56.842 E11.50082
G1 X188.077 Y57.623 E11.51473
G1 X188.077 Y157.377 E13.28796
G1 X188.037 Y158.097 E13.30078
G1 X187.918 Y158.809 E13.31361
G1 X187.72 Y159.503 E13.32644
G1 X187.447 Y160.17 E13.33925
G1 X187.102 Y160.804 E13.35208
G1 X186.689 Y161.395 E13.3649
G1 X186.17 Y161.98 E13.3788
G1 X186.047 Y162.103 E13.38189
G1 X185.51 Y162.584 E13.3947
G1 X184.922 Y163.003 E13.40754
G1 X184.292 Y163.354 E13.42036
G1 X183.627 Y163.633 E13.43318
G1 X182.935 Y163.837 E13.446
G1 X182.225 Y163.963 E13.45882
G1 X181.444 Y164.01 E13.47273
G1 X51.69 Y164.01 E15.77923
G1 X50.97 Y163.97 E15.79205
G1 X50.258 Y163.851 E15.80488
G1 X49.564 Y163.653 E15.81771
G1 X48.897 Y163.38 E15.83052
G1 X48.263 Y163.035 E15.84335
G1 X47.672 Y162.622 E15.85617
G1 X47.087 Y162.103 E15.87007
G1 X46.964 Y161.98 E15.87316
G1 X46.483 Y161.443 E15.88598
G1 X46.064 Y160.855 E15.89881
G1 X45.713 Y160.225 E15.91163
G1 X45.434 Y159.56 E15.92445
G1 X45.23 Y158.868 E15.93728
G1 X45.104 Y158.158 E15.95009
G1 X45.057 Y157.377 E15.964
G1 X45.057 Y57.623 E17.73723
G1 X45.097 Y56.903 E17.75005
G1 X45.216 Y56.191 E17.76288
G1 X45.414 Y55.497 E17.77571
G1 X45.687 Y54.83 E17.78852
G1 X46.032 Y54.196 E17.80135
G1 X46.445 Y53.605 E17.81417
G1 X46.964 Y53.02 E17.82807
G1 X47.087 Y52.897 E17.83116
G1 X47.624 Y52.416 E17.84397
M204 S625
M205 X6 Y6
G0 F4285.7 X47.905 Y52.729
M204 S500
M205 X5 Y5
G1 F1200 X48.475 Y52.328 E17.85636
G1 X49.088 Y51.994 E17.86877
G1 X49.735 Y51.732 E17.88118
G1 X50.407 Y51.547 E17.89357
G1 X51.096 Y51.439 E17.90597
G1 X51.69 Y51.41 E17.91654
G1 X181.444 Y51.41 E20.22304
G1 X182.141 Y51.45 E20.23545
G1 X182.828 Y51.569 E20.24785
G1 X183.497 Y51.767 E20.26025
G1 X184.14 Y52.039 E20.27266
G1 X184.746 Y52.383 E20.28505
G1 X185.31 Y52.795 E20.29746
G1 X185.75 Y53.194 E20.30802
G1 X185.873 Y53.317 E20.31111
G1 X186.338 Y53.838 E20.32353
G1 X186.739 Y54.408 E20.33591
G1 X187.073 Y55.021 E20.34832
G1 X187.335 Y55.668 E20.36073
G1 X187.52 Y56.34 E20.37312
G1 X187.628 Y57.029 E20.38552
G1 X187.657 Y57.623 E20.39609
G1 X187.657 Y157.377 E22.16931
G1 X187.617 Y158.074 E22.18173
G1 X187.498 Y158.761 E22.19412
G1 X187.3 Y159.43 E22.20652
G1 X187.028 Y160.073 E22.21893
G1 X186.684 Y160.679 E22.23132
G1 X186.272 Y161.243 E22.24373
G1 X185.873 Y161.683 E22.25429
G1 X185.75 Y161.806 E22.25738
G1 X185.229 Y162.271 E22.2698
G1 X184.659 Y162.672 E22.28219
G1 X184.046 Y163.006 E22.2946
G1 X183.399 Y163.268 E22.307
G1 X182.727 Y163.453 E22.31939
G1 X182.038 Y163.561 E22.33179
G1 X181.444 Y163.59 E22.34236
G1 X51.69 Y163.59 E24.64887
G1 X50.993 Y163.55 E24.66128
G1 X50.306 Y163.431 E24.67367
G1 X49.637 Y163.233 E24.68607
G1 X48.994 Y162.961 E24.69848
G1 X48.388 Y162.617 E24.71087
G1 X47.824 Y162.205 E24.72329
G1 X47.384 Y161.806 E24.73384
G1 X47.261 Y161.683 E24.73694
G1 X46.796 Y161.162 E24.74935
G1 X46.395 Y160.592 E24.76174
G1 X46.061 Y159.979 E24.77415
G1 X45.799 Y159.332 E24.78656
G1 X45.614 Y158.66 E24.79895
G1 X45.506 Y157.971 E24.81134
G1 X45.477 Y157.377 E24.82191
G1 X45.477 Y57.623 E26.59514
G1 X45.517 Y56.926 E26.60755
G1 X45.636 Y56.239 E26.61994
G1 X45.834 Y55.57 E26.63235
G1 X46.106 Y54.927 E26.64476
G1 X46.45 Y54.321 E26.65714
G1 X46.862 Y53.757 E26.66956
G1 X47.261 Y53.317 E26.68012
G1 X47.384 Y53.194 E26.68321
G1 X47.905 Y52.729 E26.69562
M204 S625
M205 X6 Y6
G0 F4285.7 X48.184 Y53.044
M204 S500
M205 X5 Y5
G1 F1200 X48.737 Y52.66 E26.70759
G1 X49.332 Y52.344 E26.71957
G1 X49.959 Y52.101 E26.73152
G1 X50.611 Y51.934 E26.74348
G1 X51.279 Y51.845 E26.75546
G1 X51.69 Y51.83 E26.76277
G1 X181.444 Y51.83 E29.06928
G1 X182.116 Y51.87 E29.08124
G1 X182.779 Y51.989 E29.09322
G1 X183.422 Y52.186 E29.10517
G1 X184.038 Y52.458 E29.11714
G1 X184.617 Y52.801 E29.1291
G1 X185.152 Y53.21 E29.14108
G1 X185.576 Y53.614 E29.15149
G1 X186.023 Y54.117 E29.16345
G1 X186.407 Y54.67 E29.17542
G1 X186.723 Y55.265 E29.18739
G1 X186.966 Y55.892 E29.19934
G1 X187.133 Y56.544 E29.21131
G1 X187.222 Y57.212 E29.22329
G1 X187.237 Y57.623 E29.2306
G1 X187.237 Y157.377 E31.00382
G1 X187.197 Y158.049 E31.01579
G1 X187.078 Y158.712 E31.02776
G1 X186.881 Y159.355 E31.03972
G1 X186.609 Y159.971 E31.05169
G1 X186.266 Y160.55 E31.06365
G1 X185.857 Y161.085 E31.07562
G1 X185.453 Y161.509 E31.08603
G1 X184.95 Y161.956 E31.09799
G1 X184.397 Y162.34 E31.10996
G1 X183.802 Y162.656 E31.12194
G1 X183.175 Y162.899 E31.13389
G1 X182.523 Y163.066 E31.14586
G1 X181.855 Y163.155 E31.15783
G1 X181.444 Y163.17 E31.16515
G1 X51.69 Y163.17 E33.47165
G1 X51.018 Y163.13 E33.48362
G1 X50.355 Y163.011 E33.49559
G1 X49.712 Y162.814 E33.50754
G1 X49.096 Y162.542 E33.51951
G1 X48.517 Y162.199 E33.53148
G1 X47.982 Y161.79 E33.54345
G1 X47.558 Y161.386 E33.55386
G1 X47.111 Y160.883 E33.56582
G1 X46.727 Y160.33 E33.57779
G1 X46.411 Y159.735 E33.58976
G1 X46.168 Y159.108 E33.60172
G1 X46.001 Y158.456 E33.61368
G1 X45.912 Y157.788 E33.62566
G1 X45.897 Y157.377 E33.63297
G1 X45.897 Y57.623 E35.4062
G1 X45.937 Y56.951 E35.41816
G1 X46.056 Y56.288 E35.43014
G1 X46.253 Y55.645 E35.44209
G1 X46.525 Y55.029 E35.45406
G1 X46.868 Y54.45 E35.46602
G1 X47.277 Y53.915 E35.47799
G1 X47.681 Y53.491 E35.4884
G1 X48.184 Y53.044 E35.50037
M204 S625
M205 X6 Y6
G0 F4285.7 X48.463 Y53.359
M204 S500
M205 X5 Y5
G1 F1200 X48.998 Y52.993 E35.51189
G1 X49.573 Y52.696 E35.52339
G1 X50.181 Y52.472 E35.53491
G1 X50.812 Y52.324 E35.54643
G1 X51.69 Y52.25 E35.56209
G1 X181.444 Y52.25 E37.8686
G1 X182.091 Y52.29 E37.88012
G1 X182.727 Y52.409 E37.89162
G1 X183.344 Y52.606 E37.90314
G1 X183.933 Y52.877 E37.91466
G1 X184.483 Y53.219 E37.92617
G1 X185.156 Y53.788 E37.94184
G1 X185.279 Y53.911 E37.94493
G1 X185.708 Y54.396 E37.95644
G1 X186.074 Y54.931 E37.96797
G1 X186.371 Y55.506 E37.97947
G1 X186.595 Y56.114 E37.99099
G1 X186.743 Y56.745 E38.00251
G1 X186.817 Y57.623 E38.01817
G1 X186.817 Y157.377 E39.7914
G1 X186.777 Y158.024 E39.80292
G1 X186.658 Y158.66 E39.81442
G1 X186.461 Y159.277 E39.82593
G1 X186.19 Y159.866 E39.83746
G1 X185.848 Y160.416 E39.84897
G1 X185.279 Y161.089 E39.86464
G1 X185.156 Y161.212 E39.86773
G1 X184.671 Y161.641 E39.87924
G1 X184.136 Y162.007 E39.89076
G1 X183.561 Y162.304 E39.90227
G1 X182.953 Y162.528 E39.91378
G1 X182.322 Y162.676 E39.92531
G1 X181.444 Y162.75 E39.94097
G1 X51.69 Y162.75 E42.24747
G1 X51.043 Y162.71 E42.259
G1 X50.407 Y162.591 E42.2705
G1 X49.79 Y162.394 E42.28201
G1 X49.201 Y162.123 E42.29354
G1 X48.651 Y161.781 E42.30505
G1 X47.978 Y161.212 E42.32071
G1 X47.855 Y161.089 E42.32381
G1 X47.426 Y160.604 E42.33532
G1 X47.06 Y160.069 E42.34684
G1 X46.763 Y159.494 E42.35834
G1 X46.539 Y158.886 E42.36986
G1 X46.391 Y158.255 E42.38138
G1 X46.317 Y157.377 E42.39704
G1 X46.317 Y57.623 E44.17027
G1 X46.357 Y56.976 E44.18179
G1 X46.476 Y56.34 E44.19329
G1 X46.673 Y55.723 E44.20481
G1 X46.944 Y55.134 E44.21633
G1 X47.286 Y54.584 E44.22785
G1 X47.855 Y53.911 E44.24351
G1 X47.978 Y53.788 E44.2466
G1 X48.463 Y53.359 E44.25811
M204 S625
M205 X6 Y6
G0 F4285.7 X48.741 Y53.675
M204 S500
M205 X5 Y5
G1 F1200 X49.257 Y53.328 E44.26917
G1 X49.813 Y53.05 E44.28022
G1 X50.399 Y52.846 E44.29125
G1 X51.007 Y52.718 E44.30229
G1 X51.69 Y52.67 E44.31446
G1 X181.444 Y52.67 E46.62097
G1 X182.064 Y52.71 E46.63201
G1 X182.674 Y52.829 E46.64306
G1 X183.263 Y53.026 E46.6541
G1 X183.822 Y53.296 E46.66513
G1 X184.342 Y53.636 E46.67618
G1 X184.859 Y54.085 E46.68835
G1 X184.982 Y54.208 E46.69144
G1 X185.392 Y54.674 E46.70248
G1 X185.739 Y55.19 E46.71353
G1 X186.017 Y55.746 E46.72458
G1 X186.221 Y56.332 E46.73561
G1 X186.349 Y56.94 E46.74665
G1 X186.397 Y57.623 E46.75882
G1 X186.397 Y157.377 E48.53205
G1 X186.357 Y157.997 E48.54309
G1 X186.238 Y158.607 E48.55414
G1 X186.041 Y159.196 E48.56518
G1 X185.771 Y159.755 E48.57622
G1 X185.431 Y160.275 E48.58726
G1 X184.982 Y160.792 E48.59943
G1 X184.859 Y160.915 E48.60252
G1 X184.393 Y161.325 E48.61356
G1 X183.877 Y161.672 E48.62461
G1 X183.321 Y161.95 E48.63566
G1 X182.735 Y162.154 E48.64669
G1 X182.127 Y162.282 E48.65774
G1 X181.444 Y162.33 E48.66991
G1 X51.69 Y162.33 E50.97641
G1 X51.07 Y162.29 E50.98745
G1 X50.46 Y162.171 E50.9985
G1 X49.871 Y161.974 E51.00954
G1 X49.312 Y161.704 E51.02058
G1 X48.792 Y161.364 E51.03162
G1 X48.275 Y160.915 E51.04379
G1 X48.152 Y160.792 E51.04689
G1 X47.742 Y160.326 E51.05792
G1 X47.395 Y159.81 E51.06897
G1 X47.117 Y159.254 E51.08002
G1 X46.913 Y158.668 E51.09105
G1 X46.785 Y158.06 E51.1021
G1 X46.737 Y157.377 E51.11427
G1 X46.737 Y57.623 E52.88749
G1 X46.777 Y57.003 E52.89854
G1 X46.896 Y56.393 E52.90959
G1 X47.093 Y55.804 E52.92063
G1 X47.363 Y55.245 E52.93166
G1 X47.703 Y54.725 E52.9427
G1 X48.152 Y54.208 E52.95488
G1 X48.275 Y54.085 E52.95797
G1 X48.741 Y53.675 E52.969
M204 S625
M205 X6 Y6
G0 F4285.7 X49.019 Y53.991
M204 S500
M205 X5 Y5
G1 F1200 X49.514 Y53.664 E52.97955
G1 X50.049 Y53.407 E52.9901
G1 X50.614 Y53.223 E53.00066
G1 X51.198 Y53.118 E53.01121
G1 X51.69 Y53.09 E53.01997
G1 X181.444 Y53.09 E55.32647
G1 X182.036 Y53.13 E55.33702
G1 X182.618 Y53.249 E55.34758
G1 X183.178 Y53.445 E55.35813
G1 X183.707 Y53.715 E55.36868
G1 X184.195 Y54.053 E55.37924
G1 X184.685 Y54.505 E55.39109
G1 X185.076 Y54.952 E55.40164
G1 X185.403 Y55.447 E55.41219
G1 X185.66 Y55.982 E55.42274
G1 X185.844 Y56.547 E55.4333
G1 X185.949 Y57.131 E55.44385
G1 X185.977 Y57.623 E55.45261
G1 X185.977 Y157.377 E57.22583
G1 X185.937 Y157.969 E57.23638
G1 X185.818 Y158.551 E57.24694
G1 X185.622 Y159.111 E57.25749
G1 X185.352 Y159.64 E57.26805
G1 X185.014 Y160.128 E57.2786
G1 X184.562 Y160.618 E57.29045
G1 X184.115 Y161.009 E57.301
G1 X183.62 Y161.336 E57.31155
G1 X183.085 Y161.593 E57.3221
G1 X182.52 Y161.777 E57.33266
G1 X181.936 Y161.882 E57.34321
G1 X181.444 Y161.91 E57.35197
G1 X51.69 Y161.91 E59.65847
G1 X51.098 Y161.87 E59.66902
G1 X50.516 Y161.751 E59.67958
G1 X49.956 Y161.555 E59.69013
G1 X49.427 Y161.285 E59.70069
G1 X48.939 Y160.947 E59.71124
G1 X48.449 Y160.495 E59.72309
G1 X48.058 Y160.048 E59.73364
G1 X47.731 Y159.553 E59.74419
G1 X47.474 Y159.018 E59.75474
G1 X47.29 Y158.453 E59.7653
G1 X47.185 Y157.869 E59.77585
G1 X47.157 Y157.377 E59.78461
G1 X47.157 Y57.623 E61.55784
G1 X47.197 Y57.031 E61.56838
G1 X47.316 Y56.449 E61.57894
G1 X47.512 Y55.889 E61.58949
G1 X47.782 Y55.36 E61.60005
G1 X48.12 Y54.872 E61.6106
G1 X48.572 Y54.382 E61.62245
G1 X49.019 Y53.991 E61.63301
M204 S625
M205 X6 Y6
G0 F4285.7 X49.295 Y54.309
M204 S500
M205 X5 Y5
G1 F1200 X49.77 Y54.003 E61.64305
G1 X50.283 Y53.766 E61.6531
G1 X50.824 Y53.605 E61.66313
G1 X51.382 Y53.522 E61.67316
G1 X51.69 Y53.51 E61.67864
G1 X181.444 Y53.51 E63.98514
G1 X182.007 Y53.55 E63.99517
G1 X182.559 Y53.669 E64.00521
G1 X183.089 Y53.865 E64.01526
G1 X183.585 Y54.133 E64.02528
G1 X184.039 Y54.469 E64.03532
G1 X184.388 Y54.802 E64.04389
G1 X184.758 Y55.228 E64.05392
G1 X185.064 Y55.703 E64.06397
G1 X185.301 Y56.216 E64.07401
G1 X185.462 Y56.757 E64.08405
G1 X185.545 Y57.315 E64.09407
G1 X185.557 Y57.623 E64.09955
G1 X185.557 Y157.377 E65.87278
G1 X185.517 Y157.94 E65.88281
G1 X185.398 Y158.492 E65.89285
G1 X185.202 Y159.022 E65.90289
G1 X184.934 Y159.518 E65.91291
G1 X184.598 Y159.972 E65.92295
G1 X184.265 Y160.321 E65.93153
G1 X183.839 Y160.691 E65.94156
G1 X183.364 Y160.997 E65.9516
G1 X182.851 Y161.234 E65.96165
G1 X182.31 Y161.395 E65.97168
G1 X181.752 Y161.478 E65.98171
G1 X181.444 Y161.49 E65.98719
G1 X51.69 Y161.49 E68.29369
G1 X51.127 Y161.45 E68.30373
G1 X50.575 Y161.331 E68.31376
G1 X50.045 Y161.135 E68.32381
G1 X49.549 Y160.867 E68.33383
G1 X49.095 Y160.531 E68.34387
G1 X48.746 Y160.198 E68.35245
G1 X48.376 Y159.772 E68.36248
G1 X48.07 Y159.297 E68.37252
G1 X47.833 Y158.784 E68.38257
G1 X47.672 Y158.243 E68.3926
G1 X47.589 Y157.685 E68.40263
G1 X47.577 Y157.377 E68.40811
G1 X47.577 Y57.623 E70.18133
G1 X47.617 Y57.06 E70.19136
G1 X47.736 Y56.508 E70.2014
G1 X47.932 Y55.978 E70.21145
G1 X48.2 Y55.482 E70.22147
G1 X48.536 Y55.028 E70.23151
G1 X48.869 Y54.679 E70.24008
G1 X49.295 Y54.309 E70.25011
M204 S625
M205 X6 Y6
G0 F4285.7 X49.57 Y54.627
M204 S500
M205 X5 Y5
G1 F1200 X50.023 Y54.343 E70.25962
G1 X50.512 Y54.13 E70.2691
G1 X51.028 Y53.992 E70.27859
G1 X51.69 Y53.93 E70.29041
G1 X181.444 Y53.93 E72.59692
G1 X181.977 Y53.97 E72.60642
G1 X182.497 Y54.089 E72.6159
G1 X182.994 Y54.284 E72.62539
G1 X183.457 Y54.551 E72.63489
G1 X183.968 Y54.976 E72.64671
G1 X184.091 Y55.099 E72.6498
G1 X184.44 Y55.503 E72.65929
G1 X184.724 Y55.956 E72.66879
G1 X184.937 Y56.445 E72.67827
G1 X185.075 Y56.961 E72.68777
G1 X185.137 Y57.623 E72.69959
G1 X185.137 Y157.377 E74.47281
G1 X185.097 Y157.91 E74.48231
G1 X184.978 Y158.43 E74.4918
G1 X184.783 Y158.927 E74.50129
G1 X184.516 Y159.39 E74.51079
G1 X184.091 Y159.901 E74.5226
G1 X183.968 Y160.024 E74.52569
