;START_OF_HEADER
;HEADER_VERSION:0.1
;FLAVOR:Griffin
;GENERATOR.NAME:Cura_SteamEngine
;GENERATOR.VERSION:master
;GENERATOR.BUILD_DATE:2021-07-08
;TARGET_MACHINE.NAME:Ultimaker 3
;EXTRUDER_TRAIN.0.INITIAL_TEMPERATURE:205
;EXTRUDER_TRAIN.0.MATERIAL.VOLUME_USED:2534
;EXTRUDER_TRAIN.0.MATERIAL.GUID:506c9f0d-e3aa-4bd4-b2d2-23e2425b1aa9
;EXTRUDER_TRAIN.0.NOZZLE.DIAMETER:0.4
;EXTRUDER_TRAIN.0.NOZZLE.NAME:AA 0.4
;BUILD_PLATE.TYPE:glass
;BUILD_PLATE.INITIAL_TEMPERATURE:60
;PRINT.TIME:2623
;PRINT.GROUPS:1
;PRINT.SIZE.MIN.X:9
;PRINT.SIZE.MIN.Y:6
;PRINT.SIZE.MIN.Z:0.27
;PRINT.SIZE.MAX.X:138.497
;PRINT.SIZE.MAX.Y:128.93
;PRINT.SIZE.MAX.Z:4.97
;END_OF_HEADER
;Generated with Cura_SteamEngine master
T0
M82 ;absolute extrusion mode

G92 E0
M109 S205
G0 F15000 X9 Y6 Z2
G280
G1 F1500 E-6.5
;LAYER_COUNT:48
;LAYER:0
M107
M204 S625
M205 X6 Y6
G1 F600 Z2.27
G0 F4285.7 X96.667 Y88.223 Z2.27
M204 S500
M205 X5 Y5
;TYPE:SKIRT
G1 F600 Z0.27
G1 F1500 E0
G1 F1200 X96.79 Y88.1 E0.00309
G1 X97.344 Y87.602 E0.01633
G1 X97.948 Y87.167 E0.02957
G1 X98.595 Y86.8 E0.04279
G1 X99.277 Y86.503 E0.05601
G1 X99.988 Y86.282 E0.06925
G1 X100.718 Y86.138 E0.08247
G1 X101.69 Y86.07 E0.09979
G1 X131.444 Y86.07 E0.6287
G1 X132.187 Y86.11 E0.64193
G1 X132.922 Y86.229 E0.65516
G1 X133.64 Y86.427 E0.6684
G1 X134.332 Y86.7 E0.68162
G1 X134.991 Y87.046 E0.69486
G1 X135.609 Y87.461 E0.70809
G1 X136.344 Y88.1 E0.7254
G1 X136.467 Y88.223 E0.72849
G1 X136.965 Y88.777 E0.74173
G1 X137.4 Y89.381 E0.75497
G1 X137.767 Y90.028 E0.76819
G1 X138.064 Y90.71 E0.78141
G1 X138.285 Y91.421 E0.79465
G1 X138.429 Y92.151 E0.80787
G1 X138.497 Y93.123 E0.82519
G1 X138.497 Y121.877 E1.33632
G1 X138.457 Y122.62 E1.34955
G1 X138.338 Y123.355 E1.36279
G1 X138.14 Y124.073 E1.37603
G1 X137.867 Y124.765 E1.38925
G1 X137.521 Y125.424 E1.40248
G1 X137.106 Y126.042 E1.41571
G1 X136.467 Y126.777 E1.43303
G1 X136.344 Y126.9 E1.43612
G1 X135.79 Y127.398 E1.44936
G1 X135.186 Y127.833 E1.46259
G1 X134.539 Y128.2 E1.47581
G1 X133.857 Y128.497 E1.48904
G1 X133.146 Y128.718 E1.50227
G1 X132.416 Y128.862 E1.5155
G1 X131.444 Y128.93 E1.53282
G1 X101.69 Y128.93 E2.06172
G1 X100.947 Y128.89 E2.07495
G1 X100.212 Y128.771 E2.08819
G1 X99.494 Y128.573 E2.10143
G1 X98.802 Y128.3 E2.11465
G1 X98.143 Y127.954 E2.12788
G1 X97.525 Y127.539 E2.14111
G1 X96.79 Y126.9 E2.15843
G1 X96.667 Y126.777 E2.16152
G1 X96.169 Y126.223 E2.17476
G1 X95.734 Y125.619 E2.18799
G1 X95.367 Y124.972 E2.20121
G1 X95.07 Y124.29 E2.21444
G1 X94.849 Y123.579 E2.22767
G1 X94.705 Y122.849 E2.2409
G1 X94.637 Y121.877 E2.25822
G1 X94.637 Y93.123 E2.76935
G1 X94.677 Y92.38 E2.78258
G1 X94.796 Y91.645 E2.79581
G1 X94.994 Y90.927 E2.80905
G1 X95.267 Y90.235 E2.82227
G1 X95.613 Y89.576 E2.83551
G1 X96.028 Y88.958 E2.84874
G1 X96.667 Y88.223 E2.86605
M204 S625
M205 X6 Y6
G0 F4285.7 X96.964 Y88.52
M204 S500
M205 X5 Y5
G1 F1200 X97.087 Y88.397 E2.86914
G1 X97.624 Y87.916 E2.88196
G1 X98.212 Y87.497 E2.89479
G1 X98.842 Y87.146 E2.90761
G1 X99.507 Y86.867 E2.92043
G1 X100.199 Y86.663 E2.93326
G1 X100.909 Y86.537 E2.94607
G1 X101.69 Y86.49 E2.95998
G1 X131.444 Y86.49 E3.48889
G1 X132.164 Y86.53 E3.50171
G1 X132.876 Y86.649 E3.51454
G1 X133.57 Y86.847 E3.52737
G1 X134.237 Y87.12 E3.54018
G1 X134.871 Y87.465 E3.55301
G1 X135.462 Y87.878 E3.56583
G1 X136.047 Y88.397 E3.57973
G1 X136.17 Y88.52 E3.58282
G1 X136.651 Y89.057 E3.59563
G1 X137.07 Y89.645 E3.60847
G1 X137.421 Y90.275 E3.62129
G1 X137.7 Y90.94 E3.63411
G1 X137.904 Y91.632 E3.64693
G1 X138.03 Y92.342 E3.65975
G1 X138.077 Y93.123 E3.67366
G1 X138.077 Y121.877 E4.18479
G1 X138.037 Y122.597 E4.19761
G1 X137.918 Y123.309 E4.21044
G1 X137.72 Y124.003 E4.22327
G1 X137.447 Y124.67 E4.23608
G1 X137.102 Y125.304 E4.24891
G1 X136.689 Y125.895 E4.26173
G1 X136.17 Y126.48 E4.27563
G1 X136.047 Y126.603 E4.27872
G1 X135.51 Y127.084 E4.29154
G1 X134.922 Y127.503 E4.30437
G1 X134.292 Y127.854 E4.31719
G1 X133.627 Y128.133 E4.33001
G1 X132.935 Y128.337 E4.34283
G1 X132.225 Y128.463 E4.35565
G1 X131.444 Y128.51 E4.36956
G1 X101.69 Y128.51 E4.89847
G1 X100.97 Y128.47 E4.91128
G1 X100.258 Y128.351 E4.92412
G1 X99.564 Y128.153 E4.93695
G1 X98.897 Y127.88 E4.94976
G1 X98.263 Y127.535 E4.96259
G1 X97.672 Y127.122 E4.9754
G1 X97.087 Y126.603 E4.98931
G1 X96.964 Y126.48 E4.9924
G1 X96.483 Y125.943 E5.00521
G1 X96.064 Y125.355 E5.01805
G1 X95.713 Y124.725 E5.03087
G1 X95.434 Y124.06 E5.04369
G1 X95.23 Y123.368 E5.05651
G1 X95.104 Y122.658 E5.06933
G1 X95.057 Y121.877 E5.08324
G1 X95.057 Y93.123 E5.59437
G1 X95.097 Y92.403 E5.60719
G1 X95.216 Y91.691 E5.62002
G1 X95.414 Y90.997 E5.63285
G1 X95.687 Y90.33 E5.64566
G1 X96.032 Y89.696 E5.65849
G1 X96.445 Y89.105 E5.6713
G1 X96.964 Y88.52 E5.68521
M204 S625
M205 X6 Y6
G0 F4285.7 X97.261 Y88.817
M204 S500
M205 X5 Y5
G1 F1200 X97.384 Y88.694 E5.6883
G1 X97.905 Y88.229 E5.70071
G1 X98.475 Y87.828 E5.7131
G1 X99.088 Y87.494 E5.72551
G1 X99.735 Y87.232 E5.73792
G1 X100.407 Y87.047 E5.75031
G1 X101.096 Y86.939 E5.7627
G1 X101.69 Y86.91 E5.77328
G1 X131.444 Y86.91 E6.30218
G1 X132.141 Y86.95 E6.31459
G1 X132.828 Y87.069 E6.32699
G1 X133.497 Y87.267 E6.33939
G1 X134.14 Y87.539 E6.3518
G1 X134.746 Y87.883 E6.36419
G1 X135.31 Y88.295 E6.3766
G1 X135.75 Y88.694 E6.38716
G1 X135.873 Y88.817 E6.39025
G1 X136.338 Y89.338 E6.40267
G1 X136.739 Y89.908 E6.41505
G1 X137.073 Y90.521 E6.42746
G1 X137.335 Y91.168 E6.43987
G1 X137.52 Y91.84 E6.45226
G1 X137.628 Y92.529 E6.46466
G1 X137.657 Y93.123 E6.47523
G1 X137.657 Y121.877 E6.98636
G1 X137.617 Y122.574 E6.99877
G1 X137.498 Y123.261 E7.01117
G1 X137.3 Y123.93 E7.02357
G1 X137.028 Y124.573 E7.03598
G1 X136.684 Y125.179 E7.04836
G1 X136.272 Y125.743 E7.06078
G1 X135.873 Y126.183 E7.07134
G1 X135.75 Y126.306 E7.07443
G1 X135.229 Y126.771 E7.08684
G1 X134.659 Y127.172 E7.09923
G1 X134.046 Y127.506 E7.11164
G1 X133.399 Y127.768 E7.12405
G1 X132.727 Y127.953 E7.13644
G1 X132.038 Y128.061 E7.14884
G1 X131.444 Y128.09 E7.15941
G1 X101.69 Y128.09 E7.68832
G1 X100.993 Y128.05 E7.70073
G1 X100.306 Y127.931 E7.71312
G1 X99.637 Y127.733 E7.72552
G1 X98.994 Y127.461 E7.73793
G1 X98.388 Y127.117 E7.75032
G1 X97.824 Y126.705 E7.76273
G1 X97.384 Y126.306 E7.77329
G1 X97.261 Y126.183 E7.77639
G1 X96.796 Y125.662 E7.7888
G1 X96.395 Y125.092 E7.80119
G1 X96.061 Y124.479 E7.8136
G1 X95.799 Y123.832 E7.826
G1 X95.614 Y123.16 E7.83839
G1 X95.506 Y122.471 E7.85079
G1 X95.477 Y121.877 E7.86136
G1 X95.477 Y93.123 E8.37249
G1 X95.517 Y92.426 E8.3849
G1 X95.636 Y91.739 E8.3973
G1 X95.834 Y91.07 E8.4097
G1 X96.106 Y90.427 E8.42211
G1 X96.45 Y89.821 E8.4345
G1 X96.862 Y89.257 E8.44691
G1 X97.261 Y88.817 E8.45747
M204 S625
M205 X6 Y6
G0 F4285.7 X97.681 Y88.991
M204 S500
M205 X5 Y5
G1 F1200 X98.184 Y88.544 E8.46943
G1 X98.737 Y88.16 E8.4814
G1 X99.332 Y87.844 E8.49338
G1 X99.959 Y87.601 E8.50533
G1 X100.611 Y87.434 E8.51729
G1 X101.279 Y87.345 E8.52927
G1 X101.69 Y87.33 E8.53658
G1 X131.444 Y87.33 E9.06549
G1 X132.116 Y87.37 E9.07746
G1 X132.779 Y87.489 E9.08943
G1 X133.422 Y87.686 E9.10139
G1 X134.038 Y87.958 E9.11336
G1 X134.617 Y88.301 E9.12532
G1 X135.152 Y88.71 E9.13729
G1 X135.576 Y89.114 E9.1477
G1 X136.023 Y89.617 E9.15966
G1 X136.407 Y90.17 E9.17163
G1 X136.723 Y90.765 E9.1836
G1 X136.966 Y91.392 E9.19556
G1 X137.133 Y92.044 E9.20752
G1 X137.222 Y92.712 E9.2195
G1 X137.237 Y93.123 E9.22681
G1 X137.237 Y121.877 E9.73794
G1 X137.197 Y122.549 E9.74991
G1 X137.078 Y123.212 E9.76188
G1 X136.881 Y123.855 E9.77384
G1 X136.609 Y124.471 E9.78581
G1 X136.266 Y125.05 E9.79777
G1 X135.857 Y125.585 E9.80974
G1 X135.453 Y126.009 E9.82015
G1 X134.95 Y126.456 E9.83211
G1 X134.397 Y126.84 E9.84408
G1 X133.802 Y127.156 E9.85606
G1 X133.175 Y127.399 E9.86801
G1 X132.523 Y127.566 E9.87997
G1 X131.855 Y127.655 E9.89195
G1 X131.444 Y127.67 E9.89926
G1 X101.69 Y127.67 E10.42817
G1 X101.018 Y127.63 E10.44014
G1 X100.355 Y127.511 E10.45211
G1 X99.712 Y127.314 E10.46407
G1 X99.096 Y127.042 E10.47604
G1 X98.517 Y126.699 E10.488
G1 X97.982 Y126.29 E10.49997
G1 X97.558 Y125.886 E10.51038
G1 X97.111 Y125.383 E10.52234
G1 X96.727 Y124.83 E10.53431
G1 X96.411 Y124.235 E10.54628
G1 X96.168 Y123.608 E10.55824
G1 X96.001 Y122.956 E10.5702
G1 X95.912 Y122.288 E10.58218
G1 X95.897 Y121.877 E10.58949
G1 X95.897 Y93.123 E11.10062
G1 X95.937 Y92.451 E11.11259
G1 X96.056 Y91.788 E11.12456
G1 X96.253 Y91.145 E11.13652
G1 X96.525 Y90.529 E11.14849
G1 X96.868 Y89.95 E11.16045
G1 X97.277 Y89.415 E11.17242
G1 X97.681 Y88.991 E11.18283
M204 S625
M205 X6 Y6
G0 F4285.7 X97.855 Y89.411
M204 S500
M205 X5 Y5
G1 F1200 X97.978 Y89.288 E11.18592
G1 X98.463 Y88.859 E11.19743
G1 X98.998 Y88.493 E11.20896
G1 X99.573 Y88.196 E11.22046
G1 X100.181 Y87.972 E11.23198
G1 X100.812 Y87.824 E11.2435
G1 X101.69 Y87.75 E11.25916
G1 X131.444 Y87.75 E11.78807
G1 X132.091 Y87.79 E11.79959
G1 X132.727 Y87.909 E11.81109
G1 X133.344 Y88.106 E11.82261
G1 X133.933 Y88.377 E11.83413
G1 X134.483 Y88.719 E11.84564
G1 X135.156 Y89.288 E11.86131
G1 X135.279 Y89.411 E11.8644
G1 X135.708 Y89.896 E11.87591
G1 X136.074 Y90.431 E11.88743
G1 X136.371 Y91.006 E11.89894
G1 X136.595 Y91.614 E11.91046
G1 X136.743 Y92.245 E11.92198
G1 X136.817 Y93.123 E11.93764
G1 X136.817 Y121.877 E12.44877
G1 X136.777 Y122.524 E12.46029
G1 X136.658 Y123.16 E12.4718
G1 X136.461 Y123.777 E12.48331
G1 X136.19 Y124.366 E12.49483
G1 X135.848 Y124.916 E12.50635
G1 X135.279 Y125.589 E12.52201
G1 X135.156 Y125.712 E12.52511
G1 X134.671 Y126.141 E12.53662
G1 X134.136 Y126.507 E12.54814
G1 X133.561 Y126.804 E12.55964
G1 X132.953 Y127.028 E12.57116
G1 X132.322 Y127.176 E12.58268
G1 X131.444 Y127.25 E12.59834
G1 X101.69 Y127.25 E13.12725
G1 X101.043 Y127.21 E13.13877
G1 X100.407 Y127.091 E13.15027
G1 X99.79 Y126.894 E13.16179
G1 X99.201 Y126.623 E13.17331
G1 X98.651 Y126.281 E13.18483
G1 X97.978 Y125.712 E13.20049
G1 X97.855 Y125.589 E13.20358
G1 X97.426 Y125.104 E13.21509
G1 X97.06 Y124.569 E13.22662
G1 X96.763 Y123.994 E13.23812
G1 X96.539 Y123.386 E13.24964
G1 X96.391 Y122.755 E13.26116
G1 X96.317 Y121.877 E13.27682
G1 X96.317 Y93.123 E13.78795
G1 X96.357 Y92.476 E13.79948
G1 X96.476 Y91.84 E13.81098
G1 X96.673 Y91.223 E13.82249
G1 X96.944 Y90.634 E13.83402
G1 X97.286 Y90.084 E13.84553
G1 X97.855 Y89.411 E13.86119
M204 S625
M205 X6 Y6
G0 F4285.7 X98.152 Y89.708
M204 S500
M205 X5 Y5
G1 F1200 X98.275 Y89.585 E13.86429
G1 X98.741 Y89.175 E13.87532
G1 X99.257 Y88.828 E13.88637
G1 X99.813 Y88.55 E13.89742
G1 X100.399 Y88.346 E13.90845
G1 X101.007 Y88.218 E13.9195
G1 X101.69 Y88.17 E13.93167
G1 X131.444 Y88.17 E14.46058
G1 X132.064 Y88.21 E14.47162
G1 X132.674 Y88.329 E14.48267
G1 X133.263 Y88.526 E14.49371
G1 X133.822 Y88.796 E14.50474
G1 X134.342 Y89.136 E14.51579
G1 X134.859 Y89.585 E14.52796
G1 X134.982 Y89.708 E14.53105
G1 X135.392 Y90.174 E14.54208
G1 X135.739 Y90.69 E14.55314
G1 X136.017 Y91.246 E14.56419
G1 X136.221 Y91.832 E14.57522
G1 X136.349 Y92.44 E14.58626
G1 X136.397 Y93.123 E14.59843
G1 X136.397 Y121.877 E15.10956
G1 X136.357 Y122.497 E15.12061
G1 X136.238 Y123.107 E15.13166
G1 X136.041 Y123.696 E15.1427
G1 X135.771 Y124.255 E15.15373
G1 X135.431 Y124.775 E15.16477
G1 X134.982 Y125.292 E15.17695
G1 X134.859 Y125.415 E15.18004
G1 X134.393 Y125.825 E15.19107
G1 X133.877 Y126.172 E15.20213
G1 X133.321 Y126.45 E15.21318
G1 X132.735 Y126.654 E15.22421
G1 X132.127 Y126.782 E15.23525
G1 X131.444 Y126.83 E15.24742
G1 X101.69 Y126.83 E15.77633
G1 X101.07 Y126.79 E15.78737
G1 X100.46 Y126.671 E15.79842
G1 X99.871 Y126.474 E15.80946
G1 X99.312 Y126.204 E15.8205
G1 X98.792 Y125.864 E15.83154
G1 X98.275 Y125.415 E15.84371
G1 X98.152 Y125.292 E15.8468
G1 X97.742 Y124.826 E15.85784
G1 X97.395 Y124.31 E15.86889
G1 X97.117 Y123.754 E15.87994
G1 X96.913 Y123.168 E15.89097
G1 X96.785 Y122.56 E15.90201
G1 X96.737 Y121.877 E15.91419
G1 X96.737 Y93.123 E16.42532
G1 X96.777 Y92.503 E16.43636
G1 X96.896 Y91.893 E16.44741
G1 X97.093 Y91.304 E16.45845
G1 X97.363 Y90.745 E16.46948
G1 X97.703 Y90.225 E16.48053
G1 X98.152 Y89.708 E16.4927
M204 S625
M205 X6 Y6
G0 F4285.7 X98.572 Y89.882
M204 S500
M205 X5 Y5
G1 F1200 X99.019 Y89.491 E16.50326
G1 X99.514 Y89.164 E16.5138
G1 X100.049 Y88.907 E16.52435
G1 X100.614 Y88.723 E16.53492
G1 X101.198 Y88.618 E16.54546
G1 X101.69 Y88.59 E16.55422
G1 X131.444 Y88.59 E17.08313
G1 X132.036 Y88.63 E17.09368
G1 X132.618 Y88.749 E17.10424
G1 X133.178 Y88.945 E17.11478
G1 X133.707 Y89.215 E17.12534
G1 X134.195 Y89.553 E17.13589
G1 X134.685 Y90.005 E17.14774
G1 X135.076 Y90.452 E17.1583
G1 X135.403 Y90.947 E17.16885
G1 X135.66 Y91.482 E17.1794
G1 X135.844 Y92.047 E17.18996
G1 X135.949 Y92.631 E17.20051
G1 X135.977 Y93.123 E17.20927
G1 X135.977 Y121.877 E17.7204
G1 X135.937 Y122.469 E17.73094
G1 X135.818 Y123.051 E17.7415
G1 X135.622 Y123.611 E17.75205
G1 X135.352 Y124.14 E17.76261
G1 X135.014 Y124.628 E17.77316
G1 X134.562 Y125.118 E17.78501
G1 X134.115 Y125.509 E17.79557
G1 X133.62 Y125.836 E17.80611
G1 X133.085 Y126.093 E17.81666
G1 X132.52 Y126.277 E17.82723
G1 X131.936 Y126.382 E17.83777
G1 X131.444 Y126.41 E17.84653
G1 X101.69 Y126.41 E18.37544
G1 X101.098 Y126.37 E18.38599
G1 X100.516 Y126.251 E18.39655
G1 X99.956 Y126.055 E18.40709
G1 X99.427 Y125.785 E18.41765
G1 X98.939 Y125.447 E18.4282
G1 X98.449 Y124.995 E18.44005
G1 X98.058 Y124.548 E18.45061
G1 X97.731 Y124.053 E18.46116
G1 X97.474 Y123.518 E18.47171
G1 X97.29 Y122.953 E18.48227
G1 X97.185 Y122.369 E18.49282
G1 X97.157 Y121.877 E18.50158
G1 X97.157 Y93.123 E19.01271
G1 X97.197 Y92.531 E19.02325
G1 X97.316 Y91.949 E19.03381
G1 X97.512 Y91.389 E19.04436
G1 X97.782 Y90.86 E19.05492
G1 X98.12 Y90.372 E19.06547
G1 X98.572 Y89.882 E19.07732
M204 S625
M205 X6 Y6
G0 F4285.7 X98.869 Y90.179
M204 S500
M205 X5 Y5
G1 F1200 X99.295 Y89.809 E19.08735
G1 X99.77 Y89.503 E19.09739
G1 X100.283 Y89.266 E19.10744
G1 X100.824 Y89.105 E19.11747
G1 X101.382 Y89.022 E19.1275
G1 X101.69 Y89.01 E19.13298
G1 X131.444 Y89.01 E19.66189
G1 X132.007 Y89.05 E19.67192
G1 X132.559 Y89.169 E19.68196
G1 X133.089 Y89.365 E19.692
G1 X133.585 Y89.633 E19.70202
G1 X134.039 Y89.969 E19.71206
G1 X134.388 Y90.302 E19.72064
G1 X134.758 Y90.728 E19.73067
G1 X135.064 Y91.203 E19.74071
G1 X135.301 Y91.716 E19.75076
G1 X135.462 Y92.257 E19.76079
G1 X135.545 Y92.815 E19.77082
G1 X135.557 Y93.123 E19.7763
G1 X135.557 Y121.877 E20.28743
G1 X135.517 Y122.44 E20.29746
G1 X135.398 Y122.992 E20.3075
G1 X135.202 Y123.522 E20.31754
G1 X134.934 Y124.018 E20.32757
G1 X134.598 Y124.472 E20.33761
G1 X134.265 Y124.821 E20.34618
G1 X133.839 Y125.191 E20.35621
G1 X133.364 Y125.497 E20.36626
G1 X132.851 Y125.734 E20.3763
G1 X132.31 Y125.895 E20.38633
G1 X131.752 Y125.978 E20.39636
G1 X131.444 Y125.99 E20.40184
G1 X101.69 Y125.99 E20.93075
G1 X101.127 Y125.95 E20.94078
G1 X100.575 Y125.831 E20.95082
G1 X100.045 Y125.635 E20.96086
G1 X99.549 Y125.367 E20.97089
G1 X99.095 Y125.031 E20.98093
G1 X98.746 Y124.698 E20.9895
G1 X98.376 Y124.272 E20.99953
G1 X98.07 Y123.797 E21.00957
G1 X97.833 Y123.284 E21.01962
G1 X97.672 Y122.743 E21.02965
G1 X97.589 Y122.185 E21.03968
G1 X97.577 Y121.877 E21.04516
G1 X97.577 Y93.123 E21.55629
G1 X97.617 Y92.56 E21.56632
G1 X97.736 Y92.008 E21.57636
G1 X97.932 Y91.478 E21.58641
G1 X98.2 Y90.982 E21.59643
G1 X98.536 Y90.528 E21.60647
G1 X98.869 Y90.179 E21.61504
M204 S625
M205 X6 Y6
G0 F4285.7 X99.043 Y90.599
M204 S500
M205 X5 Y5
G1 F1200 X99.166 Y90.476 E21.61813
G1 X99.57 Y90.127 E21.62762
G1 X100.023 Y89.843 E21.63713
G1 X100.512 Y89.63 E21.64661
G1 X101.028 Y89.492 E21.65611
G1 X101.69 Y89.43 E21.66792
G1 X131.444 Y89.43 E22.19683
G1 X131.977 Y89.47 E22.20633
G1 X132.497 Y89.589 E22.21581
G1 X132.994 Y89.784 E22.2253
G1 X133.457 Y90.051 E22.23481
G1 X133.968 Y90.476 E22.24662
G1 X134.091 Y90.599 E22.24971
G1 X134.44 Y91.003 E22.2592
G1 X134.724 Y91.456 E22.26871
G1 X134.937 Y91.945 E22.27819
G1 X135.075 Y92.461 E22.28768
G1 X135.137 Y93.123 E22.2995
G1 X135.137 Y121.877 E22.81063
G1 X135.097 Y122.41 E22.82013
G1 X134.978 Y122.93 E22.82962
G1 X134.783 Y123.427 E22.83911
G1 X134.516 Y123.89 E22.84861
G1 X134.091 Y124.401 E22.86042
G1 X133.968 Y124.524 E22.86351
G1 X133.564 Y124.873 E22.873
G1 X133.111 Y125.157 E22.88251
