;START_OF_HEADER
;HEADER_VERSION:0.1
;FLAVOR:Griffin
;GENERATOR.NAME:Cura_SteamEngine
;GENERATOR.VERSION:master
;GENERATOR.BUILD_DATE:2021-07-08
;TARGET_MACHINE.NAME:Ultimaker 3
;EXTRUDER_TRAIN.0.INITIAL_TEMPERATURE:205
;EXTRUDER_TRAIN.0.MATERIAL.VOLUME_USED:304
;EXTRUDER_TRAIN.0.MATERIAL.GUID:506c9f0d-e3aa-4bd4-b2d2-23e2425b1aa9
;EXTRUDER_TRAIN.0.NOZZLE.DIAMETER:0.4
;EXTRUDER_TRAIN.0.NOZZLE.NAME:AA 0.4
;BUILD_PLATE.TYPE:glass
;BUILD_PLATE.INITIAL_TEMPERATURE:60
;PRINT.TIME:306
;PRINT.GROUPS:1
;PRINT.SIZE.MIN.X:9
;PRINT.SIZE.MIN.Y:6
;PRINT.SIZE.MIN.Z:0.27
;PRINT.SIZE.MAX.X:128.205
;PRINT.SIZE.MAX.Y:119.132
;PRINT.SIZE.MAX.Z:4.57
;END_OF_HEADER
;Generated with Cura_SteamEngine master
T0
M82 ;absolute extrusion mode

G92 E0
M109 S205
G0 F15000 X9 Y6 Z2
G280
G1 F1500 E-6.5
;LAYER_COUNT:44
;LAYER:0
M107
M204 S625
M205 X6 Y6
G1 F600 Z2.27
G0 F4285.7 X107.991 Y99.634 Z2.27
M204 S500
M205 X5 Y5
;TYPE:SKIRT
G1 F600 Z0.27
G1 F1500 E0
G1 F1200 X108.489 Y99.124 E0.01267
G1 X108.858 Y98.783 E0.0216
G1 X109.423 Y98.314 E0.03466
G1 X109.826 Y98.014 E0.04359
G1 X110.439 Y97.606 E0.05668
G1 X110.869 Y97.352 E0.06555
G1 X111.529 Y97.009 E0.07877
G1 X111.985 Y96.802 E0.08768
G1 X112.683 Y96.529 E0.101
G1 X113.16 Y96.372 E0.10993
G1 X113.854 Y96.183 E0.12271
G1 X114.346 Y96.076 E0.13166
G1 X115.097 Y95.956 E0.14518
G1 X115.603 Y95.903 E0.15423
G1 X116.125 Y95.868 E0.16353
G1 X116.761 Y95.861 E0.17483
G1 X117.011 Y95.868 E0.17928
G1 X117.549 Y95.904 E0.18886
G1 X118.048 Y95.957 E0.19778
G1 X118.789 Y96.076 E0.21112
G1 X119.281 Y96.183 E0.22007
G1 X119.979 Y96.374 E0.23294
G1 X120.455 Y96.531 E0.24185
G1 X121.142 Y96.799 E0.25495
G1 X121.597 Y97.005 E0.26383
G1 X122.262 Y97.35 E0.27715
G1 X122.694 Y97.605 E0.28607
G1 X123.309 Y98.014 E0.2992
G1 X123.712 Y98.314 E0.30813
G1 X124.277 Y98.783 E0.32118
G1 X124.646 Y99.124 E0.33011
G1 X125.151 Y99.643 E0.34298
G1 X125.481 Y100.019 E0.35188
G1 X125.94 Y100.601 E0.36505
G1 X126.23 Y101.013 E0.37401
G1 X126.625 Y101.645 E0.38726
G1 X126.867 Y102.082 E0.39614
G1 X127.19 Y102.744 E0.40923
G1 X127.385 Y103.206 E0.41814
G1 X127.642 Y103.922 E0.43167
G1 X127.785 Y104.402 E0.44057
G1 X127.95 Y105.083 E0.45303
G1 X128.044 Y105.576 E0.46195
G1 X128.145 Y106.32 E0.47529
G1 X128.185 Y106.819 E0.48419
G1 X128.205 Y107.552 E0.49723
G1 X128.192 Y108.054 E0.50615
G1 X128.132 Y108.797 E0.5194
G1 X128.065 Y109.296 E0.52835
G1 X127.927 Y110.025 E0.54154
G1 X127.808 Y110.51 E0.55042
G1 X127.598 Y111.207 E0.56336
G1 X127.428 Y111.679 E0.57228
G1 X127.147 Y112.347 E0.58516
G1 X126.929 Y112.798 E0.59406
G1 X126.562 Y113.462 E0.60755
G1 X126.295 Y113.888 E0.61649
G1 X125.876 Y114.485 E0.62945
G1 X125.567 Y114.879 E0.63835
G1 X125.083 Y115.433 E0.65143
G1 X124.733 Y115.793 E0.66036
G1 X124.179 Y116.304 E0.67375
G1 X123.793 Y116.623 E0.68265
G1 X123.206 Y117.058 E0.69564
G1 X122.788 Y117.335 E0.70456
G1 X122.164 Y117.703 E0.71743
G1 X121.719 Y117.935 E0.72635
G1 X121.034 Y118.246 E0.73973
G1 X120.565 Y118.429 E0.74868
G1 X119.876 Y118.657 E0.76158
G1 X119.394 Y118.789 E0.77046
G1 X118.665 Y118.947 E0.78372
G1 X118.168 Y119.027 E0.79267
G1 X117.441 Y119.105 E0.80567
G1 X116.941 Y119.132 E0.81457
G1 X116.193 Y119.132 E0.82786
G1 X115.693 Y119.105 E0.83676
G1 X114.966 Y119.027 E0.84976
G1 X114.469 Y118.947 E0.85871
G1 X113.74 Y118.789 E0.87197
G1 X113.258 Y118.657 E0.88085
G1 X112.569 Y118.429 E0.89375
G1 X112.1 Y118.246 E0.9027
G1 X111.415 Y117.935 E0.91607
G1 X110.97 Y117.703 E0.925
G1 X110.346 Y117.335 E0.93787
G1 X109.928 Y117.058 E0.94679
G1 X109.341 Y116.623 E0.95977
G1 X108.955 Y116.304 E0.96868
G1 X108.401 Y115.793 E0.98207
G1 X108.051 Y115.433 E0.991
G1 X107.555 Y114.863 E1.00443
G1 X107.247 Y114.468 E1.01333
G1 X106.844 Y113.894 E1.0258
G1 X106.577 Y113.469 E1.03472
G1 X106.211 Y112.809 E1.04814
G1 X105.992 Y112.358 E1.05705
G1 X105.706 Y111.679 E1.07015
G1 X105.536 Y111.207 E1.07906
G1 X105.326 Y110.51 E1.092
G1 X105.207 Y110.025 E1.10088
G1 X105.067 Y109.283 E1.1143
G1 X105.001 Y108.784 E1.12325
G1 X104.944 Y108.069 E1.136
G1 X104.93 Y107.57 E1.14488
G1 X104.949 Y106.823 E1.15816
G1 X104.989 Y106.323 E1.16708
G1 X105.089 Y105.583 E1.18035
G1 X105.183 Y105.088 E1.18931
G1 X105.352 Y104.395 E1.20198
G1 X105.495 Y103.917 E1.21085
G1 X105.749 Y103.208 E1.22424
G1 X105.944 Y102.746 E1.23316
G1 X106.263 Y102.091 E1.24611
G1 X106.506 Y101.651 E1.25504
G1 X106.901 Y101.018 E1.2683
G1 X107.189 Y100.608 E1.27721
G1 X107.659 Y100.011 E1.29072
G1 X107.991 Y99.634 E1.29965
M204 S625
M205 X6 Y6
G0 F4285.7 X108.306 Y99.912
M204 S500
M205 X5 Y5
G1 F1200 X108.774 Y99.433 E1.31155
G1 X109.143 Y99.092 E1.32048
G1 X109.674 Y98.651 E1.33275
G1 X110.077 Y98.351 E1.34168
G1 X110.653 Y97.968 E1.35398
G1 X111.083 Y97.714 E1.36286
G1 X111.703 Y97.391 E1.37528
G1 X112.159 Y97.184 E1.38419
G1 X112.815 Y96.928 E1.3967
G1 X113.292 Y96.771 E1.40563
G1 X113.944 Y96.594 E1.41764
G1 X114.436 Y96.487 E1.42659
G1 X115.141 Y96.373 E1.43928
G1 X115.647 Y96.32 E1.44833
G1 X116.379 Y96.281 E1.46136
G1 X116.999 Y96.288 E1.47238
G1 X117.505 Y96.321 E1.48139
G1 X118.004 Y96.374 E1.49031
G1 X118.699 Y96.487 E1.50283
G1 X119.191 Y96.594 E1.51178
G1 X119.847 Y96.773 E1.52387
G1 X120.323 Y96.93 E1.53278
G1 X120.969 Y97.182 E1.5451
G1 X121.424 Y97.388 E1.55398
G1 X122.048 Y97.712 E1.56648
G1 X122.48 Y97.967 E1.5754
G1 X123.058 Y98.351 E1.58773
G1 X123.461 Y98.651 E1.59666
G1 X123.992 Y99.092 E1.60893
G1 X124.361 Y99.433 E1.61787
G1 X124.836 Y99.92 E1.62996
G1 X125.166 Y100.296 E1.63885
G1 X125.596 Y100.843 E1.65122
G1 X125.886 Y101.255 E1.66017
G1 X126.258 Y101.848 E1.67262
G1 X126.5 Y102.285 E1.6815
G1 X126.803 Y102.908 E1.69381
G1 X126.998 Y103.37 E1.70273
G1 X127.239 Y104.042 E1.71542
G1 X127.382 Y104.522 E1.72432
G1 X127.538 Y105.162 E1.73603
G1 X127.632 Y105.655 E1.74495
G1 X127.726 Y106.354 E1.75749
G1 X127.766 Y106.853 E1.76639
G1 X127.785 Y107.542 E1.77864
G1 X127.772 Y108.044 E1.78757
G1 X127.716 Y108.741 E1.8
G1 X127.649 Y109.24 E1.80895
G1 X127.519 Y109.925 E1.82134
G1 X127.4 Y110.41 E1.83022
G1 X127.203 Y111.065 E1.84238
G1 X127.033 Y111.537 E1.85129
G1 X126.769 Y112.164 E1.86339
G1 X126.551 Y112.615 E1.87229
G1 X126.206 Y113.239 E1.88497
G1 X125.939 Y113.665 E1.8939
G1 X125.546 Y114.225 E1.90606
G1 X125.237 Y114.619 E1.91496
G1 X124.782 Y115.14 E1.92726
G1 X124.432 Y115.5 E1.93619
G1 X123.911 Y115.98 E1.94878
G1 X123.525 Y116.299 E1.95768
G1 X122.974 Y116.708 E1.96988
G1 X122.556 Y116.985 E1.97879
G1 X121.97 Y117.331 E1.99089
G1 X121.525 Y117.563 E1.99981
G1 X120.881 Y117.855 E2.01238
G1 X120.412 Y118.038 E2.02133
G1 X119.766 Y118.252 E2.03342
G1 X119.284 Y118.384 E2.04231
G1 X118.599 Y118.532 E2.05477
G1 X118.102 Y118.612 E2.06371
G1 X117.418 Y118.686 E2.07594
G1 X116.918 Y118.713 E2.08485
G1 X116.216 Y118.713 E2.09732
G1 X115.716 Y118.686 E2.10622
G1 X115.032 Y118.612 E2.11845
G1 X114.535 Y118.532 E2.1274
G1 X113.85 Y118.384 E2.13986
G1 X113.368 Y118.252 E2.14874
G1 X112.722 Y118.038 E2.16084
G1 X112.253 Y117.855 E2.16979
G1 X111.609 Y117.563 E2.18236
G1 X111.164 Y117.331 E2.19128
G1 X110.578 Y116.985 E2.20338
G1 X110.16 Y116.708 E2.21229
G1 X109.609 Y116.299 E2.22449
G1 X109.223 Y115.98 E2.23339
G1 X108.702 Y115.5 E2.24598
G1 X108.352 Y115.14 E2.25491
G1 X107.886 Y114.605 E2.26752
G1 X107.578 Y114.21 E2.27642
G1 X107.2 Y113.67 E2.28814
G1 X106.933 Y113.245 E2.29706
G1 X106.589 Y112.626 E2.30965
G1 X106.37 Y112.175 E2.31856
G1 X106.101 Y111.537 E2.33087
G1 X105.931 Y111.065 E2.33979
G1 X105.734 Y110.41 E2.35195
G1 X105.615 Y109.925 E2.36082
G1 X105.483 Y109.228 E2.37343
G1 X105.417 Y108.729 E2.38238
G1 X105.364 Y108.058 E2.39435
G1 X105.35 Y107.559 E2.40322
G1 X105.368 Y106.857 E2.4157
G1 X105.408 Y106.357 E2.42462
G1 X105.501 Y105.661 E2.4371
G1 X105.595 Y105.166 E2.44606
G1 X105.754 Y104.515 E2.45797
G1 X105.897 Y104.037 E2.46684
G1 X106.136 Y103.372 E2.4794
G1 X106.331 Y102.91 E2.48832
G1 X106.63 Y102.294 E2.50049
G1 X106.873 Y101.854 E2.50942
G1 X107.245 Y101.259 E2.5219
G1 X107.533 Y100.849 E2.5308
G1 X107.974 Y100.289 E2.54347
G1 X108.306 Y99.912 E2.5524
M204 S625
M205 X6 Y6
G0 F4285.7 X108.622 Y100.189
M204 S500
M205 X5 Y5
G1 F1200 X109.059 Y99.741 E2.56353
G1 X109.428 Y99.4 E2.57246
G1 X109.924 Y98.988 E2.58392
G1 X110.327 Y98.688 E2.59285
G1 X110.867 Y98.329 E2.60438
G1 X111.297 Y98.075 E2.61326
G1 X111.877 Y97.774 E2.62487
G1 X112.333 Y97.567 E2.63377
G1 X112.946 Y97.327 E2.64548
G1 X113.423 Y97.17 E2.6544
G1 X114.033 Y97.004 E2.66564
G1 X114.525 Y96.897 E2.67459
G1 X115.185 Y96.791 E2.68647
G1 X115.691 Y96.738 E2.69552
G1 X116.391 Y96.701 E2.70798
G1 X116.737 Y96.7 E2.71413
G1 X117.46 Y96.739 E2.727
G1 X117.959 Y96.792 E2.73592
G1 X118.61 Y96.897 E2.74764
G1 X119.102 Y97.004 E2.75659
G1 X119.716 Y97.171 E2.7679
G1 X120.192 Y97.328 E2.77681
G1 X120.796 Y97.564 E2.78834
G1 X121.251 Y97.77 E2.79722
G1 X121.835 Y98.074 E2.80892
G1 X122.267 Y98.329 E2.81784
G1 X122.808 Y98.688 E2.82938
G1 X123.211 Y98.988 E2.83831
G1 X123.707 Y99.4 E2.84977
G1 X124.076 Y99.741 E2.8587
G1 X124.52 Y100.197 E2.87002
G1 X124.85 Y100.573 E2.87891
G1 X125.253 Y101.085 E2.89049
G1 X125.543 Y101.497 E2.89945
G1 X125.891 Y102.052 E2.91109
G1 X126.133 Y102.489 E2.91997
G1 X126.416 Y103.071 E2.93148
G1 X126.611 Y103.533 E2.94039
G1 X126.836 Y104.162 E2.95226
G1 X126.979 Y104.642 E2.96117
G1 X127.125 Y105.24 E2.97211
G1 X127.219 Y105.733 E2.98103
G1 X127.308 Y106.387 E2.99276
G1 X127.348 Y106.886 E3.00166
G1 X127.365 Y107.531 E3.01313
G1 X127.352 Y108.033 E3.02206
G1 X127.3 Y108.685 E3.03369
G1 X127.233 Y109.184 E3.04264
G1 X127.112 Y109.825 E3.05423
G1 X126.993 Y110.31 E3.06311
G1 X126.808 Y110.923 E3.07449
G1 X126.638 Y111.395 E3.08341
G1 X126.391 Y111.981 E3.09471
G1 X126.173 Y112.432 E3.10362
G1 X125.85 Y113.016 E3.11548
G1 X125.583 Y113.442 E3.12442
G1 X125.215 Y113.966 E3.1358
G1 X124.906 Y114.36 E3.1447
G1 X124.48 Y114.847 E3.1562
G1 X124.13 Y115.207 E3.16513
G1 X123.644 Y115.656 E3.17689
G1 X123.258 Y115.975 E3.18579
G1 X122.742 Y116.358 E3.19721
G1 X122.324 Y116.635 E3.20613
G1 X121.775 Y116.958 E3.21745
G1 X121.33 Y117.19 E3.22637
G1 X120.729 Y117.463 E3.2381
G1 X120.26 Y117.646 E3.24705
G1 X119.655 Y117.847 E3.25839
G1 X119.173 Y117.979 E3.26727
G1 X118.532 Y118.118 E3.27893
G1 X118.035 Y118.198 E3.28788
G1 X117.395 Y118.266 E3.29932
G1 X116.895 Y118.293 E3.30822
G1 X116.239 Y118.293 E3.31988
G1 X115.739 Y118.266 E3.32878
G1 X115.099 Y118.198 E3.34022
G1 X114.602 Y118.118 E3.34917
G1 X113.961 Y117.979 E3.36083
G1 X113.479 Y117.847 E3.36971
G1 X112.874 Y117.646 E3.38104
G1 X112.405 Y117.463 E3.38999
G1 X111.804 Y117.19 E3.40173
G1 X111.359 Y116.958 E3.41065
G1 X110.81 Y116.635 E3.42197
G1 X110.392 Y116.358 E3.43088
G1 X109.876 Y115.975 E3.44231
G1 X109.49 Y115.656 E3.45121
G1 X109.004 Y115.207 E3.46297
G1 X108.654 Y114.847 E3.4719
G1 X108.217 Y114.347 E3.4837
G1 X107.909 Y113.952 E3.4926
G1 X107.555 Y113.447 E3.50357
G1 X107.288 Y113.022 E3.51249
G1 X106.967 Y112.442 E3.52427
G1 X106.748 Y111.991 E3.53318
G1 X106.496 Y111.395 E3.54469
G1 X106.326 Y110.923 E3.55361
G1 X106.141 Y110.31 E3.56499
G1 X106.022 Y109.825 E3.57386
G1 X105.9 Y109.173 E3.58566
G1 X105.834 Y108.674 E3.5946
G1 X105.783 Y108.046 E3.6058
G1 X105.769 Y107.547 E3.61468
G1 X105.786 Y106.89 E3.62636
G1 X105.826 Y106.39 E3.63528
G1 X105.914 Y105.74 E3.64694
G1 X106.008 Y105.245 E3.65589
G1 X106.156 Y104.636 E3.66703
G1 X106.299 Y104.158 E3.6759
G1 X106.523 Y103.535 E3.68767
G1 X106.718 Y103.073 E3.69658
G1 X106.998 Y102.497 E3.70797
G1 X107.241 Y102.057 E3.7169
G1 X107.589 Y101.5 E3.72858
G1 X107.877 Y101.09 E3.73748
G1 X108.29 Y100.566 E3.74934
G1 X108.622 Y100.189 E3.75827
M204 S625
M205 X6 Y6
G0 F4285.7 X108.937 Y100.467
M204 S500
M205 X5 Y5
G1 F1200 X109.344 Y100.05 E3.76863
G1 X109.713 Y99.709 E3.77756
G1 X110.175 Y99.325 E3.78824
G1 X110.578 Y99.025 E3.79717
G1 X111.08 Y98.691 E3.80789
G1 X111.51 Y98.437 E3.81677
G1 X112.05 Y98.156 E3.82759
G1 X112.506 Y97.949 E3.83649
G1 X113.077 Y97.726 E3.84739
G1 X113.554 Y97.569 E3.85632
G1 X114.122 Y97.415 E3.86678
G1 X114.614 Y97.308 E3.87573
G1 X115.228 Y97.209 E3.88678
G1 X115.734 Y97.156 E3.89583
G1 X116.403 Y97.12 E3.90774
G1 X116.726 Y97.12 E3.91348
G1 X117.416 Y97.157 E3.92576
G1 X117.915 Y97.21 E3.93468
G1 X118.521 Y97.308 E3.94559
G1 X119.013 Y97.415 E3.95454
G1 X119.584 Y97.57 E3.96506
G1 X120.06 Y97.727 E3.97397
G1 X120.623 Y97.947 E3.98471
G1 X121.078 Y98.153 E3.99359
G1 X121.621 Y98.435 E4.00447
G1 X122.053 Y98.69 E4.01339
G1 X122.557 Y99.025 E4.02414
G1 X122.96 Y99.325 E4.03308
G1 X123.422 Y99.709 E4.04375
G1 X123.791 Y100.05 E4.05269
G1 X124.204 Y100.474 E4.06321
G1 X124.534 Y100.85 E4.0721
G1 X124.91 Y101.326 E4.08288
G1 X125.2 Y101.738 E4.09184
G1 X125.523 Y102.255 E4.10268
G1 X125.765 Y102.692 E4.11155
G1 X126.029 Y103.234 E4.12227
G1 X126.224 Y103.696 E4.13119
G1 X126.434 Y104.282 E4.14225
G1 X126.577 Y104.762 E4.15115
G1 X126.713 Y105.319 E4.16135
G1 X126.807 Y105.812 E4.17027
G1 X126.889 Y106.421 E4.18119
G1 X126.929 Y106.92 E4.19009
G1 X126.945 Y107.52 E4.20076
G1 X126.932 Y108.022 E4.20969
G1 X126.884 Y108.63 E4.22053
G1 X126.817 Y109.129 E4.22948
G1 X126.704 Y109.725 E4.24026
G1 X126.585 Y110.21 E4.24914
G1 X126.413 Y110.78 E4.25972
G1 X126.243 Y111.252 E4.26864
G1 X126.013 Y111.799 E4.27919
G1 X125.795 Y112.25 E4.28809
G1 X125.494 Y112.793 E4.29913
G1 X125.227 Y113.219 E4.30806
G1 X124.885 Y113.707 E4.31866
G1 X124.576 Y114.101 E4.32756
G1 X124.179 Y114.554 E4.33826
G1 X123.829 Y114.914 E4.34719
G1 X123.376 Y115.333 E4.35816
G1 X122.99 Y115.652 E4.36706
G1 X122.51 Y116.007 E4.37767
G1 X122.092 Y116.284 E4.38659
G1 X121.581 Y116.586 E4.39714
G1 X121.136 Y116.818 E4.40606
G1 X120.576 Y117.072 E4.41699
G1 X120.107 Y117.255 E4.42594
G1 X119.544 Y117.442 E4.43648
G1 X119.062 Y117.574 E4.44537
G1 X118.465 Y117.703 E4.45622
G1 X117.968 Y117.783 E4.46517
G1 X117.373 Y117.847 E4.47581
G1 X116.873 Y117.874 E4.48471
G1 X116.261 Y117.874 E4.49559
G1 X115.761 Y117.847 E4.50449
G1 X115.166 Y117.783 E4.51513
G1 X114.669 Y117.703 E4.52408
G1 X114.072 Y117.574 E4.53493
G1 X113.59 Y117.442 E4.54382
G1 X113.027 Y117.255 E4.55436
G1 X112.558 Y117.072 E4.56331
G1 X111.998 Y116.818 E4.57424
G1 X111.553 Y116.586 E4.58316
G1 X111.042 Y116.284 E4.59372
G1 X110.624 Y116.007 E4.60263
G1 X110.144 Y115.652 E4.61324
G1 X109.758 Y115.333 E4.62214
G1 X109.305 Y114.914 E4.63311
G1 X108.955 Y114.554 E4.64204
G1 X108.549 Y114.089 E4.65301
G1 X108.241 Y113.694 E4.66191
G1 X107.911 Y113.223 E4.67214
G1 X107.644 Y112.798 E4.68106
G1 X107.345 Y112.259 E4.69202
G1 X107.126 Y111.808 E4.70093
G1 X106.891 Y111.252 E4.71166
G1 X106.721 Y110.78 E4.72058
G1 X106.549 Y110.21 E4.73116
G1 X106.43 Y109.725 E4.74004
G1 X106.316 Y109.117 E4.75103
G1 X106.25 Y108.618 E4.75998
G1 X106.203 Y108.034 E4.77039
G1 X106.189 Y107.535 E4.77927
G1 X106.205 Y106.924 E4.79013
G1 X106.245 Y106.424 E4.79905
G1 X106.327 Y105.818 E4.80992
G1 X106.421 Y105.323 E4.81888
G1 X106.559 Y104.756 E4.82925
G1 X106.702 Y104.278 E4.83812
G1 X106.91 Y103.698 E4.84907
G1 X107.105 Y103.236 E4.85799
G1 X107.366 Y102.7 E4.86858
G1 X107.609 Y102.26 E4.87752
G1 X107.932 Y101.742 E4.88837
G1 X108.22 Y101.332 E4.89728
G1 X108.605 Y100.844 E4.90833
G1 X108.937 Y100.467 E4.91726
M204 S625
M205 X6 Y6
G0 F4285.7 X109.252 Y100.744
M204 S500
M205 X5 Y5
G1 F1200 X109.629 Y100.358 E4.92685
G1 X109.998 Y100.017 E4.93578
G1 X110.426 Y99.662 E4.94566
G1 X110.829 Y99.362 E4.95459
G1 X111.294 Y99.053 E4.96452
G1 X111.724 Y98.799 E4.9734
G1 X112.224 Y98.538 E4.98342
G1 X112.68 Y98.331 E4.99232
G1 X113.209 Y98.125 E5.00241
G1 X113.686 Y97.968 E5.01134
G1 X114.211 Y97.825 E5.02101
G1 X114.703 Y97.718 E5.02996
G1 X115.272 Y97.627 E5.04021
G1 X115.778 Y97.574 E5.04925
G1 X116.415 Y97.54 E5.06059
G1 X116.714 Y97.54 E5.06591
G1 X117.371 Y97.574 E5.0776
G1 X117.87 Y97.627 E5.08652
G1 X118.432 Y97.718 E5.09664
G1 X118.924 Y97.825 E5.10559
G1 X119.452 Y97.969 E5.11532
G1 X119.928 Y98.126 E5.12423
G1 X120.449 Y98.329 E5.13417
G1 X120.904 Y98.535 E5.14305
G1 X121.408 Y98.797 E5.15314
G1 X121.84 Y99.052 E5.16206
G1 X122.306 Y99.362 E5.17201
G1 X122.709 Y99.662 E5.18094
G1 X123.137 Y100.017 E5.19083
