;START_OF_HEADER
;HEADER_VERSION:0.1
;FLAVOR:Griffin
;GENERATOR.NAME:Cura_SteamEngine
;GENERATOR.VERSION:master
;GENERATOR.BUILD_DATE:2021-06-20
;TARGET_MACHINE.NAME:Ultimaker 3
;EXTRUDER_TRAIN.0.INITIAL_TEMPERATURE:205
;EXTRUDER_TRAIN.0.MATERIAL.VOLUME_USED:20214
;EXTRUDER_TRAIN.0.MATERIAL.GUID:506c9f0d-e3aa-4bd4-b2d2-23e2425b1aa9
;EXTRUDER_TRAIN.0.NOZZLE.DIAMETER:0.4
;EXTRUDER_TRAIN.0.NOZZLE.NAME:AA 0.4
;BUILD_PLATE.TYPE:glass
;BUILD_PLATE.INITIAL_TEMPERATURE:60
;PRINT.TIME:17112
;PRINT.GROUPS:1
;PRINT.SIZE.MIN.X:9
;PRINT.SIZE.MIN.Y:6
;PRINT.SIZE.MIN.Z:0.27
;PRINT.SIZE.MAX.X:161.575
;PRINT.SIZE.MAX.Y:152.53
;PRINT.SIZE.MAX.Z:6.97
;END_OF_HEADER
;Generated with Cura_SteamEngine master
T0
M82 ;absolute extrusion mode

G92 E0
M109 S205
G0 F15000 X9 Y6 Z2
G280
G1 F1500 E-6.5
;LAYER_COUNT:68
;LAYER:0
M107
M204 S625
M205 X6 Y6
G1 F600 Z2.27
G0 F4285.7 X73.385 Y64.665 Z2.27
M204 S500
M205 X5 Y5
;TYPE:SKIRT
G1 F600 Z0.27
G1 F1500 E0
G1 F1200 X73.922 Y64.15 E0.01323
G1 X74.511 Y63.695 E0.02646
G1 X75.145 Y63.306 E0.03968
G1 X75.818 Y62.987 E0.05292
G1 X76.521 Y62.742 E0.06615
G1 X77.246 Y62.574 E0.07938
G1 X77.985 Y62.485 E0.09261
G1 X78.445 Y62.47 E0.10079
G1 X154.645 Y62.47 E1.45532
G1 X155.388 Y62.51 E1.46855
G1 X156.123 Y62.629 E1.48178
G1 X156.841 Y62.827 E1.49502
G1 X157.533 Y63.1 E1.50825
G1 X158.192 Y63.446 E1.52148
G1 X158.81 Y63.861 E1.53471
G1 X159.38 Y64.34 E1.54795
G1 X159.895 Y64.877 E1.56117
G1 X160.35 Y65.466 E1.5744
G1 X160.739 Y66.1 E1.58762
G1 X161.058 Y66.773 E1.60086
G1 X161.303 Y67.476 E1.6141
G1 X161.471 Y68.201 E1.62733
G1 X161.56 Y68.94 E1.64056
G1 X161.575 Y69.4 E1.64874
G1 X161.575 Y145.6 E3.00327
G1 X161.535 Y146.343 E3.0165
G1 X161.416 Y147.078 E3.02973
G1 X161.218 Y147.796 E3.04297
G1 X160.945 Y148.488 E3.05619
G1 X160.599 Y149.147 E3.06942
G1 X160.184 Y149.765 E3.08266
G1 X159.705 Y150.335 E3.09589
G1 X159.168 Y150.85 E3.10912
G1 X158.579 Y151.305 E3.12235
G1 X157.945 Y151.694 E3.13557
G1 X157.272 Y152.013 E3.14881
G1 X156.569 Y152.258 E3.16204
G1 X155.844 Y152.426 E3.17527
G1 X155.105 Y152.515 E3.1885
G1 X154.645 Y152.53 E3.19669
G1 X78.445 Y152.53 E4.55121
G1 X77.702 Y152.49 E4.56444
G1 X76.967 Y152.371 E4.57768
G1 X76.249 Y152.173 E4.59092
G1 X75.557 Y151.9 E4.60414
G1 X74.898 Y151.554 E4.61737
G1 X74.28 Y151.139 E4.6306
G1 X73.71 Y150.66 E4.64384
G1 X73.195 Y150.123 E4.65706
G1 X72.74 Y149.534 E4.67029
G1 X72.351 Y148.9 E4.68352
G1 X72.032 Y148.227 E4.69676
G1 X71.787 Y147.524 E4.70999
G1 X71.619 Y146.799 E4.72322
G1 X71.53 Y146.06 E4.73645
G1 X71.515 Y145.6 E4.74463
G1 X71.515 Y69.4 E6.09916
G1 X71.555 Y68.657 E6.11239
G1 X71.674 Y67.922 E6.12562
G1 X71.872 Y67.204 E6.13886
G1 X72.145 Y66.512 E6.15209
G1 X72.491 Y65.853 E6.16532
G1 X72.906 Y65.235 E6.17855
G1 X73.385 Y64.665 E6.19178
M204 S625
M205 X6 Y6
G0 F4285.7 X73.799 Y64.84
M204 S500
M205 X5 Y5
G1 F1200 X74.332 Y64.354 E6.20461
G1 X74.916 Y63.93 E6.21743
G1 X75.543 Y63.573 E6.23026
G1 X76.205 Y63.287 E6.24308
G1 X76.895 Y63.077 E6.2559
G1 X77.604 Y62.945 E6.26872
G1 X78.445 Y62.89 E6.2837
G1 X154.645 Y62.89 E7.63823
G1 X155.365 Y62.93 E7.65105
G1 X156.077 Y63.049 E7.66388
G1 X156.771 Y63.247 E7.67671
G1 X157.438 Y63.52 E7.68952
G1 X158.072 Y63.865 E7.70235
G1 X158.663 Y64.278 E7.71517
G1 X159.205 Y64.754 E7.72799
G1 X159.691 Y65.287 E7.74081
G1 X160.115 Y65.871 E7.75364
G1 X160.472 Y66.498 E7.76647
G1 X160.758 Y67.16 E7.77929
G1 X160.968 Y67.85 E7.79211
G1 X161.1 Y68.559 E7.80493
G1 X161.155 Y69.4 E7.81991
G1 X161.155 Y145.6 E9.17444
G1 X161.115 Y146.32 E9.18726
G1 X160.996 Y147.032 E9.20009
G1 X160.798 Y147.726 E9.21292
G1 X160.525 Y148.393 E9.22573
G1 X160.18 Y149.027 E9.23856
G1 X159.767 Y149.618 E9.25138
G1 X159.291 Y150.16 E9.2642
G1 X158.758 Y150.646 E9.27702
G1 X158.174 Y151.07 E9.28985
G1 X157.547 Y151.427 E9.30267
G1 X156.885 Y151.713 E9.31549
G1 X156.195 Y151.923 E9.32831
G1 X155.486 Y152.055 E9.34113
G1 X154.645 Y152.11 E9.35612
G1 X78.445 Y152.11 E10.71064
G1 X77.725 Y152.07 E10.72346
G1 X77.013 Y151.951 E10.7363
G1 X76.319 Y151.753 E10.74912
G1 X75.652 Y151.48 E10.76194
G1 X75.018 Y151.135 E10.77477
G1 X74.427 Y150.722 E10.78758
G1 X73.885 Y150.246 E10.80041
G1 X73.399 Y149.713 E10.81323
G1 X72.975 Y149.129 E10.82606
G1 X72.618 Y148.502 E10.83888
G1 X72.332 Y147.84 E10.8517
G1 X72.122 Y147.15 E10.86452
G1 X71.99 Y146.441 E10.87734
G1 X71.935 Y145.6 E10.89232
G1 X71.935 Y69.4 E12.24685
G1 X71.975 Y68.68 E12.25967
G1 X72.094 Y67.968 E12.2725
G1 X72.292 Y67.274 E12.28533
G1 X72.565 Y66.607 E12.29814
G1 X72.91 Y65.973 E12.31097
G1 X73.323 Y65.382 E12.32379
G1 X73.799 Y64.84 E12.33661
M204 S625
M205 X6 Y6
G0 F4285.7 X74.213 Y65.021
M204 S500
M205 X5 Y5
G1 F1200 X74.741 Y64.566 E12.349
G1 X75.318 Y64.174 E12.3614
G1 X75.937 Y63.851 E12.37381
G1 X76.588 Y63.6 E12.38622
G1 X77.264 Y63.426 E12.39862
G1 X77.955 Y63.33 E12.41103
G1 X78.445 Y63.31 E12.41974
G1 X154.645 Y63.31 E13.77427
G1 X155.342 Y63.35 E13.78668
G1 X156.029 Y63.469 E13.79908
G1 X156.698 Y63.667 E13.81148
G1 X157.341 Y63.939 E13.82389
G1 X157.947 Y64.283 E13.83628
G1 X158.511 Y64.695 E13.84869
G1 X159.024 Y65.168 E13.86109
G1 X159.479 Y65.696 E13.87348
G1 X159.871 Y66.273 E13.88588
G1 X160.194 Y66.892 E13.8983
G1 X160.445 Y67.543 E13.9107
G1 X160.619 Y68.219 E13.92311
G1 X160.715 Y68.91 E13.93551
G1 X160.735 Y69.4 E13.94423
G1 X160.735 Y145.6 E15.29875
G1 X160.695 Y146.297 E15.31116
G1 X160.576 Y146.984 E15.32356
G1 X160.378 Y147.653 E15.33596
G1 X160.106 Y148.296 E15.34837
G1 X159.762 Y148.902 E15.36076
G1 X159.35 Y149.466 E15.37317
G1 X158.877 Y149.979 E15.38558
G1 X158.349 Y150.434 E15.39797
G1 X157.772 Y150.826 E15.41037
G1 X157.153 Y151.149 E15.42278
G1 X156.502 Y151.4 E15.43518
G1 X155.826 Y151.574 E15.44759
G1 X155.135 Y151.67 E15.45999
G1 X154.645 Y151.69 E15.46871
G1 X78.445 Y151.69 E16.82324
G1 X77.748 Y151.65 E16.83565
G1 X77.061 Y151.531 E16.84804
G1 X76.392 Y151.333 E16.86044
G1 X75.749 Y151.061 E16.87285
G1 X75.143 Y150.717 E16.88524
G1 X74.579 Y150.305 E16.89766
G1 X74.066 Y149.832 E16.91006
G1 X73.611 Y149.304 E16.92245
G1 X73.219 Y148.727 E16.93485
G1 X72.896 Y148.108 E16.94726
G1 X72.645 Y147.457 E16.95966
G1 X72.471 Y146.781 E16.97207
G1 X72.375 Y146.09 E16.98447
G1 X72.355 Y145.6 E16.99319
G1 X72.355 Y69.4 E18.34772
G1 X72.395 Y68.703 E18.36013
G1 X72.514 Y68.016 E18.37252
G1 X72.712 Y67.347 E18.38493
G1 X72.984 Y66.704 E18.39734
G1 X73.328 Y66.098 E18.40972
G1 X73.74 Y65.534 E18.42214
G1 X74.213 Y65.021 E18.43454
M204 S625
M205 X6 Y6
G0 F4285.7 X74.155 Y65.692
M204 S500
M205 X5 Y5
G1 F1200 X74.625 Y65.21 E18.44651
G1 X75.149 Y64.787 E18.45848
G1 X75.719 Y64.428 E18.47046
G1 X76.327 Y64.14 E18.48241
G1 X76.965 Y63.926 E18.49438
G1 X77.625 Y63.79 E18.50636
G1 X78.445 Y63.73 E18.52097
G1 X154.645 Y63.73 E19.8755
G1 X155.317 Y63.77 E19.88747
G1 X155.98 Y63.889 E19.89944
G1 X156.623 Y64.086 E19.91139
G1 X157.239 Y64.358 E19.92336
G1 X157.818 Y64.701 E19.93533
G1 X158.353 Y65.11 E19.9473
G1 X158.835 Y65.58 E19.95927
G1 X159.258 Y66.104 E19.97124
G1 X159.617 Y66.674 E19.98321
G1 X159.905 Y67.282 E19.99517
G1 X160.119 Y67.92 E20.00713
G1 X160.255 Y68.58 E20.01911
G1 X160.315 Y69.4 E20.03373
G1 X160.315 Y145.6 E21.38826
G1 X160.275 Y146.272 E21.40022
G1 X160.156 Y146.935 E21.4122
G1 X159.959 Y147.578 E21.42415
G1 X159.687 Y148.194 E21.43612
G1 X159.344 Y148.773 E21.44808
G1 X158.935 Y149.308 E21.46005
G1 X158.465 Y149.79 E21.47202
G1 X157.941 Y150.213 E21.48399
G1 X157.371 Y150.572 E21.49597
G1 X156.763 Y150.86 E21.50792
G1 X156.125 Y151.074 E21.51989
G1 X155.465 Y151.21 E21.53187
G1 X154.645 Y151.27 E21.54648
G1 X78.445 Y151.27 E22.90101
G1 X77.773 Y151.23 E22.91298
G1 X77.11 Y151.111 E22.92495
G1 X76.467 Y150.914 E22.93691
G1 X75.851 Y150.642 E22.94888
G1 X75.272 Y150.299 E22.96084
G1 X74.737 Y149.89 E22.97281
G1 X74.255 Y149.42 E22.98478
G1 X73.832 Y148.896 E22.99675
G1 X73.473 Y148.326 E23.00872
G1 X73.185 Y147.718 E23.02068
G1 X72.971 Y147.08 E23.03264
G1 X72.835 Y146.42 E23.04462
G1 X72.775 Y145.6 E23.05924
G1 X72.775 Y69.4 E24.41377
G1 X72.815 Y68.728 E24.42573
G1 X72.934 Y68.065 E24.43771
G1 X73.131 Y67.422 E24.44966
G1 X73.403 Y66.806 E24.46163
G1 X73.746 Y66.227 E24.47359
G1 X74.155 Y65.692 E24.48556
M204 S625
M205 X6 Y6
G0 F4285.7 X74.571 Y65.857
M204 S500
M205 X5 Y5
G1 F1200 X75.037 Y65.407 E24.49708
G1 X75.554 Y65.018 E24.50858
G1 X76.116 Y64.695 E24.5201
G1 X76.713 Y64.444 E24.53161
G1 X77.337 Y64.268 E24.54314
G1 X77.977 Y64.171 E24.55465
G1 X78.445 Y64.15 E24.56297
G1 X154.645 Y64.15 E25.9175
G1 X155.292 Y64.19 E25.92903
G1 X155.928 Y64.309 E25.94053
G1 X156.545 Y64.506 E25.95204
G1 X157.134 Y64.777 E25.96357
G1 X157.684 Y65.119 E25.97508
G1 X158.188 Y65.526 E25.98659
G1 X158.638 Y65.992 E25.99811
G1 X159.027 Y66.509 E26.00961
G1 X159.35 Y67.071 E26.02113
G1 X159.601 Y67.668 E26.03265
G1 X159.777 Y68.292 E26.04417
G1 X159.874 Y68.932 E26.05568
G1 X159.895 Y69.4 E26.064
G1 X159.895 Y145.6 E27.41853
G1 X159.855 Y146.247 E27.43006
G1 X159.736 Y146.883 E27.44156
G1 X159.539 Y147.5 E27.45307
G1 X159.268 Y148.089 E27.4646
G1 X158.926 Y148.639 E27.47611
G1 X158.519 Y149.143 E27.48763
G1 X158.053 Y149.593 E27.49914
G1 X157.536 Y149.982 E27.51064
G1 X156.974 Y150.305 E27.52216
G1 X156.377 Y150.556 E27.53368
G1 X155.753 Y150.732 E27.5452
G1 X155.113 Y150.829 E27.55671
G1 X154.645 Y150.85 E27.56504
G1 X78.445 Y150.85 E28.91957
G1 X77.798 Y150.81 E28.93109
G1 X77.162 Y150.691 E28.94259
G1 X76.545 Y150.494 E28.9541
G1 X75.956 Y150.223 E28.96563
G1 X75.406 Y149.881 E28.97714
G1 X74.902 Y149.474 E28.98866
G1 X74.452 Y149.008 E29.00017
G1 X74.063 Y148.491 E29.01167
G1 X73.74 Y147.929 E29.0232
G1 X73.489 Y147.332 E29.03471
G1 X73.313 Y146.708 E29.04623
G1 X73.216 Y146.068 E29.05774
G1 X73.195 Y145.6 E29.06607
G1 X73.195 Y69.4 E30.4206
G1 X73.235 Y68.753 E30.43212
G1 X73.354 Y68.117 E30.44362
G1 X73.551 Y67.5 E30.45513
G1 X73.822 Y66.911 E30.46666
G1 X74.164 Y66.361 E30.47817
G1 X74.571 Y65.857 E30.48969
M204 S625
M205 X6 Y6
G0 F4285.7 X74.985 Y66.03
M204 S500
M205 X5 Y5
G1 F1200 X75.447 Y65.613 E30.50075
G1 X75.957 Y65.26 E30.51178
G1 X76.509 Y64.975 E30.52282
G1 X77.094 Y64.763 E30.53388
G1 X77.7 Y64.628 E30.54492
G1 X78.445 Y64.57 E30.5582
G1 X154.645 Y64.57 E31.91273
G1 X155.265 Y64.61 E31.92377
G1 X155.875 Y64.729 E31.93482
G1 X156.464 Y64.926 E31.94586
G1 X157.023 Y65.196 E31.9569
G1 X157.543 Y65.536 E31.96794
G1 X158.015 Y65.94 E31.97898
G1 X158.432 Y66.402 E31.99005
G1 X158.785 Y66.912 E32.00107
G1 X159.07 Y67.464 E32.01212
G1 X159.282 Y68.049 E32.02318
G1 X159.417 Y68.655 E32.03421
G1 X159.475 Y69.4 E32.0475
G1 X159.475 Y145.6 E33.40202
G1 X159.435 Y146.22 E33.41307
G1 X159.316 Y146.83 E33.42412
G1 X159.119 Y147.419 E33.43516
G1 X158.849 Y147.978 E33.44619
G1 X158.509 Y148.498 E33.45724
G1 X158.105 Y148.97 E33.46828
G1 X157.643 Y149.387 E33.47934
G1 X157.133 Y149.74 E33.49037
G1 X156.581 Y150.025 E33.50141
G1 X155.996 Y150.237 E33.51247
G1 X155.39 Y150.372 E33.52351
G1 X154.645 Y150.43 E33.53679
G1 X78.445 Y150.43 E34.89132
G1 X77.825 Y150.39 E34.90237
G1 X77.215 Y150.271 E34.91341
G1 X76.626 Y150.074 E34.92445
G1 X76.067 Y149.804 E34.93549
G1 X75.547 Y149.464 E34.94653
G1 X75.075 Y149.06 E34.95758
G1 X74.658 Y148.598 E34.96864
G1 X74.305 Y148.088 E34.97966
G1 X74.02 Y147.536 E34.99071
G1 X73.808 Y146.951 E35.00177
G1 X73.673 Y146.345 E35.01281
G1 X73.615 Y145.6 E35.02609
G1 X73.615 Y69.4 E36.38062
G1 X73.655 Y68.78 E36.39166
G1 X73.774 Y68.17 E36.40271
G1 X73.971 Y67.581 E36.41375
G1 X74.241 Y67.022 E36.42478
G1 X74.581 Y66.502 E36.43583
G1 X74.985 Y66.03 E36.44687
M204 S625
M205 X6 Y6
G0 F4285.7 X75.399 Y66.211
M204 S500
M205 X5 Y5
G1 F1200 X75.855 Y65.831 E36.45742
G1 X76.358 Y65.515 E36.46798
G1 X76.898 Y65.27 E36.47852
G1 X77.467 Y65.1 E36.48908
G1 X78.053 Y65.007 E36.49963
G1 X78.445 Y64.99 E36.5066
G1 X154.645 Y64.99 E37.86113
G1 X155.237 Y65.03 E37.87168
G1 X155.819 Y65.149 E37.88224
G1 X156.379 Y65.345 E37.89279
G1 X156.908 Y65.615 E37.90334
G1 X157.396 Y65.953 E37.9139
G1 X157.834 Y66.354 E37.92445
G1 X158.214 Y66.81 E37.935
G1 X158.53 Y67.313 E37.94556
G1 X158.775 Y67.853 E37.9561
G1 X158.945 Y68.422 E37.96666
G1 X159.038 Y69.008 E37.97721
G1 X159.055 Y69.4 E37.98418
G1 X159.055 Y145.6 E39.33871
G1 X159.015 Y146.192 E39.34926
G1 X158.896 Y146.774 E39.35982
G1 X158.7 Y147.334 E39.37036
G1 X158.43 Y147.863 E39.38092
G1 X158.092 Y148.351 E39.39147
G1 X157.691 Y148.789 E39.40203
G1 X157.235 Y149.169 E39.41258
G1 X156.732 Y149.485 E39.42314
G1 X156.192 Y149.73 E39.43368
G1 X155.623 Y149.9 E39.44424
G1 X155.037 Y149.993 E39.45478
G1 X154.645 Y150.01 E39.46176
G1 X78.445 Y150.01 E40.81629
G1 X77.853 Y149.97 E40.82684
G1 X77.271 Y149.851 E40.8374
G1 X76.711 Y149.655 E40.84794
G1 X76.182 Y149.385 E40.8585
G1 X75.694 Y149.047 E40.86905
G1 X75.256 Y148.646 E40.87961
G1 X74.876 Y148.19 E40.89016
G1 X74.56 Y147.687 E40.90072
G1 X74.315 Y147.147 E40.91126
G1 X74.145 Y146.578 E40.92182
G1 X74.052 Y145.992 E40.93236
G1 X74.035 Y145.6 E40.93934
G1 X74.035 Y69.4 E42.29387
G1 X74.075 Y68.808 E42.30441
G1 X74.194 Y68.226 E42.31497
G1 X74.39 Y67.666 E42.32552
G1 X74.66 Y67.137 E42.33608
G1 X74.998 Y66.649 E42.34663
G1 X75.399 Y66.211 E42.35719
M204 S625
M205 X6 Y6
G0 F4285.7 X75.414 Y66.805
M204 S500
M205 X5 Y5
G1 F1200 X75.811 Y66.403 E42.36723
G1 X76.26 Y66.061 E42.37726
G1 X76.754 Y65.786 E42.38731
G1 X77.281 Y65.584 E42.39735
G1 X77.831 Y65.458 E42.40738
G1 X78.445 Y65.41 E42.41832
G1 X154.645 Y65.41 E43.77285
G1 X155.208 Y65.45 E43.78289
G1 X155.76 Y65.569 E43.79292
G1 X156.29 Y65.765 E43.80297
G1 X156.786 Y66.033 E43.81299
G1 X157.24 Y66.369 E43.82303
G1 X157.642 Y66.766 E43.83307
G1 X157.984 Y67.215 E43.84311
G1 X158.259 Y67.709 E43.85316
G1 X158.461 Y68.236 E43.86319
G1 X158.587 Y68.786 E43.87322
G1 X158.635 Y69.4 E43.88417
G1 X158.635 Y145.6 E45.2387
G1 X158.595 Y146.163 E45.24873
G1 X158.476 Y146.715 E45.25877
G1 X158.28 Y147.245 E45.26881
G1 X158.012 Y147.741 E45.27883
G1 X157.676 Y148.195 E45.28887
G1 X157.279 Y148.597 E45.29892
G1 X156.83 Y148.939 E45.30895
G1 X156.336 Y149.214 E45.319
G1 X155.809 Y149.416 E45.32903
G1 X155.259 Y149.542 E45.33906
G1 X154.645 Y149.59 E45.35001
G1 X78.445 Y149.59 E46.70454
G1 X77.882 Y149.55 E46.71457
G1 X77.33 Y149.431 E46.72461
G1 X76.8 Y149.235 E46.73466
G1 X76.304 Y148.967 E46.74468
G1 X75.85 Y148.631 E46.75472
G1 X75.448 Y148.234 E46.76476
G1 X75.106 Y147.785 E46.77479
G1 X74.831 Y147.291 E46.78484
G1 X74.629 Y146.764 E46.79488
G1 X74.503 Y146.214 E46.80491
G1 X74.455 Y145.6 E46.81585
G1 X74.455 Y69.4 E48.17038
G1 X74.495 Y68.837 E48.18042
G1 X74.614 Y68.285 E48.19046
G1 X74.81 Y67.755 E48.2005
G1 X75.078 Y67.259 E48.21052
G1 X75.414 Y66.805 E48.22056
M204 S625
M205 X6 Y6
G0 F4285.7 X75.83 Y66.97
M204 S500
M205 X5 Y5
G1 F1200 X76.221 Y66.607 E48.23005
G1 X76.663 Y66.307 E48.23954
G1 X77.144 Y66.075 E48.24903
G1 X77.655 Y65.919 E48.25853
G1 X78.445 Y65.83 E48.27266
G1 X154.645 Y65.83 E49.62719
G1 X155.178 Y65.87 E49.63669
G1 X155.698 Y65.989 E49.64618
G1 X156.195 Y66.184 E49.65567
G1 X156.658 Y66.451 E49.66517
G1 X157.075 Y66.785 E49.67466
G1 X157.438 Y67.176 E49.68415
G1 X157.738 Y67.618 E49.69364
G1 X157.97 Y68.099 E49.70314
G1 X158.126 Y68.61 E49.71263
G1 X158.215 Y69.4 E49.72677
G1 X158.215 Y145.6 E51.0813
G1 X158.175 Y146.133 E51.0908
G1 X158.056 Y146.653 E51.10028
G1 X157.861 Y147.15 E51.10977
G1 X157.594 Y147.613 E51.11927
G1 X157.26 Y148.03 E51.12877
G1 X156.869 Y148.393 E51.13825
G1 X156.427 Y148.693 E51.14775
G1 X155.946 Y148.925 E51.15724
G1 X155.435 Y149.081 E51.16674
G1 X154.645 Y149.17 E51.18087
G1 X78.445 Y149.17 E52.5354
G1 X77.912 Y149.13 E52.5449
G1 X77.392 Y149.011 E52.55438
G1 X76.895 Y148.816 E52.56387
G1 X76.432 Y148.549 E52.57337
G1 X76.015 Y148.215 E52.58287
G1 X75.652 Y147.824 E52.59236
G1 X75.352 Y147.382 E52.60185
G1 X75.12 Y146.901 E52.61134
G1 X74.964 Y146.39 E52.62084
G1 X74.875 Y145.6 E52.63497
G1 X74.875 Y69.4 E53.9895
G1 X74.915 Y68.867 E53.999
G1 X75.034 Y68.347 E54.00849
G1 X75.229 Y67.85 E54.01798
G1 X75.496 Y67.387 E54.02748
G1 X75.83 Y66.97 E54.03697
M204 S625
M205 X6 Y6
G0 F4285.7 X76.244 Y67.147
M204 S500
M205 X5 Y5
